FilmCameraApp/FilmCameraApp/LUTs/FranceFilter.cube
TITLE "FranceFilter.cube"
LUT_3D_SIZE 33
0.000000 0.000000 0.050000
0.033750 0.000000 0.050000
0.067500 0.000000 0.050000
0.101250 0.000000 0.050000
0.135000 0.000000 0.050000
0.168750 0.000000 0.050000
0.202500 0.000000 0.050000
0.236250 0.000000 0.050000
0.270000 0.000000 0.050000
0.303750 0.000000 0.050000
0.337500 0.000000 0.050000
0.371250 0.000000 0.050000
0.405000 0.000000 0.050000
0.438750 0.000000 0.050000
0.472500 0.000000 0.050000
0.506250 0.000000 0.050000
0.540000 0.000000 0.050000
0.573750 0.000000 0.050000
0.607500 0.000000 0.050000
0.641250 0.000000 0.050000
0.675000 0.000000 0.050000
0.708750 0.000000 0.050000
0.742500 0.000000 0.050000
0.776250 0.000000 0.050000
0.810000 0.000000 0.050000
0.843750 0.000000 0.050000
0.877500 0.000000 0.050000
0.911250 0.000000 0.050000
0.945000 0.000000 0.050000
0.978750 0.000000 0.050000
1.000000 0.000000 0.050000
1.000000 0.000000 0.050000
1.000000 0.000000 0.050000
0.000000 0.029687 0.050000
0.033750 0.029687 0.050000
0.067500 0.029687 0.050000
0.101250 0.029687 0.050000
0.135000 0.029687 0.050000
0.168750 0.029687 0.050000
0.202500 0.029687 0.050000
0.236250 0.029687 0.050000
0.270000 0.029687 0.050000
0.303750 0.029687 0.050000
0.337500 0.029687 0.050000
0.371250 0.029687 0.050000
0.405000 0.029687 0.050000
0.438750 0.029687 0.050000
0.472500 0.029687 0.050000
0.506250 0.029687 0.050000
0.540000 0.029687 0.050000
0.573750 0.029687 0.050000
0.607500 0.029687 0.050000
0.641250 0.029687 0.050000
0.675000 0.029687 0.050000
0.708750 0.029687 0.050000
0.742500 0.029687 0.050000
0.776250 0.029687 0.050000
0.810000 0.029687 0.050000
0.843750 0.029687 0.050000
0.877500 0.029687 0.050000
0.911250 0.029687 0.050000
0.945000 0.029687 0.050000
0.978750 0.029687 0.050000
1.000000 0.029687 0.050000
1.000000 0.029687 0.050000
1.000000 0.029687 0.050000
0.000000 0.059375 0.050000
0.033750 0.059375 0.050000
0.067500 0.059375 0.050000
0.101250 0.059375 0.050000
0.135000 0.059375 0.050000
0.168750 0.059375 0.050000
0.202500 0.059375 0.050000
0.236250 0.059375 0.050000
0.270000 0.059375 0.050000
0.303750 0.059375 0.050000
0.337500 0.059375 0.050000
0.371250 0.059375 0.050000
0.405000 0.059375 0.050000
0.438750 0.059375 0.050000
0.472500 0.059375 0.050000
0.506250 0.059375 0.050000
0.540000 0.059375 0.050000
0.573750 0.059375 0.050000
0.607500 0.059375 0.050000
0.641250 0.059375 0.050000
0.675000 0.059375 0.050000
0.708750 0.059375 0.050000
0.742500 0.059375 0.050000
0.776250 0.059375 0.050000
0.810000 0.059375 0.050000
0.843750 0.059375 0.050000
0.877500 0.059375 0.050000
0.911250 0.059375 0.050000
0.945000 0.059375 0.050000
0.978750 0.059375 0.050000
1.000000 0.059375 0.050000
1.000000 0.059375 0.050000
1.000000 0.059375 0.050000
0.000000 0.089062 0.050000
0.033750 0.089062 0.050000
0.067500 0.089062 0.050000
0.101250 0.089062 0.050000
0.135000 0.089062 0.050000
0.168750 0.089062 0.050000
0.202500 0.089062 0.050000
0.236250 0.089062 0.050000
0.270000 0.089062 0.050000
0.303750 0.089062 0.050000
0.337500 0.089062 0.050000
0.371250 0.089062 0.050000
0.405000 0.089062 0.050000
0.438750 0.089062 0.050000
0.472500 0.089062 0.050000
0.506250 0.089062 0.050000
0.540000 0.089062 0.050000
0.573750 0.089062 0.050000
0.607500 0.089062 0.050000
0.641250 0.089062 0.050000
0.675000 0.089062 0.050000
0.708750 0.089062 0.050000
0.742500 0.089062 0.050000
0.776250 0.089062 0.050000
0.810000 0.089062 0.050000
0.843750 0.089062 0.050000
0.877500 0.089062 0.050000
0.911250 0.089062 0.050000
0.945000 0.089062 0.050000
0.978750 0.089062 0.050000
1.000000 0.089062 0.050000
1.000000 0.089062 0.050000
1.000000 0.089062 0.050000
0.000000 0.118750 0.050000
0.033750 0.118750 0.050000
0.067500 0.118750 0.050000
0.101250 0.118750 0.050000
0.135000 0.118750 0.050000
0.168750 0.118750 0.050000
0.202500 0.118750 0.050000
0.236250 0.118750 0.050000
0.270000 0.118750 0.050000
0.303750 0.118750 0.050000
0.337500 0.118750 0.050000
0.371250 0.118750 0.050000
0.405000 0.118750 0.050000
0.438750 0.118750 0.050000
0.472500 0.118750 0.050000
0.506250 0.118750 0.050000
0.540000 0.118750 0.050000
0.573750 0.118750 0.050000
0.607500 0.118750 0.050000
0.641250 0.118750 0.050000
0.675000 0.118750 0.050000
0.708750 0.118750 0.050000
0.742500 0.118750 0.050000
0.776250 0.118750 0.050000
0.810000 0.118750 0.050000
0.843750 0.118750 0.050000
0.877500 0.118750 0.050000
0.911250 0.118750 0.050000
0.945000 0.118750 0.050000
0.978750 0.118750 0.050000
1.000000 0.118750 0.050000
1.000000 0.118750 0.050000
1.000000 0.118750 0.050000
0.000000 0.148438 0.050000
0.033750 0.148438 0.050000
0.067500 0.148438 0.050000
0.101250 0.148438 0.050000
0.135000 0.148438 0.050000
0.168750 0.148438 0.050000
0.202500 0.148438 0.050000
0.236250 0.148438 0.050000
0.270000 0.148438 0.050000
0.303750 0.148438 0.050000
0.337500 0.148438 0.050000
0.371250 0.148438 0.050000
0.405000 0.148438 0.050000
0.438750 0.148438 0.050000
0.472500 0.148438 0.050000
0.506250 0.148438 0.050000
0.540000 0.148438 0.050000
0.573750 0.148438 0.050000
0.607500 0.148438 0.050000
0.641250 0.148438 0.050000
0.675000 0.148438 0.050000
0.708750 0.148438 0.050000
0.742500 0.148438 0.050000
0.776250 0.148438 0.050000
0.810000 0.148438 0.050000
0.843750 0.148438 0.050000
0.877500 0.148438 0.050000
0.911250 0.148438 0.050000
0.945000 0.148438 0.050000
0.978750 0.148438 0.050000
1.000000 0.148438 0.050000
1.000000 0.148438 0.050000
1.000000 0.148438 0.050000
0.000000 0.178125 0.050000
0.033750 0.178125 0.050000
0.067500 0.178125 0.050000
0.101250 0.178125 0.050000
0.135000 0.178125 0.050000
0.168750 0.178125 0.050000
0.202500 0.178125 0.050000
0.236250 0.178125 0.050000
0.270000 0.178125 0.050000
0.303750 0.178125 0.050000
0.337500 0.178125 0.050000
0.371250 0.178125 0.050000
0.405000 0.178125 0.050000
0.438750 0.178125 0.050000
0.472500 0.178125 0.050000
0.506250 0.178125 0.050000
0.540000 0.178125 0.050000
0.573750 0.178125 0.050000
0.607500 0.178125 0.050000
0.641250 0.178125 0.050000
0.675000 0.178125 0.050000
0.708750 0.178125 0.050000
0.742500 0.178125 0.050000
0.776250 0.178125 0.050000
0.810000 0.178125 0.050000
0.843750 0.178125 0.050000
0.877500 0.178125 0.050000
0.911250 0.178125 0.050000
0.945000 0.178125 0.050000
0.978750 0.178125 0.050000
1.000000 0.178125 0.050000
1.000000 0.178125 0.050000
1.000000 0.178125 0.050000
0.000000 0.207813 0.050000
0.033750 0.207813 0.050000
0.067500 0.207813 0.050000
0.101250 0.207813 0.050000
0.135000 0.207813 0.050000
0.168750 0.207813 0.050000
0.202500 0.207813 0.050000
0.236250 0.207813 0.050000
0.270000 0.207813 0.050000
0.303750 0.207813 0.050000
0.337500 0.207813 0.050000
0.371250 0.207813 0.050000
0.405000 0.207813 0.050000
0.438750 0.207813 0.050000
0.472500 0.207813 0.050000
0.506250 0.207813 0.050000
0.540000 0.207813 0.050000
0.573750 0.207813 0.050000
0.607500 0.207813 0.050000
0.641250 0.207813 0.050000
0.675000 0.207813 0.050000
0.708750 0.207813 0.050000
0.742500 0.207813 0.050000
0.776250 0.207813 0.050000
0.810000 0.207813 0.050000
0.843750 0.207813 0.050000
0.877500 0.207813 0.050000
0.911250 0.207813 0.050000
0.945000 0.207813 0.050000
0.978750 0.207813 0.050000
1.000000 0.207813 0.050000
1.000000 0.207813 0.050000
1.000000 0.207813 0.050000
0.000000 0.237500 0.050000
0.033750 0.237500 0.050000
0.067500 0.237500 0.050000
0.101250 0.237500 0.050000
0.135000 0.237500 0.050000
0.168750 0.237500 0.050000
0.202500 0.237500 0.050000
0.236250 0.237500 0.050000
0.270000 0.237500 0.050000
0.303750 0.237500 0.050000
0.337500 0.237500 0.050000
0.371250 0.237500 0.050000
0.405000 0.237500 0.050000
0.438750 0.237500 0.050000
0.472500 0.237500 0.050000
0.506250 0.237500 0.050000
0.540000 0.237500 0.050000
0.573750 0.237500 0.050000
0.607500 0.237500 0.050000
0.641250 0.237500 0.050000
0.675000 0.237500 0.050000
0.708750 0.237500 0.050000
0.742500 0.237500 0.050000
0.776250 0.237500 0.050000
0.810000 0.237500 0.050000
0.843750 0.237500 0.050000
0.877500 0.237500 0.050000
0.911250 0.237500 0.050000
0.945000 0.237500 0.050000
0.978750 0.237500 0.050000
1.000000 0.237500 0.050000
1.000000 0.237500 0.050000
1.000000 0.237500 0.050000
0.000000 0.267188 0.050000
0.033750 0.267188 0.050000
0.067500 0.267188 0.050000
0.101250 0.267188 0.050000
0.135000 0.267188 0.050000
0.168750 0.267188 0.050000
0.202500 0.267188 0.050000
0.236250 0.267188 0.050000
0.270000 0.267188 0.050000
0.303750 0.267188 0.050000
0.337500 0.267188 0.050000
0.371250 0.267188 0.050000
0.405000 0.267188 0.050000
0.438750 0.267188 0.050000
0.472500 0.267188 0.050000
0.506250 0.267188 0.050000
0.540000 0.267188 0.050000
0.573750 0.267188 0.050000
0.607500 0.267188 0.050000
0.641250 0.267188 0.050000
0.675000 0.267188 0.050000
0.708750 0.267188 0.050000
0.742500 0.267188 0.050000
0.776250 0.267188 0.050000
0.810000 0.267188 0.050000
0.843750 0.267188 0.050000
0.877500 0.267188 0.050000
0.911250 0.267188 0.050000
0.945000 0.267188 0.050000
0.978750 0.267188 0.050000
1.000000 0.267188 0.050000
1.000000 0.267188 0.050000
1.000000 0.267188 0.050000
0.000000 0.296875 0.050000
0.033750 0.296875 0.050000
0.067500 0.296875 0.050000
0.101250 0.296875 0.050000
0.135000 0.296875 0.050000
0.168750 0.296875 0.050000
0.202500 0.296875 0.050000
0.236250 0.296875 0.050000
0.270000 0.296875 0.050000
0.303750 0.296875 0.050000
0.337500 0.296875 0.050000
0.371250 0.296875 0.050000
0.405000 0.296875 0.050000
0.438750 0.296875 0.050000
0.472500 0.296875 0.050000
0.506250 0.296875 0.050000
0.540000 0.296875 0.050000
0.573750 0.296875 0.050000
0.607500 0.296875 0.050000
0.641250 0.296875 0.050000
0.675000 0.296875 0.050000
0.708750 0.296875 0.050000
0.742500 0.296875 0.050000
0.776250 0.296875 0.050000
0.810000 0.296875 0.050000
0.843750 0.296875 0.050000
0.877500 0.296875 0.050000
0.911250 0.296875 0.050000
0.945000 0.296875 0.050000
0.978750 0.296875 0.050000
1.000000 0.296875 0.050000
1.000000 0.296875 0.050000
1.000000 0.296875 0.050000
0.000000 0.326562 0.050000
0.033750 0.326562 0.050000
0.067500 0.326562 0.050000
0.101250 0.326562 0.050000
0.135000 0.326562 0.050000
0.168750 0.326562 0.050000
0.202500 0.326562 0.050000
0.236250 0.326562 0.050000
0.270000 0.326562 0.050000
0.303750 0.326562 0.050000
0.337500 0.326562 0.050000
0.371250 0.326562 0.050000
0.405000 0.326562 0.050000
0.438750 0.326562 0.050000
0.472500 0.326562 0.050000
0.506250 0.326562 0.050000
0.540000 0.326562 0.050000
0.573750 0.326562 0.050000
0.607500 0.326562 0.050000
0.641250 0.326562 0.050000
0.675000 0.326562 0.050000
0.708750 0.326562 0.050000
0.742500 0.326562 0.050000
0.776250 0.326562 0.050000
0.810000 0.326562 0.050000
0.843750 0.326562 0.050000
0.877500 0.326562 0.050000
0.911250 0.326562 0.050000
0.945000 0.326562 0.050000
0.978750 0.326562 0.050000
1.000000 0.326562 0.050000
1.000000 0.326562 0.050000
1.000000 0.326562 0.050000
0.000000 0.356250 0.050000
0.033750 0.356250 0.050000
0.067500 0.356250 0.050000
0.101250 0.356250 0.050000
0.135000 0.356250 0.050000
0.168750 0.356250 0.050000
0.202500 0.356250 0.050000
0.236250 0.356250 0.050000
0.270000 0.356250 0.050000
0.303750 0.356250 0.050000
0.337500 0.356250 0.050000
0.371250 0.356250 0.050000
0.405000 0.356250 0.050000
0.438750 0.356250 0.050000
0.472500 0.356250 0.050000
0.506250 0.356250 0.050000
0.540000 0.356250 0.050000
0.573750 0.356250 0.050000
0.607500 0.356250 0.050000
0.641250 0.356250 0.050000
0.675000 0.356250 0.050000
0.708750 0.356250 0.050000
0.742500 0.356250 0.050000
0.776250 0.356250 0.050000
0.810000 0.356250 0.050000
0.843750 0.356250 0.050000
0.877500 0.356250 0.050000
0.911250 0.356250 0.050000
0.945000 0.356250 0.050000
0.978750 0.356250 0.050000
1.000000 0.356250 0.050000
1.000000 0.356250 0.050000
1.000000 0.356250 0.050000
0.000000 0.385937 0.050000
0.033750 0.385937 0.050000
0.067500 0.385937 0.050000
0.101250 0.385937 0.050000
0.135000 0.385937 0.050000
0.168750 0.385937 0.050000
0.202500 0.385937 0.050000
0.236250 0.385937 0.050000
0.270000 0.385937 0.050000
0.303750 0.385937 0.050000
0.337500 0.385937 0.050000
0.371250 0.385937 0.050000
0.405000 0.385937 0.050000
0.438750 0.385937 0.050000
0.472500 0.385937 0.050000
0.506250 0.385937 0.050000
0.540000 0.385937 0.050000
0.573750 0.385937 0.050000
0.607500 0.385937 0.050000
0.641250 0.385937 0.050000
0.675000 0.385937 0.050000
0.708750 0.385937 0.050000
0.742500 0.385937 0.050000
0.776250 0.385937 0.050000
0.810000 0.385937 0.050000
0.843750 0.385937 0.050000
0.877500 0.385937 0.050000
0.911250 0.385937 0.050000
0.945000 0.385937 0.050000
0.978750 0.385937 0.050000
1.000000 0.385937 0.050000
1.000000 0.385937 0.050000
1.000000 0.385937 0.050000
0.000000 0.415625 0.050000
0.033750 0.415625 0.050000
0.067500 0.415625 0.050000
0.101250 0.415625 0.050000
0.135000 0.415625 0.050000
0.168750 0.415625 0.050000
0.202500 0.415625 0.050000
0.236250 0.415625 0.050000
0.270000 0.415625 0.050000
0.303750 0.415625 0.050000
0.337500 0.415625 0.050000
0.371250 0.415625 0.050000
0.405000 0.415625 0.050000
0.438750 0.415625 0.050000
0.472500 0.415625 0.050000
0.506250 0.415625 0.050000
0.540000 0.415625 0.050000
0.573750 0.415625 0.050000
0.607500 0.415625 0.050000
0.641250 0.415625 0.050000
0.675000 0.415625 0.050000
0.708750 0.415625 0.050000
0.742500 0.415625 0.050000
0.776250 0.415625 0.050000
0.810000 0.415625 0.050000
0.843750 0.415625 0.050000
0.877500 0.415625 0.050000
0.911250 0.415625 0.050000
0.945000 0.415625 0.050000
0.978750 0.415625 0.050000
1.000000 0.415625 0.050000
1.000000 0.415625 0.050000
1.000000 0.415625 0.050000
0.000000 0.445312 0.050000
0.033750 0.445312 0.050000
0.067500 0.445312 0.050000
0.101250 0.445312 0.050000
0.135000 0.445312 0.050000
0.168750 0.445312 0.050000
0.202500 0.445312 0.050000
0.236250 0.445312 0.050000
0.270000 0.445312 0.050000
0.303750 0.445312 0.050000
0.337500 0.445312 0.050000
0.371250 0.445312 0.050000
0.405000 0.445312 0.050000
0.438750 0.445312 0.050000
0.472500 0.445312 0.050000
0.506250 0.445312 0.050000
0.540000 0.445312 0.050000
0.573750 0.445312 0.050000
0.607500 0.445312 0.050000
0.641250 0.445312 0.050000
0.675000 0.445312 0.050000
0.708750 0.445312 0.050000
0.742500 0.445312 0.050000
0.776250 0.445312 0.050000
0.810000 0.445312 0.050000
0.843750 0.445312 0.050000
0.877500 0.445312 0.050000
0.911250 0.445312 0.050000
0.945000 0.445312 0.050000
0.978750 0.445312 0.050000
1.000000 0.445312 0.050000
1.000000 0.445312 0.050000
1.000000 0.445312 0.050000
0.000000 0.475000 0.050000
0.033750 0.475000 0.050000
0.067500 0.475000 0.050000
0.101250 0.475000 0.050000
0.135000 0.475000 0.050000
0.168750 0.475000 0.050000
0.202500 0.475000 0.050000
0.236250 0.475000 0.050000
0.270000 0.475000 0.050000
0.303750 0.475000 0.050000
0.337500 0.475000 0.050000
0.371250 0.475000 0.050000
0.405000 0.475000 0.050000
0.438750 0.475000 0.050000
0.472500 0.475000 0.050000
0.506250 0.475000 0.050000
0.540000 0.475000 0.050000
0.573750 0.475000 0.050000
0.607500 0.475000 0.050000
0.641250 0.475000 0.050000
0.675000 0.475000 0.050000
0.708750 0.475000 0.050000
0.742500 0.475000 0.050000
0.776250 0.475000 0.050000
0.810000 0.475000 0.050000
0.843750 0.475000 0.050000
0.877500 0.475000 0.050000
0.911250 0.475000 0.050000
0.945000 0.475000 0.050000
0.978750 0.475000 0.050000
1.000000 0.475000 0.050000
1.000000 0.475000 0.050000
1.000000 0.475000 0.050000
0.000000 0.504687 0.050000
0.033750 0.504687 0.050000
0.067500 0.504687 0.050000
0.101250 0.504687 0.050000
0.135000 0.504687 0.050000
0.168750 0.504687 0.050000
0.202500 0.504687 0.050000
0.236250 0.504687 0.050000
0.270000 0.504687 0.050000
0.303750 0.504687 0.050000
0.337500 0.504687 0.050000
0.371250 0.504687 0.050000
0.405000 0.504687 0.050000
0.438750 0.504687 0.050000
0.472500 0.504687 0.050000
0.506250 0.504687 0.050000
0.540000 0.504687 0.050000
0.573750 0.504687 0.050000
0.607500 0.504687 0.050000
0.641250 0.504687 0.050000
0.675000 0.504687 0.050000
0.708750 0.504687 0.050000
0.742500 0.504687 0.050000
0.776250 0.504687 0.050000
0.810000 0.504687 0.050000
0.843750 0.504687 0.050000
0.877500 0.504687 0.050000
0.911250 0.504687 0.050000
0.945000 0.504687 0.050000
0.978750 0.504687 0.050000
1.000000 0.504687 0.050000
1.000000 0.504687 0.050000
1.000000 0.504687 0.050000
0.000000 0.534375 0.050000
0.033750 0.534375 0.050000
0.067500 0.534375 0.050000
0.101250 0.534375 0.050000
0.135000 0.534375 0.050000
0.168750 0.534375 0.050000
0.202500 0.534375 0.050000
0.236250 0.534375 0.050000
0.270000 0.534375 0.050000
0.303750 0.534375 0.050000
0.337500 0.534375 0.050000
0.371250 0.534375 0.050000
0.405000 0.534375 0.050000
0.438750 0.534375 0.050000
0.472500 0.534375 0.050000
0.506250 0.534375 0.050000
0.540000 0.534375 0.050000
0.573750 0.534375 0.050000
0.607500 0.534375 0.050000
0.641250 0.534375 0.050000
0.675000 0.534375 0.050000
0.708750 0.534375 0.050000
0.742500 0.534375 0.050000
0.776250 0.534375 0.050000
0.810000 0.534375 0.050000
0.843750 0.534375 0.050000
0.877500 0.534375 0.050000
0.911250 0.534375 0.050000
0.945000 0.534375 0.050000
0.978750 0.534375 0.050000
1.000000 0.534375 0.050000
1.000000 0.534375 0.050000
1.000000 0.534375 0.050000
0.000000 0.564062 0.050000
0.033750 0.564062 0.050000
0.067500 0.564062 0.050000
0.101250 0.564062 0.050000
0.135000 0.564062 0.050000
0.168750 0.564062 0.050000
0.202500 0.564062 0.050000
0.236250 0.564062 0.050000
0.270000 0.564062 0.050000
0.303750 0.564062 0.050000
0.337500 0.564062 0.050000
0.371250 0.564062 0.050000
0.405000 0.564062 0.050000
0.438750 0.564062 0.050000
0.472500 0.564062 0.050000
0.506250 0.564062 0.050000
0.540000 0.564062 0.050000
0.573750 0.564062 0.050000
0.607500 0.564062 0.050000
0.641250 0.564062 0.050000
0.675000 0.564062 0.050000
0.708750 0.564062 0.050000
0.742500 0.564062 0.050000
0.776250 0.564062 0.050000
0.810000 0.564062 0.050000
0.843750 0.564062 0.050000
0.877500 0.564062 0.050000
0.911250 0.564062 0.050000
0.945000 0.564062 0.050000
0.978750 0.564062 0.050000
1.000000 0.564062 0.050000
1.000000 0.564062 0.050000
1.000000 0.564062 0.050000
0.000000 0.593750 0.050000
0.033750 0.593750 0.050000
0.067500 0.593750 0.050000
0.101250 0.593750 0.050000
0.135000 0.593750 0.050000
0.168750 0.593750 0.050000
0.202500 0.593750 0.050000
0.236250 0.593750 0.050000
0.270000 0.593750 0.050000
0.303750 0.593750 0.050000
0.337500 0.593750 0.050000
0.371250 0.593750 0.050000
0.405000 0.593750 0.050000
0.438750 0.593750 0.050000
0.472500 0.593750 0.050000
0.506250 0.593750 0.050000
0.540000 0.593750 0.050000
0.573750 0.593750 0.050000
0.607500 0.593750 0.050000
0.641250 0.593750 0.050000
0.675000 0.593750 0.050000
0.708750 0.593750 0.050000
0.742500 0.593750 0.050000
0.776250 0.593750 0.050000
0.810000 0.593750 0.050000
0.843750 0.593750 0.050000
0.877500 0.593750 0.050000
0.911250 0.593750 0.050000
0.945000 0.593750 0.050000
0.978750 0.593750 0.050000
1.000000 0.593750 0.050000
1.000000 0.593750 0.050000
1.000000 0.593750 0.050000
0.000000 0.623437 0.050000
0.033750 0.623437 0.050000
0.067500 0.623437 0.050000
0.101250 0.623437 0.050000
0.135000 0.623437 0.050000
0.168750 0.623437 0.050000
0.202500 0.623437 0.050000
0.236250 0.623437 0.050000
0.270000 0.623437 0.050000
0.303750 0.623437 0.050000
0.337500 0.623437 0.050000
0.371250 0.623437 0.050000
0.405000 0.623437 0.050000
0.438750 0.623437 0.050000
0.472500 0.623437 0.050000
0.506250 0.623437 0.050000
0.540000 0.623437 0.050000
0.573750 0.623437 0.050000
0.607500 0.623437 0.050000
0.641250 0.623437 0.050000
0.675000 0.623437 0.050000
0.708750 0.623437 0.050000
0.742500 0.623437 0.050000
0.776250 0.623437 0.050000
0.810000 0.623437 0.050000
0.843750 0.623437 0.050000
0.877500 0.623437 0.050000
0.911250 0.623437 0.050000
0.945000 0.623437 0.050000
0.978750 0.623437 0.050000
1.000000 0.623437 0.050000
1.000000 0.623437 0.050000
1.000000 0.623437 0.050000
0.000000 0.653125 0.050000
0.033750 0.653125 0.050000
0.067500 0.653125 0.050000
0.101250 0.653125 0.050000
0.135000 0.653125 0.050000
0.168750 0.653125 0.050000
0.202500 0.653125 0.050000
0.236250 0.653125 0.050000
0.270000 0.653125 0.050000
0.303750 0.653125 0.050000
0.337500 0.653125 0.050000
0.371250 0.653125 0.050000
0.405000 0.653125 0.050000
0.438750 0.653125 0.050000
0.472500 0.653125 0.050000
0.506250 0.653125 0.050000
0.540000 0.653125 0.050000
0.573750 0.653125 0.050000
0.607500 0.653125 0.050000
0.641250 0.653125 0.050000
0.675000 0.653125 0.050000
0.708750 0.653125 0.050000
0.742500 0.653125 0.050000
0.776250 0.653125 0.050000
0.810000 0.653125 0.050000
0.843750 0.653125 0.050000
0.877500 0.653125 0.050000
0.911250 0.653125 0.050000
0.945000 0.653125 0.050000
0.978750 0.653125 0.050000
1.000000 0.653125 0.050000
1.000000 0.653125 0.050000
1.000000 0.653125 0.050000
0.000000 0.682813 0.050000
0.033750 0.682813 0.050000
0.067500 0.682813 0.050000
0.101250 0.682813 0.050000
0.135000 0.682813 0.050000
0.168750 0.682813 0.050000
0.202500 0.682813 0.050000
0.236250 0.682813 0.050000
0.270000 0.682813 0.050000
0.303750 0.682813 0.050000
0.337500 0.682813 0.050000
0.371250 0.682813 0.050000
0.405000 0.682813 0.050000
0.438750 0.682813 0.050000
0.472500 0.682813 0.050000
0.506250 0.682813 0.050000
0.540000 0.682813 0.050000
0.573750 0.682813 0.050000
0.607500 0.682813 0.050000
0.641250 0.682813 0.050000
0.675000 0.682813 0.050000
0.708750 0.682813 0.050000
0.742500 0.682813 0.050000
0.776250 0.682813 0.050000
0.810000 0.682813 0.050000
0.843750 0.682813 0.050000
0.877500 0.682813 0.050000
0.911250 0.682813 0.050000
0.945000 0.682813 0.050000
0.978750 0.682813 0.050000
1.000000 0.682813 0.050000
1.000000 0.682813 0.050000
1.000000 0.682813 0.050000
0.000000 0.712500 0.050000
0.033750 0.712500 0.050000
0.067500 0.712500 0.050000
0.101250 0.712500 0.050000
0.135000 0.712500 0.050000
0.168750 0.712500 0.050000
0.202500 0.712500 0.050000
0.236250 0.712500 0.050000
0.270000 0.712500 0.050000
0.303750 0.712500 0.050000
0.337500 0.712500 0.050000
0.371250 0.712500 0.050000
0.405000 0.712500 0.050000
0.438750 0.712500 0.050000
0.472500 0.712500 0.050000
0.506250 0.712500 0.050000
0.540000 0.712500 0.050000
0.573750 0.712500 0.050000
0.607500 0.712500 0.050000
0.641250 0.712500 0.050000
0.675000 0.712500 0.050000
0.708750 0.712500 0.050000
0.742500 0.712500 0.050000
0.776250 0.712500 0.050000
0.810000 0.712500 0.050000
0.843750 0.712500 0.050000
0.877500 0.712500 0.050000
0.911250 0.712500 0.050000
0.945000 0.712500 0.050000
0.978750 0.712500 0.050000
1.000000 0.712500 0.050000
1.000000 0.712500 0.050000
1.000000 0.712500 0.050000
0.000000 0.742188 0.050000
0.033750 0.742188 0.050000
0.067500 0.742188 0.050000
0.101250 0.742188 0.050000
0.135000 0.742188 0.050000
0.168750 0.742188 0.050000
0.202500 0.742188 0.050000
0.236250 0.742188 0.050000
0.270000 0.742188 0.050000
0.303750 0.742188 0.050000
0.337500 0.742188 0.050000
0.371250 0.742188 0.050000
0.405000 0.742188 0.050000
0.438750 0.742188 0.050000
0.472500 0.742188 0.050000
0.506250 0.742188 0.050000
0.540000 0.742188 0.050000
0.573750 0.742188 0.050000
0.607500 0.742188 0.050000
0.641250 0.742188 0.050000
0.675000 0.742188 0.050000
0.708750 0.742188 0.050000
0.742500 0.742188 0.050000
0.776250 0.742188 0.050000
0.810000 0.742188 0.050000
0.843750 0.742188 0.050000
0.877500 0.742188 0.050000
0.911250 0.742188 0.050000
0.945000 0.742188 0.050000
0.978750 0.742188 0.050000
1.000000 0.742188 0.050000
1.000000 0.742188 0.050000
1.000000 0.742188 0.050000
0.000000 0.771875 0.050000
0.033750 0.771875 0.050000
0.067500 0.771875 0.050000
0.101250 0.771875 0.050000
0.135000 0.771875 0.050000
0.168750 0.771875 0.050000
0.202500 0.771875 0.050000
0.236250 0.771875 0.050000
0.270000 0.771875 0.050000
0.303750 0.771875 0.050000
0.337500 0.771875 0.050000
0.371250 0.771875 0.050000
0.405000 0.771875 0.050000
0.438750 0.771875 0.050000
0.472500 0.771875 0.050000
0.506250 0.771875 0.050000
0.540000 0.771875 0.050000
0.573750 0.771875 0.050000
0.607500 0.771875 0.050000
0.641250 0.771875 0.050000
0.675000 0.771875 0.050000
0.708750 0.771875 0.050000
0.742500 0.771875 0.050000
0.776250 0.771875 0.050000
0.810000 0.771875 0.050000
0.843750 0.771875 0.050000
0.877500 0.771875 0.050000
0.911250 0.771875 0.050000
0.945000 0.771875 0.050000
