FilmCameraApp/FilmCameraApp/LUTs/FranceFilter.cube
TITLE "FranceFilter.cube"
LUT_3D_SIZE 9
0.000000 0.000000 0.050000
0.135000 0.000000 0.050000
0.270000 0.000000 0.050000
0.405000 0.000000 0.050000
0.540000 0.000000 0.050000
0.675000 0.000000 0.050000
0.810000 0.000000 0.050000
0.945000 0.000000 0.050000
1.000000 0.000000 0.050000
0.000000 0.118750 0.050000
0.135000 0.118750 0.050000
0.270000 0.118750 0.050000
0.405000 0.118750 0.050000
0.540000 0.118750 0.050000
0.675000 0.118750 0.050000
0.810000 0.118750 0.050000
0.945000 0.118750 0.050000
1.000000 0.118750 0.050000
0.000000 0.237500 0.050000
0.135000 0.237500 0.050000
0.270000 0.237500 0.050000
0.405000 0.237500 0.050000
0.540000 0.237500 0.050000
0.675000 0.237500 0.050000
0.810000 0.237500 0.050000
0.945000 0.237500 0.050000
1.000000 0.237500 0.050000
0.000000 0.356250 0.050000
0.135000 0.356250 0.050000
0.270000 0.356250 0.050000
0.405000 0.356250 0.050000
0.540000 0.356250 0.050000
0.675000 0.356250 0.050000
0.810000 0.356250 0.050000
0.945000 0.356250 0.050000
1.000000 0.356250 0.050000
0.000000 0.475000 0.050000
0.135000 0.475000 0.050000
0.270000 0.475000 0.050000
0.405000 0.475000 0.050000
0.540000 0.475000 0.050000
0.675000 0.475000 0.050000
0.810000 0.475000 0.050000
0.945000 0.475000 0.050000
1.000000 0.475000 0.050000
0.000000 0.593750 0.050000
0.135000 0.593750 0.050000
0.270000 0.593750 0.050000
0.405000 0.593750 0.050000
0.540000 0.593750 0.050000
0.675000 0.593750 0.050000
0.810000 0.593750 0.050000
0.945000 0.593750 0.050000
1.000000 0.593750 0.050000
0.000000 0.712500 0.050000
0.135000 0.712500 0.050000
0.270000 0.712500 0.050000
0.405000 0.712500 0.050000
0.540000 0.712500 0.050000
0.675000 0.712500 0.050000
0.810000 0.712500 0.050000
0.945000 0.712500 0.050000
1.000000 0.712500 0.050000
0.000000 0.831250 0.050000
0.135000 0.831250 0.050000
0.270000 0.831250 0.050000
0.405000 0.831250 0.050000
0.540000 0.831250 0.050000
0.675000 0.831250 0.050000
0.810000 0.831250 0.050000
0.945000 0.831250 0.050000
1.000000 0.831250 0.050000
0.000000 0.950000 0.050000
0.135000 0.950000 0.050000
0.270000 0.950000 0.050000
0.405000 0.950000 0.050000
0.540000 0.950000 0.050000
0.675000 0.950000 0.050000
0.810000 0.950000 0.050000
0.945000 0.950000 0.050000
1.000000 0.950000 0.050000
0.000000 0.000000 0.168750
0.135000 0.000000 0.168750
0.270000 0.000000 0.168750
0.405000 0.000000 0.168750
0.540000 0.000000 0.168750
0.675000 0.000000 0.168750
0.810000 0.000000 0.168750
0.945000 0.000000 0.168750
1.000000 0.000000 0.168750
0.000000 0.118750 0.168750
0.135000 0.118750 0.168750
0.270000 0.118750 0.168750
0.405000 0.118750 0.168750
0.540000 0.118750 0.168750
0.675000 0.118750 0.168750
0.810000 0.118750 0.168750
0.945000 0.118750 0.168750
1.000000 0.118750 0.168750
0.000000 0.237500 0.168750
0.135000 0.237500 0.168750
0.270000 0.237500 0.168750
0.405000 0.237500 0.168750
0.540000 0.237500 0.168750
0.675000 0.237500 0.168750
0.810000 0.237500 0.168750
0.945000 0.237500 0.168750
1.000000 0.237500 0.168750
0.000000 0.356250 0.168750
0.135000 0.356250 0.168750
0.270000 0.356250 0.168750
0.405000 0.356250 0.168750
0.540000 0.356250 0.168750
0.675000 0.356250 0.168750
0.810000 0.356250 0.168750
0.945000 0.356250 0.168750
1.000000 0.356250 0.168750
0.000000 0.475000 0.168750
0.135000 0.475000 0.168750
0.270000 0.475000 0.168750
0.405000 0.475000 0.168750
0.540000 0.475000 0.168750
0.675000 0.475000 0.168750
0.810000 0.475000 0.168750
0.945000 0.475000 0.168750
1.000000 0.475000 0.168750
0.000000 0.593750 0.168750
0.135000 0.593750 0.168750
0.270000 0.593750 0.168750
0.405000 0.593750 0.168750
0.540000 0.593750 0.168750
0.675000 0.593750 0.168750
0.810000 0.593750 0.168750
0.945000 0.593750 0.168750
1.000000 0.593750 0.168750
0.000000 0.712500 0.168750
0.135000 0.712500 0.168750
0.270000 0.712500 0.168750
0.405000 0.712500 0.168750
0.540000 0.712500 0.168750
0.675000 0.712500 0.168750
0.810000 0.712500 0.168750
0.945000 0.712500 0.168750
1.000000 0.712500 0.168750
0.000000 0.831250 0.168750
0.135000 0.831250 0.168750
0.270000 0.831250 0.168750
0.405000 0.831250 0.168750
0.540000 0.831250 0.168750
0.675000 0.831250 0.168750
0.810000 0.831250 0.168750
0.945000 0.831250 0.168750
1.000000 0.831250 0.168750
0.000000 0.950000 0.168750
0.135000 0.950000 0.168750
0.270000 0.950000 0.168750
0.405000 0.950000 0.168750
0.540000 0.950000 0.168750
0.675000 0.950000 0.168750
0.810000 0.950000 0.168750
0.945000 0.950000 0.168750
1.000000 0.950000 0.168750
0.000000 0.000000 0.287500
0.135000 0.000000 0.287500
0.270000 0.000000 0.287500
0.405000 0.000000 0.287500
0.540000 0.000000 0.287500
0.675000 0.000000 0.287500
0.810000 0.000000 0.287500
0.945000 0.000000 0.287500
1.000000 0.000000 0.287500
0.000000 0.118750 0.287500
0.135000 0.118750 0.287500
0.270000 0.118750 0.287500
0.405000 0.118750 0.287500
0.540000 0.118750 0.287500
0.675000 0.118750 0.287500
0.810000 0.118750 0.287500
0.945000 0.118750 0.287500
1.000000 0.118750 0.287500
0.000000 0.237500 0.287500
0.135000 0.237500 0.287500
0.270000 0.237500 0.287500
0.405000 0.237500 0.287500
0.540000 0.237500 0.287500
0.675000 0.237500 0.287500
0.810000 0.237500 0.287500
0.945000 0.237500 0.287500
1.000000 0.237500 0.287500
0.000000 0.356250 0.287500
0.135000 0.356250 0.287500
0.270000 0.356250 0.287500
0.405000 0.356250 0.287500
0.540000 0.356250 0.287500
0.675000 0.356250 0.287500
0.810000 0.356250 0.287500
0.945000 0.356250 0.287500
1.000000 0.356250 0.287500
0.000000 0.475000 0.287500
0.135000 0.475000 0.287500
0.270000 0.475000 0.287500
0.405000 0.475000 0.287500
0.540000 0.475000 0.287500
0.675000 0.475000 0.287500
0.810000 0.475000 0.287500
0.945000 0.475000 0.287500
1.000000 0.475000 0.287500
0.000000 0.593750 0.287500
0.135000 0.593750 0.287500
0.270000 0.593750 0.287500
0.405000 0.593750 0.287500
0.540000 0.593750 0.287500
0.675000 0.593750 0.287500
0.810000 0.593750 0.287500
0.945000 0.593750 0.287500
1.000000 0.593750 0.287500
0.000000 0.712500 0.287500
0.135000 0.712500 0.287500
0.270000 0.712500 0.287500
0.405000 0.712500 0.287500
0.540000 0.712500 0.287500
0.675000 0.712500 0.287500
0.810000 0.712500 0.287500
0.945000 0.712500 0.287500
1.000000 0.712500 0.287500
0.000000 0.831250 0.287500
0.135000 0.831250 0.287500
0.270000 0.831250 0.287500
0.405000 0.831250 0.287500
0.540000 0.831250 0.287500
0.675000 0.831250 0.287500
0.810000 0.831250 0.287500
0.945000 0.831250 0.287500
1.000000 0.831250 0.287500
0.000000 0.950000 0.287500
0.135000 0.950000 0.287500
0.270000 0.950000 0.287500
0.405000 0.950000 0.287500
0.540000 0.950000 0.287500
0.675000 0.950000 0.287500
0.810000 0.950000 0.287500
0.945000 0.950000 0.287500
1.000000 0.950000 0.287500
0.000000 0.000000 0.406250
0.135000 0.000000 0.406250
0.270000 0.000000 0.406250
0.405000 0.000000 0.406250
0.540000 0.000000 0.406250
0.675000 0.000000 0.406250
0.810000 0.000000 0.406250
0.945000 0.000000 0.406250
1.000000 0.000000 0.406250
0.000000 0.118750 0.406250
0.135000 0.118750 0.406250
0.270000 0.118750 0.406250
0.405000 0.118750 0.406250
0.540000 0.118750 0.406250
0.675000 0.118750 0.406250
0.810000 0.118750 0.406250
0.945000 0.118750 0.406250
1.000000 0.118750 0.406250
0.000000 0.237500 0.406250
0.135000 0.237500 0.406250
0.270000 0.237500 0.406250
0.405000 0.237500 0.406250
0.540000 0.237500 0.406250
0.675000 0.237500 0.406250
0.810000 0.237500 0.406250
0.945000 0.237500 0.406250
1.000000 0.237500 0.406250
0.000000 0.356250 0.406250
0.135000 0.356250 0.406250
0.270000 0.356250 0.406250
0.405000 0.356250 0.406250
0.540000 0.356250 0.406250
0.675000 0.356250 0.406250
0.810000 0.356250 0.406250
0.945000 0.356250 0.406250
1.000000 0.356250 0.406250
0.000000 0.475000 0.406250
0.135000 0.475000 0.406250
0.270000 0.475000 0.406250
0.405000 0.475000 0.406250
0.540000 0.475000 0.406250
0.675000 0.475000 0.406250
0.810000 0.475000 0.406250
0.945000 0.475000 0.406250
1.000000 0.475000 0.406250
0.000000 0.593750 0.406250
0.135000 0.593750 0.406250
0.270000 0.593750 0.406250
0.405000 0.593750 0.406250
0.540000 0.593750 0.406250
0.675000 0.593750 0.406250
0.810000 0.593750 0.406250
0.945000 0.593750 0.406250
1.000000 0.593750 0.406250
0.000000 0.712500 0.406250
0.135000 0.712500 0.406250
0.270000 0.712500 0.406250
0.405000 0.712500 0.406250
0.540000 0.712500 0.406250
0.675000 0.712500 0.406250
0.810000 0.712500 0.406250
0.945000 0.712500 0.406250
1.000000 0.712500 0.406250
0.000000 0.831250 0.406250
0.135000 0.831250 0.406250
0.270000 0.831250 0.406250
0.405000 0.831250 0.406250
0.540000 0.831250 0.406250
0.675000 0.831250 0.406250
0.810000 0.831250 0.406250
0.945000 0.831250 0.406250
1.000000 0.831250 0.406250
0.000000 0.950000 0.406250
0.135000 0.950000 0.406250
0.270000 0.950000 0.406250
0.405000 0.950000 0.406250
0.540000 0.950000 0.406250
0.675000 0.950000 0.406250
0.810000 0.950000 0.406250
0.945000 0.950000 0.406250
1.000000 0.950000 0.406250
0.000000 0.000000 0.525000
0.135000 0.000000 0.525000
0.270000 0.000000 0.525000
0.405000 0.000000 0.525000
0.540000 0.000000 0.525000
0.675000 0.000000 0.525000
0.810000 0.000000 0.525000
0.945000 0.000000 0.525000
1.000000 0.000000 0.525000
0.000000 0.118750 0.525000
0.135000 0.118750 0.525000
0.270000 0.118750 0.525000
0.405000 0.118750 0.525000
0.540000 0.118750 0.525000
0.675000 0.118750 0.525000
0.810000 0.118750 0.525000
0.945000 0.118750 0.525000
1.000000 0.118750 0.525000
0.000000 0.237500 0.525000
0.135000 0.237500 0.525000
0.270000 0.237500 0.525000
0.405000 0.237500 0.525000
0.540000 0.237500 0.525000
0.675000 0.237500 0.525000
0.810000 0.237500 0.525000
0.945000 0.237500 0.525000
1.000000 0.237500 0.525000
0.000000 0.356250 0.525000
0.135000 0.356250 0.525000
0.270000 0.356250 0.525000
0.405000 0.356250 0.525000
0.540000 0.356250 0.525000
0.675000 0.356250 0.525000
0.810000 0.356250 0.525000
0.945000 0.356250 0.525000
1.000000 0.356250 0.525000
0.000000 0.475000 0.525000
0.135000 0.475000 0.525000
0.270000 0.475000 0.525000
0.405000 0.475000 0.525000
0.540000 0.475000 0.525000
0.675000 0.475000 0.525000
0.810000 0.475000 0.525000
0.945000 0.475000 0.525000
1.000000 0.475000 0.525000
0.000000 0.593750 0.525000
0.135000 0.593750 0.525000
0.270000 0.593750 0.525000
0.405000 0.593750 0.525000
0.540000 0.593750 0.525000
0.675000 0.593750 0.525000
0.810000 0.593750 0.525000
0.945000 0.593750 0.525000
1.000000 0.593750 0.525000
0.000000 0.712500 0.525000
0.135000 0.712500 0.525000
0.270000 0.712500 0.525000
0.405000 0.712500 0.525000
0.540000 0.712500 0.525000
0.675000 0.712500 0.525000
0.810000 0.712500 0.525000
0.945000 0.712500 0.525000
1.000000 0.712500 0.525000
0.000000 0.831250 0.525000
0.135000 0.831250 0.525000
0.270000 0.831250 0.525000
0.405000 0.831250 0.525000
0.540000 0.831250 0.525000
0.675000 0.831250 0.525000
0.810000 0.831250 0.525000
0.945000 0.831250 0.525000
1.000000 0.831250 0.525000
0.000000 0.950000 0.525000
0.135000 0.950000 0.525000
0.270000 0.950000 0.525000
0.405000 0.950000 0.525000
0.540000 0.950000 0.525000
0.675000 0.950000 0.525000
0.810000 0.950000 0.525000
0.945000 0.950000 0.525000
1.000000 0.950000 0.525000
0.000000 0.000000 0.643750
0.135000 0.000000 0.643750
0.270000 0.000000 0.643750
0.405000 0.000000 0.643750
0.540000 0.000000 0.643750
0.675000 0.000000 0.643750
0.810000 0.000000 0.643750
0.945000 0.000000 0.643750
1.000000 0.000000 0.643750
0.000000 0.118750 0.643750
0.135000 0.118750 0.643750
0.270000 0.118750 0.643750
0.405000 0.118750 0.643750
0.540000 0.118750 0.643750
0.675000 0.118750 0.643750
0.810000 0.118750 0.643750
0.945000 0.118750 0.643750
1.000000 0.118750 0.643750
0.000000 0.237500 0.643750
0.135000 0.237500 0.643750
0.270000 0.237500 0.643750
0.405000 0.237500 0.643750
0.540000 0.237500 0.643750
0.675000 0.237500 0.643750
0.810000 0.237500 0.643750
0.945000 0.237500 0.643750
1.000000 0.237500 0.643750
0.000000 0.356250 0.643750
0.135000 0.356250 0.643750
0.270000 0.356250 0.643750
0.405000 0.356250 0.643750
0.540000 0.356250 0.643750
0.675000 0.356250 0.643750
0.810000 0.356250 0.643750
0.945000 0.356250 0.643750
1.000000 0.356250 0.643750
0.000000 0.475000 0.643750
0.135000 0.475000 0.643750
0.270000 0.475000 0.643750
0.405000 0.475000 0.643750
0.540000 0.475000 0.643750
0.675000 0.475000 0.643750
0.810000 0.475000 0.643750
0.945000 0.475000 0.643750
1.000000 0.475000 0.643750
0.000000 0.593750 0.643750
0.135000 0.593750 0.643750
0.270000 0.593750 0.643750
0.405000 0.593750 0.643750
0.540000 0.593750 0.643750
0.675000 0.593750 0.643750
0.810000 0.593750 0.643750
0.945000 0.593750 0.643750
1.000000 0.593750 0.643750
0.000000 0.712500 0.643750
0.135000 0.712500 0.643750
0.270000 0.712500 0.643750
0.405000 0.712500 0.643750
0.540000 0.712500 0.643750
0.675000 0.712500 0.643750
0.810000 0.712500 0.643750
0.945000 0.712500 0.643750
1.000000 0.712500 0.643750
0.000000 0.831250 0.643750
0.135000 0.831250 0.643750
0.270000 0.831250 0.643750
0.405000 0.831250 0.643750
0.540000 0.831250 0.643750
0.675000 0.831250 0.643750
0.810000 0.831250 0.643750
0.945000 0.831250 0.643750
1.000000 0.831250 0.643750
0.000000 0.950000 0.643750
0.135000 0.950000 0.643750
0.270000 0.950000 0.643750
0.405000 0.950000 0.643750
0.540000 0.950000 0.643750
0.675000 0.950000 0.643750
0.810000 0.950000 0.643750
0.945000 0.950000 0.643750
1.000000 0.950000 0.643750
0.000000 0.000000 0.762500
0.135000 0.000000 0.762500
0.270000 0.000000 0.762500
0.405000 0.000000 0.762500
0.540000 0.000000 0.762500
0.675000 0.000000 0.762500
0.810000 0.000000 0.762500
0.945000 0.000000 0.762500
1.000000 0.000000 0.762500
0.000000 0.118750 0.762500
0.135000 0.118750 0.762500
0.270000 0.118750 0.762500
0.405000 0.118750 0.762500
0.540000 0.118750 0.762500
0.675000 0.118750 0.762500
0.810000 0.118750 0.762500
0.945000 0.118750 0.762500
1.000000 0.118750 0.762500
0.000000 0.237500 0.762500
0.135000 0.237500 0.762500
0.270000 0.237500 0.762500
0.405000 0.237500 0.762500
0.540000 0.237500 0.762500
0.675000 0.237500 0.762500
0.810000 0.237500 0.762500
0.945000 0.237500 0.762500
1.000000 0.237500 0.762500
0.000000 0.356250 0.762500
0.135000 0.356250 0.762500
0.270000 0.356250 0.762500
0.405000 0.356250 0.762500
0.540000 0.356250 0.762500
0.675000 0.356250 0.762500
0.810000 0.356250 0.762500
0.945000 0.356250 0.762500
1.000000 0.356250 0.762500
0.000000 0.475000 0.762500
0.135000 0.475000 0.762500
0.270000 0.475000 0.762500
0.405000 0.475000 0.762500
0.540000 0.475000 0.762500
0.675000 0.475000 0.762500
0.810000 0.475000 0.762500
0.945000 0.475000 0.762500
1.000000 0.475000 0.762500
0.000000 0.593750 0.762500
0.135000 0.593750 0.762500
0.270000 0.593750 0.762500
0.405000 0.593750 0.762500
0.540000 0.593750 0.762500
0.675000 0.593750 0.762500
0.810000 0.593750 0.762500
0.945000 0.593750 0.762500
1.000000 0.593750 0.762500
0.000000 0.712500 0.762500
0.135000 0.712500 0.762500
0.270000 0.712500 0.762500
0.405000 0.712500 0.762500
0.540000 0.712500 0.762500
0.675000 0.712500 0.762500
0.810000 0.712500 0.762500
0.945000 0.712500 0.762500
1.000000 0.712500 0.762500
0.000000 0.831250 0.762500
0.135000 0.831250 0.762500
0.270000 0.831250 0.762500
0.405000 0.831250 0.762500
0.540000 0.831250 0.762500
0.675000 0.831250 0.762500
0.810000 0.831250 0.762500
0.945000 0.831250 0.762500
1.000000 0.831250 0.762500
0.000000 0.950000 0.762500
0.135000 0.950000 0.762500
0.270000 0.950000 0.762500
0.405000 0.950000 0.762500
0.540000 0.950000 0.762500
0.675000 0.950000 0.762500
0.810000 0.950000 0.762500
0.945000 0.950000 0.762500
1.000000 0.950000 0.762500
0.000000 0.000000 0.881250
0.135000 0.000000 0.881250
0.270000 0.000000 0.881250
0.405000 0.000000 0.881250
0.540000 0.000000 0.881250
0.675000 0.000000 0.881250
0.810000 0.000000 0.881250
0.945000 0.000000 0.881250
1.000000 0.000000 0.881250
0.000000 0.118750 0.881250
0.135000 0.118750 0.881250
0.270000 0.118750 0.881250
0.405000 0.118750 0.881250
0.540000 0.118750 0.881250
0.675000 0.118750 0.881250
0.810000 0.118750 0.881250
0.945000 0.118750 0.881250
1.000000 0.118750 0.881250
0.000000 0.237500 0.881250
0.135000 0.237500 0.881250
0.270000 0.237500 0.881250
0.405000 0.237500 0.881250
0.540000 0.237500 0.881250
0.675000 0.237500 0.881250
0.810000 0.237500 0.881250
0.945000 0.237500 0.881250
1.000000 0.237500 0.881250
0.000000 0.356250 0.881250
0.135000 0.356250 0.881250
0.270000 0.356250 0.881250
0.405000 0.356250 0.881250
0.540000 0.356250 0.881250
0.675000 0.356250 0.881250
0.810000 0.356250 0.881250
0.945000 0.356250 0.881250
1.000000 0.356250 0.881250
0.000000 0.475000 0.881250
0.135000 0.475000 0.881250
0.270000 0.475000 0.881250
0.405000 0.475000 0.881250
0.540000 0.475000 0.881250
0.675000 0.475000 0.881250
0.810000 0.475000 0.881250
0.945000 0.475000 0.881250
1.000000 0.475000 0.881250
0.000000 0.593750 0.881250
0.135000 0.593750 0.881250
0.270000 0.593750 0.881250
0.405000 0.593750 0.881250
0.540000 0.593750 0.881250
0.675000 0.593750 0.881250
0.810000 0.593750 0.881250
0.945000 0.593750 0.881250
1.000000 0.593750 0.881250
0.000000 0.712500 0.881250
0.135000 0.712500 0.881250
0.270000 0.712500 0.881250
0.405000 0.712500 0.881250
0.540000 0.712500 0.881250
0.675000 0.712500 0.881250
0.810000 0.712500 0.881250
0.945000 0.712500 0.881250
1.000000 0.712500 0.881250
0.000000 0.831250 0.881250
0.135000 0.831250 0.881250
0.270000 0.831250 0.881250
0.405000 0.831250 0.881250
0.540000 0.831250 0.881250
0.675000 0.831250 0.881250
0.810000 0.831250 0.881250
0.945000 0.831250 0.881250
1.000000 0.831250 0.881250
0.000000 0.950000 0.881250
0.135000 0.950000 0.881250
0.270000 0.950000 0.881250
0.405000 0.950000 0.881250
0.540000 0.950000 0.881250
0.675000 0.950000 0.881250
0.810000 0.950000 0.881250
0.945000 0.950000 0.881250
1.000000 0.950000 0.881250
0.000000 0.000000 1.000000
0.135000 0.000000 1.000000
0.270000 0.000000 1.000000
0.405000 0.000000 1.000000
0.540000 0.000000 1.000000
0.675000 0.000000 1.000000
0.810000 0.000000 1.000000
0.945000 0.000000 1.000000
1.000000 0.000000 1.000000
0.000000 0.118750 1.000000
0.135000 0.118750 1.000000
0.270000 0.118750 1.000000
0.405000 0.118750 1.000000
0.540000 0.118750 1.000000
0.675000 0.118750 1.000000
0.810000 0.118750 1.000000
0.945000 0.118750 1.000000
1.000000 0.118750 1.000000
0.000000 0.237500 1.000000
0.135000 0.237500 1.000000
0.270000 0.237500 1.000000
0.405000 0.237500 1.000000
0.540000 0.237500 1.000000
0.675000 0.237500 1.000000
0.810000 0.237500 1.000000
0.945000 0.237500 1.000000
1.000000 0.237500 1.000000
0.000000 0.356250 1.000000
0.135000 0.356250 1.000000
0.270000 0.356250 1.000000
0.405000 0.356250 1.000000
0.540000 0.356250 1.000000
0.675000 0.356250 1.000000
0.810000 0.356250 1.000000
0.945000 0.356250 1.000000
1.000000 0.356250 1.000000
0.000000 0.475000 1.000000
0.135000 0.475000 1.000000
0.270000 0.475000 1.000000
0.405000 0.475000 1.000000
0.540000 0.475000 1.000000
0.675000 0.475000 1.000000
0.810000 0.475000 1.000000
0.945000 0.475000 1.000000
1.000000 0.475000 1.000000
0.000000 0.593750 1.000000
0.135000 0.593750 1.000000
0.270000 0.593750 1.000000
0.405000 0.593750 1.000000
0.540000 0.593750 1.000000
0.675000 0.593750 1.000000
0.810000 0.593750 1.000000
0.945000 0.593750 1.000000
1.000000 0.593750 1.000000
0.000000 0.712500 1.000000
0.135000 0.712500 1.000000
0.270000 0.712500 1.000000
0.405000 0.712500 1.000000
0.540000 0.712500 1.000000
0.675000 0.712500 1.000000
0.810000 0.712500 1.000000
0.945000 0.712500 1.000000
1.000000 0.712500 1.000000
0.000000 0.831250 1.000000
0.135000 0.831250 1.000000
0.270000 0.831250 1.000000
0.405000 0.831250 1.000000
0.540000 0.831250 1.000000
0.675000 0.831250 1.000000
0.810000 0.831250 1.000000
0.945000 0.831250 1.000000
1.000000 0.831250 1.000000
0.000000 0.950000 1.000000
0.135000 0.950000 1.000000
0.270000 0.950000 1.000000
0.405000 0.950000 1.000000
0.540000 0.950000 1.000000
0.675000 0.950000 1.000000
0.810000 0.950000 1.000000
0.945000 0.950000 1.000000
1.000000 0.950000 1.000000
