FilmCameraApp/FilmCameraApp/LUTs/FranceFilter.cube
TITLE "FranceFilter.cube"
LUT_3D_SIZE 5
0.000000 0.000000 0.050000
0.270000 0.000000 0.050000
0.540000 0.000000 0.050000
0.810000 0.000000 0.050000
1.000000 0.000000 0.050000
0.000000 0.237500 0.050000
0.270000 0.237500 0.050000
0.540000 0.237500 0.050000
0.810000 0.237500 0.050000
1.000000 0.237500 0.050000
0.000000 0.475000 0.050000
0.270000 0.475000 0.050000
0.540000 0.475000 0.050000
0.810000 0.475000 0.050000
1.000000 0.475000 0.050000
0.000000 0.712500 0.050000
0.270000 0.712500 0.050000
0.540000 0.712500 0.050000
0.810000 0.712500 0.050000
1.000000 0.712500 0.050000
0.000000 0.950000 0.050000
0.270000 0.950000 0.050000
0.540000 0.950000 0.050000
0.810000 0.950000 0.050000
1.000000 0.950000 0.050000
0.000000 0.000000 0.287500
0.270000 0.000000 0.287500
0.540000 0.000000 0.287500
0.810000 0.000000 0.287500
1.000000 0.000000 0.287500
0.000000 0.237500 0.287500
0.270000 0.237500 0.287500
0.540000 0.237500 0.287500
0.810000 0.237500 0.287500
1.000000 0.237500 0.287500
0.000000 0.475000 0.287500
0.270000 0.475000 0.287500
0.540000 0.475000 0.287500
0.810000 0.475000 0.287500
1.000000 0.475000 0.287500
0.000000 0.712500 0.287500
0.270000 0.712500 0.287500
0.540000 0.712500 0.287500
0.810000 0.712500 0.287500
1.000000 0.712500 0.287500
0.000000 0.950000 0.287500
0.270000 0.950000 0.287500
0.540000 0.950000 0.287500
0.810000 0.950000 0.287500
1.000000 0.950000 0.287500
0.000000 0.000000 0.525000
0.270000 0.000000 0.525000
0.540000 0.000000 0.525000
0.810000 0.000000 0.525000
1.000000 0.000000 0.525000
0.000000 0.237500 0.525000
0.270000 0.237500 0.525000
0.540000 0.237500 0.525000
0.810000 0.237500 0.525000
1.000000 0.237500 0.525000
0.000000 0.475000 0.525000
0.270000 0.475000 0.525000
0.540000 0.475000 0.525000
0.810000 0.475000 0.525000
1.000000 0.475000 0.525000
0.000000 0.712500 0.525000
0.270000 0.712500 0.525000
0.540000 0.712500 0.525000
0.810000 0.712500 0.525000
1.000000 0.712500 0.525000
0.000000 0.950000 0.525000
0.270000 0.950000 0.525000
0.540000 0.950000 0.525000
0.810000 0.950000 0.525000
1.000000 0.950000 0.525000
0.000000 0.000000 0.762500
0.270000 0.000000 0.762500
0.540000 0.000000 0.762500
0.810000 0.000000 0.762500
1.000000 0.000000 0.762500
0.000000 0.237500 0.762500
0.270000 0.237500 0.762500
0.540000 0.237500 0.762500
0.810000 0.237500 0.762500
1.000000 0.237500 0.762500
0.000000 0.475000 0.762500
0.270000 0.475000 0.762500
0.540000 0.475000 0.762500
0.810000 0.475000 0.762500
1.000000 0.475000 0.762500
0.000000 0.712500 0.762500
0.270000 0.712500 0.762500
0.540000 0.712500 0.762500
0.810000 0.712500 0.762500
1.000000 0.712500 0.762500
0.000000 0.950000 0.762500
0.270000 0.950000 0.762500
0.540000 0.950000 0.762500
0.810000 0.950000 0.762500
1.000000 0.950000 0.762500
0.000000 0.000000 1.000000
0.270000 0.000000 1.000000
0.540000 0.000000 1.000000
0.810000 0.000000 1.000000
1.000000 0.000000 1.000000
0.000000 0.237500 1.000000
0.270000 0.237500 1.000000
0.540000 0.237500 1.000000
0.810000 0.237500 1.000000
1.000000 0.237500 1.000000
0.000000 0.475000 1.000000
0.270000 0.475000 1.000000
0.540000 0.475000 1.000000
0.810000 0.475000 1.000000
1.000000 0.475000 1.000000
0.000000 0.712500 1.000000
0.270000 0.712500 1.000000
0.540000 0.712500 1.000000
0.810000 0.712500 1.000000
1.000000 0.712500 1.000000
0.000000 0.950000 1.000000
0.270000 0.950000 1.000000
0.540000 0.950000 1.000000
0.810000 0.950000 1.000000
1.000000 0.950000 1.000000
