FilmCameraApp/FilmCameraApp/LUTs/GermanyFilter.cube
TITLE "GermanyFilter.cube"
LUT_3D_SIZE 5
0.000000 0.000000 0.000000
0.225000 0.000000 0.000000
0.450000 0.000000 0.000000
0.675000 0.000000 0.000000
0.900000 0.000000 0.000000
0.000000 0.237500 0.000000
0.225000 0.237500 0.000000
0.450000 0.237500 0.000000
0.675000 0.237500 0.000000
0.900000 0.237500 0.000000
0.000000 0.475000 0.000000
0.225000 0.475000 0.000000
0.450000 0.475000 0.000000
0.675000 0.475000 0.000000
0.900000 0.475000 0.000000
0.000000 0.712500 0.000000
0.225000 0.712500 0.000000
0.450000 0.712500 0.000000
0.675000 0.712500 0.000000
0.900000 0.712500 0.000000
0.000000 0.950000 0.000000
0.225000 0.950000 0.000000
0.450000 0.950000 0.000000
0.675000 0.950000 0.000000
0.900000 0.950000 0.000000
0.000000 0.000000 0.262500
0.225000 0.000000 0.262500
0.450000 0.000000 0.262500
0.675000 0.000000 0.262500
0.900000 0.000000 0.262500
0.000000 0.237500 0.262500
0.225000 0.237500 0.262500
0.450000 0.237500 0.262500
0.675000 0.237500 0.262500
0.900000 0.237500 0.262500
0.000000 0.475000 0.262500
0.225000 0.475000 0.262500
0.450000 0.475000 0.262500
0.675000 0.475000 0.262500
0.900000 0.475000 0.262500
0.000000 0.712500 0.262500
0.225000 0.712500 0.262500
0.450000 0.712500 0.262500
0.675000 0.712500 0.262500
0.900000 0.712500 0.262500
0.000000 0.950000 0.262500
0.225000 0.950000 0.262500
0.450000 0.950000 0.262500
0.675000 0.950000 0.262500
0.900000 0.950000 0.262500
0.000000 0.000000 0.525000
0.225000 0.000000 0.525000
0.450000 0.000000 0.525000
0.675000 0.000000 0.525000
0.900000 0.000000 0.525000
0.000000 0.237500 0.525000
0.225000 0.237500 0.525000
0.450000 0.237500 0.525000
0.675000 0.237500 0.525000
0.900000 0.237500 0.525000
0.000000 0.475000 0.525000
0.225000 0.475000 0.525000
0.450000 0.475000 0.525000
0.675000 0.475000 0.525000
0.900000 0.475000 0.525000
0.000000 0.712500 0.525000
0.225000 0.712500 0.525000
0.450000 0.712500 0.525000
0.675000 0.712500 0.525000
0.900000 0.712500 0.525000
0.000000 0.950000 0.525000
0.225000 0.950000 0.525000
0.450000 0.950000 0.525000
0.675000 0.950000 0.525000
0.900000 0.950000 0.525000
0.000000 0.000000 0.787500
0.225000 0.000000 0.787500
0.450000 0.000000 0.787500
0.675000 0.000000 0.787500
0.900000 0.000000 0.787500
0.000000 0.237500 0.787500
0.225000 0.237500 0.787500
0.450000 0.237500 0.787500
0.675000 0.237500 0.787500
0.900000 0.237500 0.787500
0.000000 0.475000 0.787500
0.225000 0.475000 0.787500
0.450000 0.475000 0.787500
0.675000 0.475000 0.787500
0.900000 0.475000 0.787500
0.000000 0.712500 0.787500
0.225000 0.712500 0.787500
0.450000 0.712500 0.787500
0.675000 0.712500 0.787500
0.900000 0.712500 0.787500
0.000000 0.950000 0.787500
0.225000 0.950000 0.787500
0.450000 0.950000 0.787500
0.675000 0.950000 0.787500
0.900000 0.950000 0.787500
0.000000 0.000000 1.000000
0.225000 0.000000 1.000000
0.450000 0.000000 1.000000
0.675000 0.000000 1.000000
0.900000 0.000000 1.000000
0.000000 0.237500 1.000000
0.225000 0.237500 1.000000
0.450000 0.237500 1.000000
0.675000 0.237500 1.000000
0.900000 0.237500 1.000000
0.000000 0.475000 1.000000
0.225000 0.475000 1.000000
0.450000 0.475000 1.000000
0.675000 0.475000 1.000000
0.900000 0.475000 1.000000
0.000000 0.712500 1.000000
0.225000 0.712500 1.000000
0.450000 0.712500 1.000000
0.675000 0.712500 1.000000
0.900000 0.712500 1.000000
0.000000 0.950000 1.000000
0.225000 0.950000 1.000000
0.450000 0.950000 1.000000
0.675000 0.950000 1.000000
0.900000 0.950000 1.000000
