FilmCameraApp/FilmCameraApp/LUTs/GermanyFilter.cube
TITLE "GermanyFilter.cube"
LUT_3D_SIZE 9
0.000000 0.000000 0.000000
0.112500 0.000000 0.000000
0.225000 0.000000 0.000000
0.337500 0.000000 0.000000
0.450000 0.000000 0.000000
0.562500 0.000000 0.000000
0.675000 0.000000 0.000000
0.787500 0.000000 0.000000
0.900000 0.000000 0.000000
0.000000 0.118750 0.000000
0.112500 0.118750 0.000000
0.225000 0.118750 0.000000
0.337500 0.118750 0.000000
0.450000 0.118750 0.000000
0.562500 0.118750 0.000000
0.675000 0.118750 0.000000
0.787500 0.118750 0.000000
0.900000 0.118750 0.000000
0.000000 0.237500 0.000000
0.112500 0.237500 0.000000
0.225000 0.237500 0.000000
0.337500 0.237500 0.000000
0.450000 0.237500 0.000000
0.562500 0.237500 0.000000
0.675000 0.237500 0.000000
0.787500 0.237500 0.000000
0.900000 0.237500 0.000000
0.000000 0.356250 0.000000
0.112500 0.356250 0.000000
0.225000 0.356250 0.000000
0.337500 0.356250 0.000000
0.450000 0.356250 0.000000
0.562500 0.356250 0.000000
0.675000 0.356250 0.000000
0.787500 0.356250 0.000000
0.900000 0.356250 0.000000
0.000000 0.475000 0.000000
0.112500 0.475000 0.000000
0.225000 0.475000 0.000000
0.337500 0.475000 0.000000
0.450000 0.475000 0.000000
0.562500 0.475000 0.000000
0.675000 0.475000 0.000000
0.787500 0.475000 0.000000
0.900000 0.475000 0.000000
0.000000 0.593750 0.000000
0.112500 0.593750 0.000000
0.225000 0.593750 0.000000
0.337500 0.593750 0.000000
0.450000 0.593750 0.000000
0.562500 0.593750 0.000000
0.675000 0.593750 0.000000
0.787500 0.593750 0.000000
0.900000 0.593750 0.000000
0.000000 0.712500 0.000000
0.112500 0.712500 0.000000
0.225000 0.712500 0.000000
0.337500 0.712500 0.000000
0.450000 0.712500 0.000000
0.562500 0.712500 0.000000
0.675000 0.712500 0.000000
0.787500 0.712500 0.000000
0.900000 0.712500 0.000000
0.000000 0.831250 0.000000
0.112500 0.831250 0.000000
0.225000 0.831250 0.000000
0.337500 0.831250 0.000000
0.450000 0.831250 0.000000
0.562500 0.831250 0.000000
0.675000 0.831250 0.000000
0.787500 0.831250 0.000000
0.900000 0.831250 0.000000
0.000000 0.950000 0.000000
0.112500 0.950000 0.000000
0.225000 0.950000 0.000000
0.337500 0.950000 0.000000
0.450000 0.950000 0.000000
0.562500 0.950000 0.000000
0.675000 0.950000 0.000000
0.787500 0.950000 0.000000
0.900000 0.950000 0.000000
0.000000 0.000000 0.131250
0.112500 0.000000 0.131250
0.225000 0.000000 0.131250
0.337500 0.000000 0.131250
0.450000 0.000000 0.131250
0.562500 0.000000 0.131250
0.675000 0.000000 0.131250
0.787500 0.000000 0.131250
0.900000 0.000000 0.131250
0.000000 0.118750 0.131250
0.112500 0.118750 0.131250
0.225000 0.118750 0.131250
0.337500 0.118750 0.131250
0.450000 0.118750 0.131250
0.562500 0.118750 0.131250
0.675000 0.118750 0.131250
0.787500 0.118750 0.131250
0.900000 0.118750 0.131250
0.000000 0.237500 0.131250
0.112500 0.237500 0.131250
0.225000 0.237500 0.131250
0.337500 0.237500 0.131250
0.450000 0.237500 0.131250
0.562500 0.237500 0.131250
0.675000 0.237500 0.131250
0.787500 0.237500 0.131250
0.900000 0.237500 0.131250
0.000000 0.356250 0.131250
0.112500 0.356250 0.131250
0.225000 0.356250 0.131250
0.337500 0.356250 0.131250
0.450000 0.356250 0.131250
0.562500 0.356250 0.131250
0.675000 0.356250 0.131250
0.787500 0.356250 0.131250
0.900000 0.356250 0.131250
0.000000 0.475000 0.131250
0.112500 0.475000 0.131250
0.225000 0.475000 0.131250
0.337500 0.475000 0.131250
0.450000 0.475000 0.131250
0.562500 0.475000 0.131250
0.675000 0.475000 0.131250
0.787500 0.475000 0.131250
0.900000 0.475000 0.131250
0.000000 0.593750 0.131250
0.112500 0.593750 0.131250
0.225000 0.593750 0.131250
0.337500 0.593750 0.131250
0.450000 0.593750 0.131250
0.562500 0.593750 0.131250
0.675000 0.593750 0.131250
0.787500 0.593750 0.131250
0.900000 0.593750 0.131250
0.000000 0.712500 0.131250
0.112500 0.712500 0.131250
0.225000 0.712500 0.131250
0.337500 0.712500 0.131250
0.450000 0.712500 0.131250
0.562500 0.712500 0.131250
0.675000 0.712500 0.131250
0.787500 0.712500 0.131250
0.900000 0.712500 0.131250
0.000000 0.831250 0.131250
0.112500 0.831250 0.131250
0.225000 0.831250 0.131250
0.337500 0.831250 0.131250
0.450000 0.831250 0.131250
0.562500 0.831250 0.131250
0.675000 0.831250 0.131250
0.787500 0.831250 0.131250
0.900000 0.831250 0.131250
0.000000 0.950000 0.131250
0.112500 0.950000 0.131250
0.225000 0.950000 0.131250
0.337500 0.950000 0.131250
0.450000 0.950000 0.131250
0.562500 0.950000 0.131250
0.675000 0.950000 0.131250
0.787500 0.950000 0.131250
0.900000 0.950000 0.131250
0.000000 0.000000 0.262500
0.112500 0.000000 0.262500
0.225000 0.000000 0.262500
0.337500 0.000000 0.262500
0.450000 0.000000 0.262500
0.562500 0.000000 0.262500
0.675000 0.000000 0.262500
0.787500 0.000000 0.262500
0.900000 0.000000 0.262500
0.000000 0.118750 0.262500
0.112500 0.118750 0.262500
0.225000 0.118750 0.262500
0.337500 0.118750 0.262500
0.450000 0.118750 0.262500
0.562500 0.118750 0.262500
0.675000 0.118750 0.262500
0.787500 0.118750 0.262500
0.900000 0.118750 0.262500
0.000000 0.237500 0.262500
0.112500 0.237500 0.262500
0.225000 0.237500 0.262500
0.337500 0.237500 0.262500
0.450000 0.237500 0.262500
0.562500 0.237500 0.262500
0.675000 0.237500 0.262500
0.787500 0.237500 0.262500
0.900000 0.237500 0.262500
0.000000 0.356250 0.262500
0.112500 0.356250 0.262500
0.225000 0.356250 0.262500
0.337500 0.356250 0.262500
0.450000 0.356250 0.262500
0.562500 0.356250 0.262500
0.675000 0.356250 0.262500
0.787500 0.356250 0.262500
0.900000 0.356250 0.262500
0.000000 0.475000 0.262500
0.112500 0.475000 0.262500
0.225000 0.475000 0.262500
0.337500 0.475000 0.262500
0.450000 0.475000 0.262500
0.562500 0.475000 0.262500
0.675000 0.475000 0.262500
0.787500 0.475000 0.262500
0.900000 0.475000 0.262500
0.000000 0.593750 0.262500
0.112500 0.593750 0.262500
0.225000 0.593750 0.262500
0.337500 0.593750 0.262500
0.450000 0.593750 0.262500
0.562500 0.593750 0.262500
0.675000 0.593750 0.262500
0.787500 0.593750 0.262500
0.900000 0.593750 0.262500
0.000000 0.712500 0.262500
0.112500 0.712500 0.262500
0.225000 0.712500 0.262500
0.337500 0.712500 0.262500
0.450000 0.712500 0.262500
0.562500 0.712500 0.262500
0.675000 0.712500 0.262500
0.787500 0.712500 0.262500
0.900000 0.712500 0.262500
0.000000 0.831250 0.262500
0.112500 0.831250 0.262500
0.225000 0.831250 0.262500
0.337500 0.831250 0.262500
0.450000 0.831250 0.262500
0.562500 0.831250 0.262500
0.675000 0.831250 0.262500
0.787500 0.831250 0.262500
0.900000 0.831250 0.262500
0.000000 0.950000 0.262500
0.112500 0.950000 0.262500
0.225000 0.950000 0.262500
0.337500 0.950000 0.262500
0.450000 0.950000 0.262500
0.562500 0.950000 0.262500
0.675000 0.950000 0.262500
0.787500 0.950000 0.262500
0.900000 0.950000 0.262500
0.000000 0.000000 0.393750
0.112500 0.000000 0.393750
0.225000 0.000000 0.393750
0.337500 0.000000 0.393750
0.450000 0.000000 0.393750
0.562500 0.000000 0.393750
0.675000 0.000000 0.393750
0.787500 0.000000 0.393750
0.900000 0.000000 0.393750
0.000000 0.118750 0.393750
0.112500 0.118750 0.393750
0.225000 0.118750 0.393750
0.337500 0.118750 0.393750
0.450000 0.118750 0.393750
0.562500 0.118750 0.393750
0.675000 0.118750 0.393750
0.787500 0.118750 0.393750
0.900000 0.118750 0.393750
0.000000 0.237500 0.393750
0.112500 0.237500 0.393750
0.225000 0.237500 0.393750
0.337500 0.237500 0.393750
0.450000 0.237500 0.393750
0.562500 0.237500 0.393750
0.675000 0.237500 0.393750
0.787500 0.237500 0.393750
0.900000 0.237500 0.393750
0.000000 0.356250 0.393750
0.112500 0.356250 0.393750
0.225000 0.356250 0.393750
0.337500 0.356250 0.393750
0.450000 0.356250 0.393750
0.562500 0.356250 0.393750
0.675000 0.356250 0.393750
0.787500 0.356250 0.393750
0.900000 0.356250 0.393750
0.000000 0.475000 0.393750
0.112500 0.475000 0.393750
0.225000 0.475000 0.393750
0.337500 0.475000 0.393750
0.450000 0.475000 0.393750
0.562500 0.475000 0.393750
0.675000 0.475000 0.393750
0.787500 0.475000 0.393750
0.900000 0.475000 0.393750
0.000000 0.593750 0.393750
0.112500 0.593750 0.393750
0.225000 0.593750 0.393750
0.337500 0.593750 0.393750
0.450000 0.593750 0.393750
0.562500 0.593750 0.393750
0.675000 0.593750 0.393750
0.787500 0.593750 0.393750
0.900000 0.593750 0.393750
0.000000 0.712500 0.393750
0.112500 0.712500 0.393750
0.225000 0.712500 0.393750
0.337500 0.712500 0.393750
0.450000 0.712500 0.393750
0.562500 0.712500 0.393750
0.675000 0.712500 0.393750
0.787500 0.712500 0.393750
0.900000 0.712500 0.393750
0.000000 0.831250 0.393750
0.112500 0.831250 0.393750
0.225000 0.831250 0.393750
0.337500 0.831250 0.393750
0.450000 0.831250 0.393750
0.562500 0.831250 0.393750
0.675000 0.831250 0.393750
0.787500 0.831250 0.393750
0.900000 0.831250 0.393750
0.000000 0.950000 0.393750
0.112500 0.950000 0.393750
0.225000 0.950000 0.393750
0.337500 0.950000 0.393750
0.450000 0.950000 0.393750
0.562500 0.950000 0.393750
0.675000 0.950000 0.393750
0.787500 0.950000 0.393750
0.900000 0.950000 0.393750
0.000000 0.000000 0.525000
0.112500 0.000000 0.525000
0.225000 0.000000 0.525000
0.337500 0.000000 0.525000
0.450000 0.000000 0.525000
0.562500 0.000000 0.525000
0.675000 0.000000 0.525000
0.787500 0.000000 0.525000
0.900000 0.000000 0.525000
0.000000 0.118750 0.525000
0.112500 0.118750 0.525000
0.225000 0.118750 0.525000
0.337500 0.118750 0.525000
0.450000 0.118750 0.525000
0.562500 0.118750 0.525000
0.675000 0.118750 0.525000
0.787500 0.118750 0.525000
0.900000 0.118750 0.525000
0.000000 0.237500 0.525000
0.112500 0.237500 0.525000
0.225000 0.237500 0.525000
0.337500 0.237500 0.525000
0.450000 0.237500 0.525000
0.562500 0.237500 0.525000
0.675000 0.237500 0.525000
0.787500 0.237500 0.525000
0.900000 0.237500 0.525000
0.000000 0.356250 0.525000
0.112500 0.356250 0.525000
0.225000 0.356250 0.525000
0.337500 0.356250 0.525000
0.450000 0.356250 0.525000
0.562500 0.356250 0.525000
0.675000 0.356250 0.525000
0.787500 0.356250 0.525000
0.900000 0.356250 0.525000
0.000000 0.475000 0.525000
0.112500 0.475000 0.525000
0.225000 0.475000 0.525000
0.337500 0.475000 0.525000
0.450000 0.475000 0.525000
0.562500 0.475000 0.525000
0.675000 0.475000 0.525000
0.787500 0.475000 0.525000
0.900000 0.475000 0.525000
0.000000 0.593750 0.525000
0.112500 0.593750 0.525000
0.225000 0.593750 0.525000
0.337500 0.593750 0.525000
0.450000 0.593750 0.525000
0.562500 0.593750 0.525000
0.675000 0.593750 0.525000
0.787500 0.593750 0.525000
0.900000 0.593750 0.525000
0.000000 0.712500 0.525000
0.112500 0.712500 0.525000
0.225000 0.712500 0.525000
0.337500 0.712500 0.525000
0.450000 0.712500 0.525000
0.562500 0.712500 0.525000
0.675000 0.712500 0.525000
0.787500 0.712500 0.525000
0.900000 0.712500 0.525000
0.000000 0.831250 0.525000
0.112500 0.831250 0.525000
0.225000 0.831250 0.525000
0.337500 0.831250 0.525000
0.450000 0.831250 0.525000
0.562500 0.831250 0.525000
0.675000 0.831250 0.525000
0.787500 0.831250 0.525000
0.900000 0.831250 0.525000
0.000000 0.950000 0.525000
0.112500 0.950000 0.525000
0.225000 0.950000 0.525000
0.337500 0.950000 0.525000
0.450000 0.950000 0.525000
0.562500 0.950000 0.525000
0.675000 0.950000 0.525000
0.787500 0.950000 0.525000
0.900000 0.950000 0.525000
0.000000 0.000000 0.656250
0.112500 0.000000 0.656250
0.225000 0.000000 0.656250
0.337500 0.000000 0.656250
0.450000 0.000000 0.656250
0.562500 0.000000 0.656250
0.675000 0.000000 0.656250
0.787500 0.000000 0.656250
0.900000 0.000000 0.656250
0.000000 0.118750 0.656250
0.112500 0.118750 0.656250
0.225000 0.118750 0.656250
0.337500 0.118750 0.656250
0.450000 0.118750 0.656250
0.562500 0.118750 0.656250
0.675000 0.118750 0.656250
0.787500 0.118750 0.656250
0.900000 0.118750 0.656250
0.000000 0.237500 0.656250
0.112500 0.237500 0.656250
0.225000 0.237500 0.656250
0.337500 0.237500 0.656250
0.450000 0.237500 0.656250
0.562500 0.237500 0.656250
0.675000 0.237500 0.656250
0.787500 0.237500 0.656250
0.900000 0.237500 0.656250
0.000000 0.356250 0.656250
0.112500 0.356250 0.656250
0.225000 0.356250 0.656250
0.337500 0.356250 0.656250
0.450000 0.356250 0.656250
0.562500 0.356250 0.656250
0.675000 0.356250 0.656250
0.787500 0.356250 0.656250
0.900000 0.356250 0.656250
0.000000 0.475000 0.656250
0.112500 0.475000 0.656250
0.225000 0.475000 0.656250
0.337500 0.475000 0.656250
0.450000 0.475000 0.656250
0.562500 0.475000 0.656250
0.675000 0.475000 0.656250
0.787500 0.475000 0.656250
0.900000 0.475000 0.656250
0.000000 0.593750 0.656250
0.112500 0.593750 0.656250
0.225000 0.593750 0.656250
0.337500 0.593750 0.656250
0.450000 0.593750 0.656250
0.562500 0.593750 0.656250
0.675000 0.593750 0.656250
0.787500 0.593750 0.656250
0.900000 0.593750 0.656250
0.000000 0.712500 0.656250
0.112500 0.712500 0.656250
0.225000 0.712500 0.656250
0.337500 0.712500 0.656250
0.450000 0.712500 0.656250
0.562500 0.712500 0.656250
0.675000 0.712500 0.656250
0.787500 0.712500 0.656250
0.900000 0.712500 0.656250
0.000000 0.831250 0.656250
0.112500 0.831250 0.656250
0.225000 0.831250 0.656250
0.337500 0.831250 0.656250
0.450000 0.831250 0.656250
0.562500 0.831250 0.656250
0.675000 0.831250 0.656250
0.787500 0.831250 0.656250
0.900000 0.831250 0.656250
0.000000 0.950000 0.656250
0.112500 0.950000 0.656250
0.225000 0.950000 0.656250
0.337500 0.950000 0.656250
0.450000 0.950000 0.656250
0.562500 0.950000 0.656250
0.675000 0.950000 0.656250
0.787500 0.950000 0.656250
0.900000 0.950000 0.656250
0.000000 0.000000 0.787500
0.112500 0.000000 0.787500
0.225000 0.000000 0.787500
0.337500 0.000000 0.787500
0.450000 0.000000 0.787500
0.562500 0.000000 0.787500
0.675000 0.000000 0.787500
0.787500 0.000000 0.787500
0.900000 0.000000 0.787500
0.000000 0.118750 0.787500
0.112500 0.118750 0.787500
0.225000 0.118750 0.787500
0.337500 0.118750 0.787500
0.450000 0.118750 0.787500
0.562500 0.118750 0.787500
0.675000 0.118750 0.787500
0.787500 0.118750 0.787500
0.900000 0.118750 0.787500
0.000000 0.237500 0.787500
0.112500 0.237500 0.787500
0.225000 0.237500 0.787500
0.337500 0.237500 0.787500
0.450000 0.237500 0.787500
0.562500 0.237500 0.787500
0.675000 0.237500 0.787500
0.787500 0.237500 0.787500
0.900000 0.237500 0.787500
0.000000 0.356250 0.787500
0.112500 0.356250 0.787500
0.225000 0.356250 0.787500
0.337500 0.356250 0.787500
0.450000 0.356250 0.787500
0.562500 0.356250 0.787500
0.675000 0.356250 0.787500
0.787500 0.356250 0.787500
0.900000 0.356250 0.787500
0.000000 0.475000 0.787500
0.112500 0.475000 0.787500
0.225000 0.475000 0.787500
0.337500 0.475000 0.787500
0.450000 0.475000 0.787500
0.562500 0.475000 0.787500
0.675000 0.475000 0.787500
0.787500 0.475000 0.787500
0.900000 0.475000 0.787500
0.000000 0.593750 0.787500
0.112500 0.593750 0.787500
0.225000 0.593750 0.787500
0.337500 0.593750 0.787500
0.450000 0.593750 0.787500
0.562500 0.593750 0.787500
0.675000 0.593750 0.787500
0.787500 0.593750 0.787500
0.900000 0.593750 0.787500
0.000000 0.712500 0.787500
0.112500 0.712500 0.787500
0.225000 0.712500 0.787500
0.337500 0.712500 0.787500
0.450000 0.712500 0.787500
0.562500 0.712500 0.787500
0.675000 0.712500 0.787500
0.787500 0.712500 0.787500
0.900000 0.712500 0.787500
0.000000 0.831250 0.787500
0.112500 0.831250 0.787500
0.225000 0.831250 0.787500
0.337500 0.831250 0.787500
0.450000 0.831250 0.787500
0.562500 0.831250 0.787500
0.675000 0.831250 0.787500
0.787500 0.831250 0.787500
0.900000 0.831250 0.787500
0.000000 0.950000 0.787500
0.112500 0.950000 0.787500
0.225000 0.950000 0.787500
0.337500 0.950000 0.787500
0.450000 0.950000 0.787500
0.562500 0.950000 0.787500
0.675000 0.950000 0.787500
0.787500 0.950000 0.787500
0.900000 0.950000 0.787500
0.000000 0.000000 0.918750
0.112500 0.000000 0.918750
0.225000 0.000000 0.918750
0.337500 0.000000 0.918750
0.450000 0.000000 0.918750
0.562500 0.000000 0.918750
0.675000 0.000000 0.918750
0.787500 0.000000 0.918750
0.900000 0.000000 0.918750
0.000000 0.118750 0.918750
0.112500 0.118750 0.918750
0.225000 0.118750 0.918750
0.337500 0.118750 0.918750
0.450000 0.118750 0.918750
0.562500 0.118750 0.918750
0.675000 0.118750 0.918750
0.787500 0.118750 0.918750
0.900000 0.118750 0.918750
0.000000 0.237500 0.918750
0.112500 0.237500 0.918750
0.225000 0.237500 0.918750
0.337500 0.237500 0.918750
0.450000 0.237500 0.918750
0.562500 0.237500 0.918750
0.675000 0.237500 0.918750
0.787500 0.237500 0.918750
0.900000 0.237500 0.918750
0.000000 0.356250 0.918750
0.112500 0.356250 0.918750
0.225000 0.356250 0.918750
0.337500 0.356250 0.918750
0.450000 0.356250 0.918750
0.562500 0.356250 0.918750
0.675000 0.356250 0.918750
0.787500 0.356250 0.918750
0.900000 0.356250 0.918750
0.000000 0.475000 0.918750
0.112500 0.475000 0.918750
0.225000 0.475000 0.918750
0.337500 0.475000 0.918750
0.450000 0.475000 0.918750
0.562500 0.475000 0.918750
0.675000 0.475000 0.918750
0.787500 0.475000 0.918750
0.900000 0.475000 0.918750
0.000000 0.593750 0.918750
0.112500 0.593750 0.918750
0.225000 0.593750 0.918750
0.337500 0.593750 0.918750
0.450000 0.593750 0.918750
0.562500 0.593750 0.918750
0.675000 0.593750 0.918750
0.787500 0.593750 0.918750
0.900000 0.593750 0.918750
0.000000 0.712500 0.918750
0.112500 0.712500 0.918750
0.225000 0.712500 0.918750
0.337500 0.712500 0.918750
0.450000 0.712500 0.918750
0.562500 0.712500 0.918750
0.675000 0.712500 0.918750
0.787500 0.712500 0.918750
0.900000 0.712500 0.918750
0.000000 0.831250 0.918750
0.112500 0.831250 0.918750
0.225000 0.831250 0.918750
0.337500 0.831250 0.918750
0.450000 0.831250 0.918750
0.562500 0.831250 0.918750
0.675000 0.831250 0.918750
0.787500 0.831250 0.918750
0.900000 0.831250 0.918750
0.000000 0.950000 0.918750
0.112500 0.950000 0.918750
0.225000 0.950000 0.918750
0.337500 0.950000 0.918750
0.450000 0.950000 0.918750
0.562500 0.950000 0.918750
0.675000 0.950000 0.918750
0.787500 0.950000 0.918750
0.900000 0.950000 0.918750
0.000000 0.000000 1.000000
0.112500 0.000000 1.000000
0.225000 0.000000 1.000000
0.337500 0.000000 1.000000
0.450000 0.000000 1.000000
0.562500 0.000000 1.000000
0.675000 0.000000 1.000000
0.787500 0.000000 1.000000
0.900000 0.000000 1.000000
0.000000 0.118750 1.000000
0.112500 0.118750 1.000000
0.225000 0.118750 1.000000
0.337500 0.118750 1.000000
0.450000 0.118750 1.000000
0.562500 0.118750 1.000000
0.675000 0.118750 1.000000
0.787500 0.118750 1.000000
0.900000 0.118750 1.000000
0.000000 0.237500 1.000000
0.112500 0.237500 1.000000
0.225000 0.237500 1.000000
0.337500 0.237500 1.000000
0.450000 0.237500 1.000000
0.562500 0.237500 1.000000
0.675000 0.237500 1.000000
0.787500 0.237500 1.000000
0.900000 0.237500 1.000000
0.000000 0.356250 1.000000
0.112500 0.356250 1.000000
0.225000 0.356250 1.000000
0.337500 0.356250 1.000000
0.450000 0.356250 1.000000
0.562500 0.356250 1.000000
0.675000 0.356250 1.000000
0.787500 0.356250 1.000000
0.900000 0.356250 1.000000
0.000000 0.475000 1.000000
0.112500 0.475000 1.000000
0.225000 0.475000 1.000000
0.337500 0.475000 1.000000
0.450000 0.475000 1.000000
0.562500 0.475000 1.000000
0.675000 0.475000 1.000000
0.787500 0.475000 1.000000
0.900000 0.475000 1.000000
0.000000 0.593750 1.000000
0.112500 0.593750 1.000000
0.225000 0.593750 1.000000
0.337500 0.593750 1.000000
0.450000 0.593750 1.000000
0.562500 0.593750 1.000000
0.675000 0.593750 1.000000
0.787500 0.593750 1.000000
0.900000 0.593750 1.000000
0.000000 0.712500 1.000000
0.112500 0.712500 1.000000
0.225000 0.712500 1.000000
0.337500 0.712500 1.000000
0.450000 0.712500 1.000000
0.562500 0.712500 1.000000
0.675000 0.712500 1.000000
0.787500 0.712500 1.000000
0.900000 0.712500 1.000000
0.000000 0.831250 1.000000
0.112500 0.831250 1.000000
0.225000 0.831250 1.000000
0.337500 0.831250 1.000000
0.450000 0.831250 1.000000
0.562500 0.831250 1.000000
0.675000 0.831250 1.000000
0.787500 0.831250 1.000000
0.900000 0.831250 1.000000
0.000000 0.950000 1.000000
0.112500 0.950000 1.000000
0.225000 0.950000 1.000000
0.337500 0.950000 1.000000
0.450000 0.950000 1.000000
0.562500 0.950000 1.000000
0.675000 0.950000 1.000000
0.787500 0.950000 1.000000
0.900000 0.950000 1.000000
