FilmCameraApp/FilmCameraApp/LUTs/GermanyFilter.cube
TITLE "GermanyFilter.cube"
LUT_3D_SIZE 33
0.000000 0.000000 0.000000
0.028125 0.000000 0.000000
0.056250 0.000000 0.000000
0.084375 0.000000 0.000000
0.112500 0.000000 0.000000
0.140625 0.000000 0.000000
0.168750 0.000000 0.000000
0.196875 0.000000 0.000000
0.225000 0.000000 0.000000
0.253125 0.000000 0.000000
0.281250 0.000000 0.000000
0.309375 0.000000 0.000000
0.337500 0.000000 0.000000
0.365625 0.000000 0.000000
0.393750 0.000000 0.000000
0.421875 0.000000 0.000000
0.450000 0.000000 0.000000
0.478125 0.000000 0.000000
0.506250 0.000000 0.000000
0.534375 0.000000 0.000000
0.562500 0.000000 0.000000
0.590625 0.000000 0.000000
0.618750 0.000000 0.000000
0.646875 0.000000 0.000000
0.675000 0.000000 0.000000
0.703125 0.000000 0.000000
0.731250 0.000000 0.000000
0.759375 0.000000 0.000000
0.787500 0.000000 0.000000
0.815625 0.000000 0.000000
0.843750 0.000000 0.000000
0.871875 0.000000 0.000000
0.900000 0.000000 0.000000
0.000000 0.029687 0.000000
0.028125 0.029687 0.000000
0.056250 0.029687 0.000000
0.084375 0.029687 0.000000
0.112500 0.029687 0.000000
0.140625 0.029687 0.000000
0.168750 0.029687 0.000000
0.196875 0.029687 0.000000
0.225000 0.029687 0.000000
0.253125 0.029687 0.000000
0.281250 0.029687 0.000000
0.309375 0.029687 0.000000
0.337500 0.029687 0.000000
0.365625 0.029687 0.000000
0.393750 0.029687 0.000000
0.421875 0.029687 0.000000
0.450000 0.029687 0.000000
0.478125 0.029687 0.000000
0.506250 0.029687 0.000000
0.534375 0.029687 0.000000
0.562500 0.029687 0.000000
0.590625 0.029687 0.000000
0.618750 0.029687 0.000000
0.646875 0.029687 0.000000
0.675000 0.029687 0.000000
0.703125 0.029687 0.000000
0.731250 0.029687 0.000000
0.759375 0.029687 0.000000
0.787500 0.029687 0.000000
0.815625 0.029687 0.000000
0.843750 0.029687 0.000000
0.871875 0.029687 0.000000
0.900000 0.029687 0.000000
0.000000 0.059375 0.000000
0.028125 0.059375 0.000000
0.056250 0.059375 0.000000
0.084375 0.059375 0.000000
0.112500 0.059375 0.000000
0.140625 0.059375 0.000000
0.168750 0.059375 0.000000
0.196875 0.059375 0.000000
0.225000 0.059375 0.000000
0.253125 0.059375 0.000000
0.281250 0.059375 0.000000
0.309375 0.059375 0.000000
0.337500 0.059375 0.000000
0.365625 0.059375 0.000000
0.393750 0.059375 0.000000
0.421875 0.059375 0.000000
0.450000 0.059375 0.000000
0.478125 0.059375 0.000000
0.506250 0.059375 0.000000
0.534375 0.059375 0.000000
0.562500 0.059375 0.000000
0.590625 0.059375 0.000000
0.618750 0.059375 0.000000
0.646875 0.059375 0.000000
0.675000 0.059375 0.000000
0.703125 0.059375 0.000000
0.731250 0.059375 0.000000
0.759375 0.059375 0.000000
0.787500 0.059375 0.000000
0.815625 0.059375 0.000000
0.843750 0.059375 0.000000
0.871875 0.059375 0.000000
0.900000 0.059375 0.000000
0.000000 0.089062 0.000000
0.028125 0.089062 0.000000
0.056250 0.089062 0.000000
0.084375 0.089062 0.000000
0.112500 0.089062 0.000000
0.140625 0.089062 0.000000
0.168750 0.089062 0.000000
0.196875 0.089062 0.000000
0.225000 0.089062 0.000000
0.253125 0.089062 0.000000
0.281250 0.089062 0.000000
0.309375 0.089062 0.000000
0.337500 0.089062 0.000000
0.365625 0.089062 0.000000
0.393750 0.089062 0.000000
0.421875 0.089062 0.000000
0.450000 0.089062 0.000000
0.478125 0.089062 0.000000
0.506250 0.089062 0.000000
0.534375 0.089062 0.000000
0.562500 0.089062 0.000000
0.590625 0.089062 0.000000
0.618750 0.089062 0.000000
0.646875 0.089062 0.000000
0.675000 0.089062 0.000000
0.703125 0.089062 0.000000
0.731250 0.089062 0.000000
0.759375 0.089062 0.000000
0.787500 0.089062 0.000000
0.815625 0.089062 0.000000
0.843750 0.089062 0.000000
0.871875 0.089062 0.000000
0.900000 0.089062 0.000000
0.000000 0.118750 0.000000
0.028125 0.118750 0.000000
0.056250 0.118750 0.000000
0.084375 0.118750 0.000000
0.112500 0.118750 0.000000
0.140625 0.118750 0.000000
0.168750 0.118750 0.000000
0.196875 0.118750 0.000000
0.225000 0.118750 0.000000
0.253125 0.118750 0.000000
0.281250 0.118750 0.000000
0.309375 0.118750 0.000000
0.337500 0.118750 0.000000
0.365625 0.118750 0.000000
0.393750 0.118750 0.000000
0.421875 0.118750 0.000000
0.450000 0.118750 0.000000
0.478125 0.118750 0.000000
0.506250 0.118750 0.000000
0.534375 0.118750 0.000000
0.562500 0.118750 0.000000
0.590625 0.118750 0.000000
0.618750 0.118750 0.000000
0.646875 0.118750 0.000000
0.675000 0.118750 0.000000
0.703125 0.118750 0.000000
0.731250 0.118750 0.000000
0.759375 0.118750 0.000000
0.787500 0.118750 0.000000
0.815625 0.118750 0.000000
0.843750 0.118750 0.000000
0.871875 0.118750 0.000000
0.900000 0.118750 0.000000
0.000000 0.148438 0.000000
0.028125 0.148438 0.000000
0.056250 0.148438 0.000000
0.084375 0.148438 0.000000
0.112500 0.148438 0.000000
0.140625 0.148438 0.000000
0.168750 0.148438 0.000000
0.196875 0.148438 0.000000
0.225000 0.148438 0.000000
0.253125 0.148438 0.000000
0.281250 0.148438 0.000000
0.309375 0.148438 0.000000
0.337500 0.148438 0.000000
0.365625 0.148438 0.000000
0.393750 0.148438 0.000000
0.421875 0.148438 0.000000
0.450000 0.148438 0.000000
0.478125 0.148438 0.000000
0.506250 0.148438 0.000000
0.534375 0.148438 0.000000
0.562500 0.148438 0.000000
0.590625 0.148438 0.000000
0.618750 0.148438 0.000000
0.646875 0.148438 0.000000
0.675000 0.148438 0.000000
0.703125 0.148438 0.000000
0.731250 0.148438 0.000000
0.759375 0.148438 0.000000
0.787500 0.148438 0.000000
0.815625 0.148438 0.000000
0.843750 0.148438 0.000000
0.871875 0.148438 0.000000
0.900000 0.148438 0.000000
0.000000 0.178125 0.000000
0.028125 0.178125 0.000000
0.056250 0.178125 0.000000
0.084375 0.178125 0.000000
0.112500 0.178125 0.000000
0.140625 0.178125 0.000000
0.168750 0.178125 0.000000
0.196875 0.178125 0.000000
0.225000 0.178125 0.000000
0.253125 0.178125 0.000000
0.281250 0.178125 0.000000
0.309375 0.178125 0.000000
0.337500 0.178125 0.000000
0.365625 0.178125 0.000000
0.393750 0.178125 0.000000
0.421875 0.178125 0.000000
0.450000 0.178125 0.000000
0.478125 0.178125 0.000000
0.506250 0.178125 0.000000
0.534375 0.178125 0.000000
0.562500 0.178125 0.000000
0.590625 0.178125 0.000000
0.618750 0.178125 0.000000
0.646875 0.178125 0.000000
0.675000 0.178125 0.000000
0.703125 0.178125 0.000000
0.731250 0.178125 0.000000
0.759375 0.178125 0.000000
0.787500 0.178125 0.000000
0.815625 0.178125 0.000000
0.843750 0.178125 0.000000
0.871875 0.178125 0.000000
0.900000 0.178125 0.000000
0.000000 0.207813 0.000000
0.028125 0.207813 0.000000
0.056250 0.207813 0.000000
0.084375 0.207813 0.000000
0.112500 0.207813 0.000000
0.140625 0.207813 0.000000
0.168750 0.207813 0.000000
0.196875 0.207813 0.000000
0.225000 0.207813 0.000000
0.253125 0.207813 0.000000
0.281250 0.207813 0.000000
0.309375 0.207813 0.000000
0.337500 0.207813 0.000000
0.365625 0.207813 0.000000
0.393750 0.207813 0.000000
0.421875 0.207813 0.000000
0.450000 0.207813 0.000000
0.478125 0.207813 0.000000
0.506250 0.207813 0.000000
0.534375 0.207813 0.000000
0.562500 0.207813 0.000000
0.590625 0.207813 0.000000
0.618750 0.207813 0.000000
0.646875 0.207813 0.000000
0.675000 0.207813 0.000000
0.703125 0.207813 0.000000
0.731250 0.207813 0.000000
0.759375 0.207813 0.000000
0.787500 0.207813 0.000000
0.815625 0.207813 0.000000
0.843750 0.207813 0.000000
0.871875 0.207813 0.000000
0.900000 0.207813 0.000000
0.000000 0.237500 0.000000
0.028125 0.237500 0.000000
0.056250 0.237500 0.000000
0.084375 0.237500 0.000000
0.112500 0.237500 0.000000
0.140625 0.237500 0.000000
0.168750 0.237500 0.000000
0.196875 0.237500 0.000000
0.225000 0.237500 0.000000
0.253125 0.237500 0.000000
0.281250 0.237500 0.000000
0.309375 0.237500 0.000000
0.337500 0.237500 0.000000
0.365625 0.237500 0.000000
0.393750 0.237500 0.000000
0.421875 0.237500 0.000000
0.450000 0.237500 0.000000
0.478125 0.237500 0.000000
0.506250 0.237500 0.000000
0.534375 0.237500 0.000000
0.562500 0.237500 0.000000
0.590625 0.237500 0.000000
0.618750 0.237500 0.000000
0.646875 0.237500 0.000000
0.675000 0.237500 0.000000
0.703125 0.237500 0.000000
0.731250 0.237500 0.000000
0.759375 0.237500 0.000000
0.787500 0.237500 0.000000
0.815625 0.237500 0.000000
0.843750 0.237500 0.000000
0.871875 0.237500 0.000000
0.900000 0.237500 0.000000
0.000000 0.267188 0.000000
0.028125 0.267188 0.000000
0.056250 0.267188 0.000000
0.084375 0.267188 0.000000
0.112500 0.267188 0.000000
0.140625 0.267188 0.000000
0.168750 0.267188 0.000000
0.196875 0.267188 0.000000
0.225000 0.267188 0.000000
0.253125 0.267188 0.000000
0.281250 0.267188 0.000000
0.309375 0.267188 0.000000
0.337500 0.267188 0.000000
0.365625 0.267188 0.000000
0.393750 0.267188 0.000000
0.421875 0.267188 0.000000
0.450000 0.267188 0.000000
0.478125 0.267188 0.000000
0.506250 0.267188 0.000000
0.534375 0.267188 0.000000
0.562500 0.267188 0.000000
0.590625 0.267188 0.000000
0.618750 0.267188 0.000000
0.646875 0.267188 0.000000
0.675000 0.267188 0.000000
0.703125 0.267188 0.000000
0.731250 0.267188 0.000000
0.759375 0.267188 0.000000
0.787500 0.267188 0.000000
0.815625 0.267188 0.000000
0.843750 0.267188 0.000000
0.871875 0.267188 0.000000
0.900000 0.267188 0.000000
0.000000 0.296875 0.000000
0.028125 0.296875 0.000000
0.056250 0.296875 0.000000
0.084375 0.296875 0.000000
0.112500 0.296875 0.000000
0.140625 0.296875 0.000000
0.168750 0.296875 0.000000
0.196875 0.296875 0.000000
0.225000 0.296875 0.000000
0.253125 0.296875 0.000000
0.281250 0.296875 0.000000
0.309375 0.296875 0.000000
0.337500 0.296875 0.000000
0.365625 0.296875 0.000000
0.393750 0.296875 0.000000
0.421875 0.296875 0.000000
0.450000 0.296875 0.000000
0.478125 0.296875 0.000000
0.506250 0.296875 0.000000
0.534375 0.296875 0.000000
0.562500 0.296875 0.000000
0.590625 0.296875 0.000000
0.618750 0.296875 0.000000
0.646875 0.296875 0.000000
0.675000 0.296875 0.000000
0.703125 0.296875 0.000000
0.731250 0.296875 0.000000
0.759375 0.296875 0.000000
0.787500 0.296875 0.000000
0.815625 0.296875 0.000000
0.843750 0.296875 0.000000
0.871875 0.296875 0.000000
0.900000 0.296875 0.000000
0.000000 0.326562 0.000000
0.028125 0.326562 0.000000
0.056250 0.326562 0.000000
0.084375 0.326562 0.000000
0.112500 0.326562 0.000000
0.140625 0.326562 0.000000
0.168750 0.326562 0.000000
0.196875 0.326562 0.000000
0.225000 0.326562 0.000000
0.253125 0.326562 0.000000
0.281250 0.326562 0.000000
0.309375 0.326562 0.000000
0.337500 0.326562 0.000000
0.365625 0.326562 0.000000
0.393750 0.326562 0.000000
0.421875 0.326562 0.000000
0.450000 0.326562 0.000000
0.478125 0.326562 0.000000
0.506250 0.326562 0.000000
0.534375 0.326562 0.000000
0.562500 0.326562 0.000000
0.590625 0.326562 0.000000
0.618750 0.326562 0.000000
0.646875 0.326562 0.000000
0.675000 0.326562 0.000000
0.703125 0.326562 0.000000
0.731250 0.326562 0.000000
0.759375 0.326562 0.000000
0.787500 0.326562 0.000000
0.815625 0.326562 0.000000
0.843750 0.326562 0.000000
0.871875 0.326562 0.000000
0.900000 0.326562 0.000000
0.000000 0.356250 0.000000
0.028125 0.356250 0.000000
0.056250 0.356250 0.000000
0.084375 0.356250 0.000000
0.112500 0.356250 0.000000
0.140625 0.356250 0.000000
0.168750 0.356250 0.000000
0.196875 0.356250 0.000000
0.225000 0.356250 0.000000
0.253125 0.356250 0.000000
0.281250 0.356250 0.000000
0.309375 0.356250 0.000000
0.337500 0.356250 0.000000
0.365625 0.356250 0.000000
0.393750 0.356250 0.000000
0.421875 0.356250 0.000000
0.450000 0.356250 0.000000
0.478125 0.356250 0.000000
0.506250 0.356250 0.000000
0.534375 0.356250 0.000000
0.562500 0.356250 0.000000
0.590625 0.356250 0.000000
0.618750 0.356250 0.000000
0.646875 0.356250 0.000000
0.675000 0.356250 0.000000
0.703125 0.356250 0.000000
0.731250 0.356250 0.000000
0.759375 0.356250 0.000000
0.787500 0.356250 0.000000
0.815625 0.356250 0.000000
0.843750 0.356250 0.000000
0.871875 0.356250 0.000000
0.900000 0.356250 0.000000
0.000000 0.385937 0.000000
0.028125 0.385937 0.000000
0.056250 0.385937 0.000000
0.084375 0.385937 0.000000
0.112500 0.385937 0.000000
0.140625 0.385937 0.000000
0.168750 0.385937 0.000000
0.196875 0.385937 0.000000
0.225000 0.385937 0.000000
0.253125 0.385937 0.000000
0.281250 0.385937 0.000000
0.309375 0.385937 0.000000
0.337500 0.385937 0.000000
0.365625 0.385937 0.000000
0.393750 0.385937 0.000000
0.421875 0.385937 0.000000
0.450000 0.385937 0.000000
0.478125 0.385937 0.000000
0.506250 0.385937 0.000000
0.534375 0.385937 0.000000
0.562500 0.385937 0.000000
0.590625 0.385937 0.000000
0.618750 0.385937 0.000000
0.646875 0.385937 0.000000
0.675000 0.385937 0.000000
0.703125 0.385937 0.000000
0.731250 0.385937 0.000000
0.759375 0.385937 0.000000
0.787500 0.385937 0.000000
0.815625 0.385937 0.000000
0.843750 0.385937 0.000000
0.871875 0.385937 0.000000
0.900000 0.385937 0.000000
0.000000 0.415625 0.000000
0.028125 0.415625 0.000000
0.056250 0.415625 0.000000
0.084375 0.415625 0.000000
0.112500 0.415625 0.000000
0.140625 0.415625 0.000000
0.168750 0.415625 0.000000
0.196875 0.415625 0.000000
0.225000 0.415625 0.000000
0.253125 0.415625 0.000000
0.281250 0.415625 0.000000
0.309375 0.415625 0.000000
0.337500 0.415625 0.000000
0.365625 0.415625 0.000000
0.393750 0.415625 0.000000
0.421875 0.415625 0.000000
0.450000 0.415625 0.000000
0.478125 0.415625 0.000000
0.506250 0.415625 0.000000
0.534375 0.415625 0.000000
0.562500 0.415625 0.000000
0.590625 0.415625 0.000000
0.618750 0.415625 0.000000
0.646875 0.415625 0.000000
0.675000 0.415625 0.000000
0.703125 0.415625 0.000000
0.731250 0.415625 0.000000
0.759375 0.415625 0.000000
0.787500 0.415625 0.000000
0.815625 0.415625 0.000000
0.843750 0.415625 0.000000
0.871875 0.415625 0.000000
0.900000 0.415625 0.000000
0.000000 0.445312 0.000000
0.028125 0.445312 0.000000
0.056250 0.445312 0.000000
0.084375 0.445312 0.000000
0.112500 0.445312 0.000000
0.140625 0.445312 0.000000
0.168750 0.445312 0.000000
0.196875 0.445312 0.000000
0.225000 0.445312 0.000000
0.253125 0.445312 0.000000
0.281250 0.445312 0.000000
0.309375 0.445312 0.000000
0.337500 0.445312 0.000000
0.365625 0.445312 0.000000
0.393750 0.445312 0.000000
0.421875 0.445312 0.000000
0.450000 0.445312 0.000000
0.478125 0.445312 0.000000
0.506250 0.445312 0.000000
0.534375 0.445312 0.000000
0.562500 0.445312 0.000000
0.590625 0.445312 0.000000
0.618750 0.445312 0.000000
0.646875 0.445312 0.000000
0.675000 0.445312 0.000000
0.703125 0.445312 0.000000
0.731250 0.445312 0.000000
0.759375 0.445312 0.000000
0.787500 0.445312 0.000000
0.815625 0.445312 0.000000
0.843750 0.445312 0.000000
0.871875 0.445312 0.000000
0.900000 0.445312 0.000000
0.000000 0.475000 0.000000
0.028125 0.475000 0.000000
0.056250 0.475000 0.000000
0.084375 0.475000 0.000000
0.112500 0.475000 0.000000
0.140625 0.475000 0.000000
0.168750 0.475000 0.000000
0.196875 0.475000 0.000000
0.225000 0.475000 0.000000
0.253125 0.475000 0.000000
0.281250 0.475000 0.000000
0.309375 0.475000 0.000000
0.337500 0.475000 0.000000
0.365625 0.475000 0.000000
0.393750 0.475000 0.000000
0.421875 0.475000 0.000000
0.450000 0.475000 0.000000
0.478125 0.475000 0.000000
0.506250 0.475000 0.000000
0.534375 0.475000 0.000000
0.562500 0.475000 0.000000
0.590625 0.475000 0.000000
0.618750 0.475000 0.000000
0.646875 0.475000 0.000000
0.675000 0.475000 0.000000
0.703125 0.475000 0.000000
0.731250 0.475000 0.000000
0.759375 0.475000 0.000000
0.787500 0.475000 0.000000
0.815625 0.475000 0.000000
0.843750 0.475000 0.000000
0.871875 0.475000 0.000000
0.900000 0.475000 0.000000
0.000000 0.504687 0.000000
0.028125 0.504687 0.000000
0.056250 0.504687 0.000000
0.084375 0.504687 0.000000
0.112500 0.504687 0.000000
0.140625 0.504687 0.000000
0.168750 0.504687 0.000000
0.196875 0.504687 0.000000
0.225000 0.504687 0.000000
0.253125 0.504687 0.000000
0.281250 0.504687 0.000000
0.309375 0.504687 0.000000
0.337500 0.504687 0.000000
0.365625 0.504687 0.000000
0.393750 0.504687 0.000000
0.421875 0.504687 0.000000
0.450000 0.504687 0.000000
0.478125 0.504687 0.000000
0.506250 0.504687 0.000000
0.534375 0.504687 0.000000
0.562500 0.504687 0.000000
0.590625 0.504687 0.000000
0.618750 0.504687 0.000000
0.646875 0.504687 0.000000
0.675000 0.504687 0.000000
0.703125 0.504687 0.000000
0.731250 0.504687 0.000000
0.759375 0.504687 0.000000
0.787500 0.504687 0.000000
0.815625 0.504687 0.000000
0.843750 0.504687 0.000000
0.871875 0.504687 0.000000
0.900000 0.504687 0.000000
0.000000 0.534375 0.000000
0.028125 0.534375 0.000000
0.056250 0.534375 0.000000
0.084375 0.534375 0.000000
0.112500 0.534375 0.000000
0.140625 0.534375 0.000000
0.168750 0.534375 0.000000
0.196875 0.534375 0.000000
0.225000 0.534375 0.000000
0.253125 0.534375 0.000000
0.281250 0.534375 0.000000
0.309375 0.534375 0.000000
0.337500 0.534375 0.000000
0.365625 0.534375 0.000000
0.393750 0.534375 0.000000
0.421875 0.534375 0.000000
0.450000 0.534375 0.000000
0.478125 0.534375 0.000000
0.506250 0.534375 0.000000
0.534375 0.534375 0.000000
0.562500 0.534375 0.000000
0.590625 0.534375 0.000000
0.618750 0.534375 0.000000
0.646875 0.534375 0.000000
0.675000 0.534375 0.000000
0.703125 0.534375 0.000000
0.731250 0.534375 0.000000
0.759375 0.534375 0.000000
0.787500 0.534375 0.000000
0.815625 0.534375 0.000000
0.843750 0.534375 0.000000
0.871875 0.534375 0.000000
0.900000 0.534375 0.000000
0.000000 0.564062 0.000000
0.028125 0.564062 0.000000
0.056250 0.564062 0.000000
0.084375 0.564062 0.000000
0.112500 0.564062 0.000000
0.140625 0.564062 0.000000
0.168750 0.564062 0.000000
0.196875 0.564062 0.000000
0.225000 0.564062 0.000000
0.253125 0.564062 0.000000
0.281250 0.564062 0.000000
0.309375 0.564062 0.000000
0.337500 0.564062 0.000000
0.365625 0.564062 0.000000
0.393750 0.564062 0.000000
0.421875 0.564062 0.000000
0.450000 0.564062 0.000000
0.478125 0.564062 0.000000
0.506250 0.564062 0.000000
0.534375 0.564062 0.000000
0.562500 0.564062 0.000000
0.590625 0.564062 0.000000
0.618750 0.564062 0.000000
0.646875 0.564062 0.000000
0.675000 0.564062 0.000000
0.703125 0.564062 0.000000
0.731250 0.564062 0.000000
0.759375 0.564062 0.000000
0.787500 0.564062 0.000000
0.815625 0.564062 0.000000
0.843750 0.564062 0.000000
0.871875 0.564062 0.000000
0.900000 0.564062 0.000000
0.000000 0.593750 0.000000
0.028125 0.593750 0.000000
0.056250 0.593750 0.000000
0.084375 0.593750 0.000000
0.112500 0.593750 0.000000
0.140625 0.593750 0.000000
0.168750 0.593750 0.000000
0.196875 0.593750 0.000000
0.225000 0.593750 0.000000
0.253125 0.593750 0.000000
0.281250 0.593750 0.000000
0.309375 0.593750 0.000000
0.337500 0.593750 0.000000
0.365625 0.593750 0.000000
0.393750 0.593750 0.000000
0.421875 0.593750 0.000000
0.450000 0.593750 0.000000
0.478125 0.593750 0.000000
0.506250 0.593750 0.000000
0.534375 0.593750 0.000000
0.562500 0.593750 0.000000
0.590625 0.593750 0.000000
0.618750 0.593750 0.000000
0.646875 0.593750 0.000000
0.675000 0.593750 0.000000
0.703125 0.593750 0.000000
0.731250 0.593750 0.000000
0.759375 0.593750 0.000000
0.787500 0.593750 0.000000
0.815625 0.593750 0.000000
0.843750 0.593750 0.000000
0.871875 0.593750 0.000000
0.900000 0.593750 0.000000
0.000000 0.623437 0.000000
0.028125 0.623437 0.000000
0.056250 0.623437 0.000000
0.084375 0.623437 0.000000
0.112500 0.623437 0.000000
0.140625 0.623437 0.000000
0.168750 0.623437 0.000000
0.196875 0.623437 0.000000
0.225000 0.623437 0.000000
0.253125 0.623437 0.000000
0.281250 0.623437 0.000000
0.309375 0.623437 0.000000
0.337500 0.623437 0.000000
0.365625 0.623437 0.000000
0.393750 0.623437 0.000000
0.421875 0.623437 0.000000
0.450000 0.623437 0.000000
0.478125 0.623437 0.000000
0.506250 0.623437 0.000000
0.534375 0.623437 0.000000
0.562500 0.623437 0.000000
0.590625 0.623437 0.000000
0.618750 0.623437 0.000000
0.646875 0.623437 0.000000
0.675000 0.623437 0.000000
0.703125 0.623437 0.000000
0.731250 0.623437 0.000000
0.759375 0.623437 0.000000
0.787500 0.623437 0.000000
0.815625 0.623437 0.000000
0.843750 0.623437 0.000000
0.871875 0.623437 0.000000
0.900000 0.623437 0.000000
0.000000 0.653125 0.000000
0.028125 0.653125 0.000000
0.056250 0.653125 0.000000
0.084375 0.653125 0.000000
0.112500 0.653125 0.000000
0.140625 0.653125 0.000000
0.168750 0.653125 0.000000
0.196875 0.653125 0.000000
0.225000 0.653125 0.000000
0.253125 0.653125 0.000000
0.281250 0.653125 0.000000
0.309375 0.653125 0.000000
0.337500 0.653125 0.000000
0.365625 0.653125 0.000000
0.393750 0.653125 0.000000
0.421875 0.653125 0.000000
0.450000 0.653125 0.000000
0.478125 0.653125 0.000000
0.506250 0.653125 0.000000
0.534375 0.653125 0.000000
0.562500 0.653125 0.000000
0.590625 0.653125 0.000000
0.618750 0.653125 0.000000
0.646875 0.653125 0.000000
0.675000 0.653125 0.000000
0.703125 0.653125 0.000000
0.731250 0.653125 0.000000
0.759375 0.653125 0.000000
0.787500 0.653125 0.000000
0.815625 0.653125 0.000000
0.843750 0.653125 0.000000
0.871875 0.653125 0.000000
0.900000 0.653125 0.000000
0.000000 0.682813 0.000000
0.028125 0.682813 0.000000
0.056250 0.682813 0.000000
0.084375 0.682813 0.000000
0.112500 0.682813 0.000000
0.140625 0.682813 0.000000
0.168750 0.682813 0.000000
0.196875 0.682813 0.000000
0.225000 0.682813 0.000000
0.253125 0.682813 0.000000
0.281250 0.682813 0.000000
0.309375 0.682813 0.000000
0.337500 0.682813 0.000000
0.365625 0.682813 0.000000
0.393750 0.682813 0.000000
0.421875 0.682813 0.000000
0.450000 0.682813 0.000000
0.478125 0.682813 0.000000
0.506250 0.682813 0.000000
0.534375 0.682813 0.000000
0.562500 0.682813 0.000000
0.590625 0.682813 0.000000
0.618750 0.682813 0.000000
0.646875 0.682813 0.000000
0.675000 0.682813 0.000000
0.703125 0.682813 0.000000
0.731250 0.682813 0.000000
0.759375 0.682813 0.000000
0.787500 0.682813 0.000000
0.815625 0.682813 0.000000
0.843750 0.682813 0.000000
0.871875 0.682813 0.000000
0.900000 0.682813 0.000000
0.000000 0.712500 0.000000
0.028125 0.712500 0.000000
0.056250 0.712500 0.000000
0.084375 0.712500 0.000000
0.112500 0.712500 0.000000
0.140625 0.712500 0.000000
0.168750 0.712500 0.000000
0.196875 0.712500 0.000000
0.225000 0.712500 0.000000
0.253125 0.712500 0.000000
0.281250 0.712500 0.000000
0.309375 0.712500 0.000000
0.337500 0.712500 0.000000
0.365625 0.712500 0.000000
0.393750 0.712500 0.000000
0.421875 0.712500 0.000000
0.450000 0.712500 0.000000
0.478125 0.712500 0.000000
0.506250 0.712500 0.000000
0.534375 0.712500 0.000000
0.562500 0.712500 0.000000
0.590625 0.712500 0.000000
0.618750 0.712500 0.000000
0.646875 0.712500 0.000000
0.675000 0.712500 0.000000
0.703125 0.712500 0.000000
0.731250 0.712500 0.000000
0.759375 0.712500 0.000000
0.787500 0.712500 0.000000
0.815625 0.712500 0.000000
0.843750 0.712500 0.000000
0.871875 0.712500 0.000000
0.900000 0.712500 0.000000
0.000000 0.742188 0.000000
0.028125 0.742188 0.000000
0.056250 0.742188 0.000000
0.084375 0.742188 0.000000
0.112500 0.742188 0.000000
0.140625 0.742188 0.000000
0.168750 0.742188 0.000000
0.196875 0.742188 0.000000
0.225000 0.742188 0.000000
0.253125 0.742188 0.000000
0.281250 0.742188 0.000000
0.309375 0.742188 0.000000
0.337500 0.742188 0.000000
0.365625 0.742188 0.000000
0.393750 0.742188 0.000000
0.421875 0.742188 0.000000
0.450000 0.742188 0.000000
0.478125 0.742188 0.000000
0.506250 0.742188 0.000000
0.534375 0.742188 0.000000
0.562500 0.742188 0.000000
0.590625 0.742188 0.000000
0.618750 0.742188 0.000000
0.646875 0.742188 0.000000
0.675000 0.742188 0.000000
0.703125 0.742188 0.000000
0.731250 0.742188 0.000000
0.759375 0.742188 0.000000
0.787500 0.742188 0.000000
0.815625 0.742188 0.000000
0.843750 0.742188 0.000000
0.871875 0.742188 0.000000
0.900000 0.742188 0.000000
0.000000 0.771875 0.000000
0.028125 0.771875 0.000000
0.056250 0.771875 0.000000
0.084375 0.771875 0.000000
0.112500 0.771875 0.000000
0.140625 0.771875 0.000000
0.168750 0.771875 0.000000
0.196875 0.771875 0.000000
0.225000 0.771875 0.000000
0.253125 0.771875 0.000000
0.281250 0.771875 0.000000
0.309375 0.771875 0.000000
0.337500 0.771875 0.000000
0.365625 0.771875 0.000000
0.393750 0.771875 0.000000
0.421875 0.771875 0.000000
0.450000 0.771875 0.000000
0.478125 0.771875 0.000000
0.506250 0.771875 0.000000
0.534375 0.771875 0.000000
0.562500 0.771875 0.000000
0.590625 0.771875 0.000000
0.618750 0.771875 0.000000
0.646875 0.771875 0.000000
0.675000 0.771875 0.000000
0.703125 0.771875 0.000000
0.731250 0.771875 0.000000
0.759375 0.771875 0.000000
0.787500 0.771875 0.000000
