FilmCameraApp/FilmCameraApp/LUTs/JapanFilter.cube
TITLE "JapanFilter.cube"
LUT_3D_SIZE 33
0.050000 0.000000 0.000000
0.079687 0.000000 0.000000
0.109375 0.000000 0.000000
0.139062 0.000000 0.000000
0.168750 0.000000 0.000000
0.198437 0.000000 0.000000
0.228125 0.000000 0.000000
0.257812 0.000000 0.000000
0.287500 0.000000 0.000000
0.317188 0.000000 0.000000
0.346875 0.000000 0.000000
0.376563 0.000000 0.000000
0.406250 0.000000 0.000000
0.435937 0.000000 0.000000
0.465625 0.000000 0.000000
0.495313 0.000000 0.000000
0.525000 0.000000 0.000000
0.554688 0.000000 0.000000
0.584375 0.000000 0.000000
0.614062 0.000000 0.000000
0.643750 0.000000 0.000000
0.673437 0.000000 0.000000
0.703125 0.000000 0.000000
0.732813 0.000000 0.000000
0.762500 0.000000 0.000000
0.792188 0.000000 0.000000
0.821875 0.000000 0.000000
0.851562 0.000000 0.000000
0.881250 0.000000 0.000000
0.910937 0.000000 0.000000
0.940625 0.000000 0.000000
0.970312 0.000000 0.000000
1.000000 0.000000 0.000000
0.050000 0.031875 0.000000
0.079687 0.031875 0.000000
0.109375 0.031875 0.000000
0.139062 0.031875 0.000000
0.168750 0.031875 0.000000
0.198437 0.031875 0.000000
0.228125 0.031875 0.000000
0.257812 0.031875 0.000000
0.287500 0.031875 0.000000
0.317188 0.031875 0.000000
0.346875 0.031875 0.000000
0.376563 0.031875 0.000000
0.406250 0.031875 0.000000
0.435937 0.031875 0.000000
0.465625 0.031875 0.000000
0.495313 0.031875 0.000000
0.525000 0.031875 0.000000
0.554688 0.031875 0.000000
0.584375 0.031875 0.000000
0.614062 0.031875 0.000000
0.643750 0.031875 0.000000
0.673437 0.031875 0.000000
0.703125 0.031875 0.000000
0.732813 0.031875 0.000000
0.762500 0.031875 0.000000
0.792188 0.031875 0.000000
0.821875 0.031875 0.000000
0.851562 0.031875 0.000000
0.881250 0.031875 0.000000
0.910937 0.031875 0.000000
0.940625 0.031875 0.000000
0.970312 0.031875 0.000000
1.000000 0.031875 0.000000
0.050000 0.063750 0.000000
0.079687 0.063750 0.000000
0.109375 0.063750 0.000000
0.139062 0.063750 0.000000
0.168750 0.063750 0.000000
0.198437 0.063750 0.000000
0.228125 0.063750 0.000000
0.257812 0.063750 0.000000
0.287500 0.063750 0.000000
0.317188 0.063750 0.000000
0.346875 0.063750 0.000000
0.376563 0.063750 0.000000
0.406250 0.063750 0.000000
0.435937 0.063750 0.000000
0.465625 0.063750 0.000000
0.495313 0.063750 0.000000
0.525000 0.063750 0.000000
0.554688 0.063750 0.000000
0.584375 0.063750 0.000000
0.614062 0.063750 0.000000
0.643750 0.063750 0.000000
0.673437 0.063750 0.000000
0.703125 0.063750 0.000000
0.732813 0.063750 0.000000
0.762500 0.063750 0.000000
0.792188 0.063750 0.000000
0.821875 0.063750 0.000000
0.851562 0.063750 0.000000
0.881250 0.063750 0.000000
0.910937 0.063750 0.000000
0.940625 0.063750 0.000000
0.970312 0.063750 0.000000
1.000000 0.063750 0.000000
0.050000 0.095625 0.000000
0.079687 0.095625 0.000000
0.109375 0.095625 0.000000
0.139062 0.095625 0.000000
0.168750 0.095625 0.000000
0.198437 0.095625 0.000000
0.228125 0.095625 0.000000
0.257812 0.095625 0.000000
0.287500 0.095625 0.000000
0.317188 0.095625 0.000000
0.346875 0.095625 0.000000
0.376563 0.095625 0.000000
0.406250 0.095625 0.000000
0.435937 0.095625 0.000000
0.465625 0.095625 0.000000
0.495313 0.095625 0.000000
0.525000 0.095625 0.000000
0.554688 0.095625 0.000000
0.584375 0.095625 0.000000
0.614062 0.095625 0.000000
0.643750 0.095625 0.000000
0.673437 0.095625 0.000000
0.703125 0.095625 0.000000
0.732813 0.095625 0.000000
0.762500 0.095625 0.000000
0.792188 0.095625 0.000000
0.821875 0.095625 0.000000
0.851562 0.095625 0.000000
0.881250 0.095625 0.000000
0.910937 0.095625 0.000000
0.940625 0.095625 0.000000
0.970312 0.095625 0.000000
1.000000 0.095625 0.000000
0.050000 0.127500 0.000000
0.079687 0.127500 0.000000
0.109375 0.127500 0.000000
0.139062 0.127500 0.000000
0.168750 0.127500 0.000000
0.198437 0.127500 0.000000
0.228125 0.127500 0.000000
0.257812 0.127500 0.000000
0.287500 0.127500 0.000000
0.317188 0.127500 0.000000
0.346875 0.127500 0.000000
0.376563 0.127500 0.000000
0.406250 0.127500 0.000000
0.435937 0.127500 0.000000
0.465625 0.127500 0.000000
0.495313 0.127500 0.000000
0.525000 0.127500 0.000000
0.554688 0.127500 0.000000
0.584375 0.127500 0.000000
0.614062 0.127500 0.000000
0.643750 0.127500 0.000000
0.673437 0.127500 0.000000
0.703125 0.127500 0.000000
0.732813 0.127500 0.000000
0.762500 0.127500 0.000000
0.792188 0.127500 0.000000
0.821875 0.127500 0.000000
0.851562 0.127500 0.000000
0.881250 0.127500 0.000000
0.910937 0.127500 0.000000
0.940625 0.127500 0.000000
0.970312 0.127500 0.000000
1.000000 0.127500 0.000000
0.050000 0.159375 0.000000
0.079687 0.159375 0.000000
0.109375 0.159375 0.000000
0.139062 0.159375 0.000000
0.168750 0.159375 0.000000
0.198437 0.159375 0.000000
0.228125 0.159375 0.000000
0.257812 0.159375 0.000000
0.287500 0.159375 0.000000
0.317188 0.159375 0.000000
0.346875 0.159375 0.000000
0.376563 0.159375 0.000000
0.406250 0.159375 0.000000
0.435937 0.159375 0.000000
0.465625 0.159375 0.000000
0.495313 0.159375 0.000000
0.525000 0.159375 0.000000
0.554688 0.159375 0.000000
0.584375 0.159375 0.000000
0.614062 0.159375 0.000000
0.643750 0.159375 0.000000
0.673437 0.159375 0.000000
0.703125 0.159375 0.000000
0.732813 0.159375 0.000000
0.762500 0.159375 0.000000
0.792188 0.159375 0.000000
0.821875 0.159375 0.000000
0.851562 0.159375 0.000000
0.881250 0.159375 0.000000
0.910937 0.159375 0.000000
0.940625 0.159375 0.000000
0.970312 0.159375 0.000000
1.000000 0.159375 0.000000
0.050000 0.191250 0.000000
0.079687 0.191250 0.000000
0.109375 0.191250 0.000000
0.139062 0.191250 0.000000
0.168750 0.191250 0.000000
0.198437 0.191250 0.000000
0.228125 0.191250 0.000000
0.257812 0.191250 0.000000
0.287500 0.191250 0.000000
0.317188 0.191250 0.000000
0.346875 0.191250 0.000000
0.376563 0.191250 0.000000
0.406250 0.191250 0.000000
0.435937 0.191250 0.000000
0.465625 0.191250 0.000000
0.495313 0.191250 0.000000
0.525000 0.191250 0.000000
0.554688 0.191250 0.000000
0.584375 0.191250 0.000000
0.614062 0.191250 0.000000
0.643750 0.191250 0.000000
0.673437 0.191250 0.000000
0.703125 0.191250 0.000000
0.732813 0.191250 0.000000
0.762500 0.191250 0.000000
0.792188 0.191250 0.000000
0.821875 0.191250 0.000000
0.851562 0.191250 0.000000
0.881250 0.191250 0.000000
0.910937 0.191250 0.000000
0.940625 0.191250 0.000000
0.970312 0.191250 0.000000
1.000000 0.191250 0.000000
0.050000 0.223125 0.000000
0.079687 0.223125 0.000000
0.109375 0.223125 0.000000
0.139062 0.223125 0.000000
0.168750 0.223125 0.000000
0.198437 0.223125 0.000000
0.228125 0.223125 0.000000
0.257812 0.223125 0.000000
0.287500 0.223125 0.000000
0.317188 0.223125 0.000000
0.346875 0.223125 0.000000
0.376563 0.223125 0.000000
0.406250 0.223125 0.000000
0.435937 0.223125 0.000000
0.465625 0.223125 0.000000
0.495313 0.223125 0.000000
0.525000 0.223125 0.000000
0.554688 0.223125 0.000000
0.584375 0.223125 0.000000
0.614062 0.223125 0.000000
0.643750 0.223125 0.000000
0.673437 0.223125 0.000000
0.703125 0.223125 0.000000
0.732813 0.223125 0.000000
0.762500 0.223125 0.000000
0.792188 0.223125 0.000000
0.821875 0.223125 0.000000
0.851562 0.223125 0.000000
0.881250 0.223125 0.000000
0.910937 0.223125 0.000000
0.940625 0.223125 0.000000
0.970312 0.223125 0.000000
1.000000 0.223125 0.000000
0.050000 0.255000 0.000000
0.079687 0.255000 0.000000
0.109375 0.255000 0.000000
0.139062 0.255000 0.000000
0.168750 0.255000 0.000000
0.198437 0.255000 0.000000
0.228125 0.255000 0.000000
0.257812 0.255000 0.000000
0.287500 0.255000 0.000000
0.317188 0.255000 0.000000
0.346875 0.255000 0.000000
0.376563 0.255000 0.000000
0.406250 0.255000 0.000000
0.435937 0.255000 0.000000
0.465625 0.255000 0.000000
0.495313 0.255000 0.000000
0.525000 0.255000 0.000000
0.554688 0.255000 0.000000
0.584375 0.255000 0.000000
0.614062 0.255000 0.000000
0.643750 0.255000 0.000000
0.673437 0.255000 0.000000
0.703125 0.255000 0.000000
0.732813 0.255000 0.000000
0.762500 0.255000 0.000000
0.792188 0.255000 0.000000
0.821875 0.255000 0.000000
0.851562 0.255000 0.000000
0.881250 0.255000 0.000000
0.910937 0.255000 0.000000
0.940625 0.255000 0.000000
0.970312 0.255000 0.000000
1.000000 0.255000 0.000000
0.050000 0.286875 0.000000
0.079687 0.286875 0.000000
0.109375 0.286875 0.000000
0.139062 0.286875 0.000000
0.168750 0.286875 0.000000
0.198437 0.286875 0.000000
0.228125 0.286875 0.000000
0.257812 0.286875 0.000000
0.287500 0.286875 0.000000
0.317188 0.286875 0.000000
0.346875 0.286875 0.000000
0.376563 0.286875 0.000000
0.406250 0.286875 0.000000
0.435937 0.286875 0.000000
0.465625 0.286875 0.000000
0.495313 0.286875 0.000000
0.525000 0.286875 0.000000
0.554688 0.286875 0.000000
0.584375 0.286875 0.000000
0.614062 0.286875 0.000000
0.643750 0.286875 0.000000
0.673437 0.286875 0.000000
0.703125 0.286875 0.000000
0.732813 0.286875 0.000000
0.762500 0.286875 0.000000
0.792188 0.286875 0.000000
0.821875 0.286875 0.000000
0.851562 0.286875 0.000000
0.881250 0.286875 0.000000
0.910937 0.286875 0.000000
0.940625 0.286875 0.000000
0.970312 0.286875 0.000000
1.000000 0.286875 0.000000
0.050000 0.318750 0.000000
0.079687 0.318750 0.000000
0.109375 0.318750 0.000000
0.139062 0.318750 0.000000
0.168750 0.318750 0.000000
0.198437 0.318750 0.000000
0.228125 0.318750 0.000000
0.257812 0.318750 0.000000
0.287500 0.318750 0.000000
0.317188 0.318750 0.000000
0.346875 0.318750 0.000000
0.376563 0.318750 0.000000
0.406250 0.318750 0.000000
0.435937 0.318750 0.000000
0.465625 0.318750 0.000000
0.495313 0.318750 0.000000
0.525000 0.318750 0.000000
0.554688 0.318750 0.000000
0.584375 0.318750 0.000000
0.614062 0.318750 0.000000
0.643750 0.318750 0.000000
0.673437 0.318750 0.000000
0.703125 0.318750 0.000000
0.732813 0.318750 0.000000
0.762500 0.318750 0.000000
0.792188 0.318750 0.000000
0.821875 0.318750 0.000000
0.851562 0.318750 0.000000
0.881250 0.318750 0.000000
0.910937 0.318750 0.000000
0.940625 0.318750 0.000000
0.970312 0.318750 0.000000
1.000000 0.318750 0.000000
0.050000 0.350625 0.000000
0.079687 0.350625 0.000000
0.109375 0.350625 0.000000
0.139062 0.350625 0.000000
0.168750 0.350625 0.000000
0.198437 0.350625 0.000000
0.228125 0.350625 0.000000
0.257812 0.350625 0.000000
0.287500 0.350625 0.000000
0.317188 0.350625 0.000000
0.346875 0.350625 0.000000
0.376563 0.350625 0.000000
0.406250 0.350625 0.000000
0.435937 0.350625 0.000000
0.465625 0.350625 0.000000
0.495313 0.350625 0.000000
0.525000 0.350625 0.000000
0.554688 0.350625 0.000000
0.584375 0.350625 0.000000
0.614062 0.350625 0.000000
0.643750 0.350625 0.000000
0.673437 0.350625 0.000000
0.703125 0.350625 0.000000
0.732813 0.350625 0.000000
0.762500 0.350625 0.000000
0.792188 0.350625 0.000000
0.821875 0.350625 0.000000
0.851562 0.350625 0.000000
0.881250 0.350625 0.000000
0.910937 0.350625 0.000000
0.940625 0.350625 0.000000
0.970312 0.350625 0.000000
1.000000 0.350625 0.000000
0.050000 0.382500 0.000000
0.079687 0.382500 0.000000
0.109375 0.382500 0.000000
0.139062 0.382500 0.000000
0.168750 0.382500 0.000000
0.198437 0.382500 0.000000
0.228125 0.382500 0.000000
0.257812 0.382500 0.000000
0.287500 0.382500 0.000000
0.317188 0.382500 0.000000
0.346875 0.382500 0.000000
0.376563 0.382500 0.000000
0.406250 0.382500 0.000000
0.435937 0.382500 0.000000
0.465625 0.382500 0.000000
0.495313 0.382500 0.000000
0.525000 0.382500 0.000000
0.554688 0.382500 0.000000
0.584375 0.382500 0.000000
0.614062 0.382500 0.000000
0.643750 0.382500 0.000000
0.673437 0.382500 0.000000
0.703125 0.382500 0.000000
0.732813 0.382500 0.000000
0.762500 0.382500 0.000000
0.792188 0.382500 0.000000
0.821875 0.382500 0.000000
0.851562 0.382500 0.000000
0.881250 0.382500 0.000000
0.910937 0.382500 0.000000
0.940625 0.382500 0.000000
0.970312 0.382500 0.000000
1.000000 0.382500 0.000000
0.050000 0.414375 0.000000
0.079687 0.414375 0.000000
0.109375 0.414375 0.000000
0.139062 0.414375 0.000000
0.168750 0.414375 0.000000
0.198437 0.414375 0.000000
0.228125 0.414375 0.000000
0.257812 0.414375 0.000000
0.287500 0.414375 0.000000
0.317188 0.414375 0.000000
0.346875 0.414375 0.000000
0.376563 0.414375 0.000000
0.406250 0.414375 0.000000
0.435937 0.414375 0.000000
0.465625 0.414375 0.000000
0.495313 0.414375 0.000000
0.525000 0.414375 0.000000
0.554688 0.414375 0.000000
0.584375 0.414375 0.000000
0.614062 0.414375 0.000000
0.643750 0.414375 0.000000
0.673437 0.414375 0.000000
0.703125 0.414375 0.000000
0.732813 0.414375 0.000000
0.762500 0.414375 0.000000
0.792188 0.414375 0.000000
0.821875 0.414375 0.000000
0.851562 0.414375 0.000000
0.881250 0.414375 0.000000
0.910937 0.414375 0.000000
0.940625 0.414375 0.000000
0.970312 0.414375 0.000000
1.000000 0.414375 0.000000
0.050000 0.446250 0.000000
0.079687 0.446250 0.000000
0.109375 0.446250 0.000000
0.139062 0.446250 0.000000
0.168750 0.446250 0.000000
0.198437 0.446250 0.000000
0.228125 0.446250 0.000000
0.257812 0.446250 0.000000
0.287500 0.446250 0.000000
0.317188 0.446250 0.000000
0.346875 0.446250 0.000000
0.376563 0.446250 0.000000
0.406250 0.446250 0.000000
0.435937 0.446250 0.000000
0.465625 0.446250 0.000000
0.495313 0.446250 0.000000
0.525000 0.446250 0.000000
0.554688 0.446250 0.000000
0.584375 0.446250 0.000000
0.614062 0.446250 0.000000
0.643750 0.446250 0.000000
0.673437 0.446250 0.000000
0.703125 0.446250 0.000000
0.732813 0.446250 0.000000
0.762500 0.446250 0.000000
0.792188 0.446250 0.000000
0.821875 0.446250 0.000000
0.851562 0.446250 0.000000
0.881250 0.446250 0.000000
0.910937 0.446250 0.000000
0.940625 0.446250 0.000000
0.970312 0.446250 0.000000
1.000000 0.446250 0.000000
0.050000 0.478125 0.000000
0.079687 0.478125 0.000000
0.109375 0.478125 0.000000
0.139062 0.478125 0.000000
0.168750 0.478125 0.000000
0.198437 0.478125 0.000000
0.228125 0.478125 0.000000
0.257812 0.478125 0.000000
0.287500 0.478125 0.000000
0.317188 0.478125 0.000000
0.346875 0.478125 0.000000
0.376563 0.478125 0.000000
0.406250 0.478125 0.000000
0.435937 0.478125 0.000000
0.465625 0.478125 0.000000
0.495313 0.478125 0.000000
0.525000 0.478125 0.000000
0.554688 0.478125 0.000000
0.584375 0.478125 0.000000
0.614062 0.478125 0.000000
0.643750 0.478125 0.000000
0.673437 0.478125 0.000000
0.703125 0.478125 0.000000
0.732813 0.478125 0.000000
0.762500 0.478125 0.000000
0.792188 0.478125 0.000000
0.821875 0.478125 0.000000
0.851562 0.478125 0.000000
0.881250 0.478125 0.000000
0.910937 0.478125 0.000000
0.940625 0.478125 0.000000
0.970312 0.478125 0.000000
1.000000 0.478125 0.000000
0.050000 0.510000 0.000000
0.079687 0.510000 0.000000
0.109375 0.510000 0.000000
0.139062 0.510000 0.000000
0.168750 0.510000 0.000000
0.198437 0.510000 0.000000
0.228125 0.510000 0.000000
0.257812 0.510000 0.000000
0.287500 0.510000 0.000000
0.317188 0.510000 0.000000
0.346875 0.510000 0.000000
0.376563 0.510000 0.000000
0.406250 0.510000 0.000000
0.435937 0.510000 0.000000
0.465625 0.510000 0.000000
0.495313 0.510000 0.000000
0.525000 0.510000 0.000000
0.554688 0.510000 0.000000
0.584375 0.510000 0.000000
0.614062 0.510000 0.000000
0.643750 0.510000 0.000000
0.673437 0.510000 0.000000
0.703125 0.510000 0.000000
0.732813 0.510000 0.000000
0.762500 0.510000 0.000000
0.792188 0.510000 0.000000
0.821875 0.510000 0.000000
0.851562 0.510000 0.000000
0.881250 0.510000 0.000000
0.910937 0.510000 0.000000
0.940625 0.510000 0.000000
0.970312 0.510000 0.000000
1.000000 0.510000 0.000000
0.050000 0.541875 0.000000
0.079687 0.541875 0.000000
0.109375 0.541875 0.000000
0.139062 0.541875 0.000000
0.168750 0.541875 0.000000
0.198437 0.541875 0.000000
0.228125 0.541875 0.000000
0.257812 0.541875 0.000000
0.287500 0.541875 0.000000
0.317188 0.541875 0.000000
0.346875 0.541875 0.000000
0.376563 0.541875 0.000000
0.406250 0.541875 0.000000
0.435937 0.541875 0.000000
0.465625 0.541875 0.000000
0.495313 0.541875 0.000000
0.525000 0.541875 0.000000
0.554688 0.541875 0.000000
0.584375 0.541875 0.000000
0.614062 0.541875 0.000000
0.643750 0.541875 0.000000
0.673437 0.541875 0.000000
0.703125 0.541875 0.000000
0.732813 0.541875 0.000000
0.762500 0.541875 0.000000
0.792188 0.541875 0.000000
0.821875 0.541875 0.000000
0.851562 0.541875 0.000000
0.881250 0.541875 0.000000
0.910937 0.541875 0.000000
0.940625 0.541875 0.000000
0.970312 0.541875 0.000000
1.000000 0.541875 0.000000
0.050000 0.573750 0.000000
0.079687 0.573750 0.000000
0.109375 0.573750 0.000000
0.139062 0.573750 0.000000
0.168750 0.573750 0.000000
0.198437 0.573750 0.000000
0.228125 0.573750 0.000000
0.257812 0.573750 0.000000
0.287500 0.573750 0.000000
0.317188 0.573750 0.000000
0.346875 0.573750 0.000000
0.376563 0.573750 0.000000
0.406250 0.573750 0.000000
0.435937 0.573750 0.000000
0.465625 0.573750 0.000000
0.495313 0.573750 0.000000
0.525000 0.573750 0.000000
0.554688 0.573750 0.000000
0.584375 0.573750 0.000000
0.614062 0.573750 0.000000
0.643750 0.573750 0.000000
0.673437 0.573750 0.000000
0.703125 0.573750 0.000000
0.732813 0.573750 0.000000
0.762500 0.573750 0.000000
0.792188 0.573750 0.000000
0.821875 0.573750 0.000000
0.851562 0.573750 0.000000
0.881250 0.573750 0.000000
0.910937 0.573750 0.000000
0.940625 0.573750 0.000000
0.970312 0.573750 0.000000
1.000000 0.573750 0.000000
0.050000 0.605625 0.000000
0.079687 0.605625 0.000000
0.109375 0.605625 0.000000
0.139062 0.605625 0.000000
0.168750 0.605625 0.000000
0.198437 0.605625 0.000000
0.228125 0.605625 0.000000
0.257812 0.605625 0.000000
0.287500 0.605625 0.000000
0.317188 0.605625 0.000000
0.346875 0.605625 0.000000
0.376563 0.605625 0.000000
0.406250 0.605625 0.000000
0.435937 0.605625 0.000000
0.465625 0.605625 0.000000
0.495313 0.605625 0.000000
0.525000 0.605625 0.000000
0.554688 0.605625 0.000000
0.584375 0.605625 0.000000
0.614062 0.605625 0.000000
0.643750 0.605625 0.000000
0.673437 0.605625 0.000000
0.703125 0.605625 0.000000
0.732813 0.605625 0.000000
0.762500 0.605625 0.000000
0.792188 0.605625 0.000000
0.821875 0.605625 0.000000
0.851562 0.605625 0.000000
0.881250 0.605625 0.000000
0.910937 0.605625 0.000000
0.940625 0.605625 0.000000
0.970312 0.605625 0.000000
1.000000 0.605625 0.000000
0.050000 0.637500 0.000000
0.079687 0.637500 0.000000
0.109375 0.637500 0.000000
0.139062 0.637500 0.000000
0.168750 0.637500 0.000000
0.198437 0.637500 0.000000
0.228125 0.637500 0.000000
0.257812 0.637500 0.000000
0.287500 0.637500 0.000000
0.317188 0.637500 0.000000
0.346875 0.637500 0.000000
0.376563 0.637500 0.000000
0.406250 0.637500 0.000000
0.435937 0.637500 0.000000
0.465625 0.637500 0.000000
0.495313 0.637500 0.000000
0.525000 0.637500 0.000000
0.554688 0.637500 0.000000
0.584375 0.637500 0.000000
0.614062 0.637500 0.000000
0.643750 0.637500 0.000000
0.673437 0.637500 0.000000
0.703125 0.637500 0.000000
0.732813 0.637500 0.000000
0.762500 0.637500 0.000000
0.792188 0.637500 0.000000
0.821875 0.637500 0.000000
0.851562 0.637500 0.000000
0.881250 0.637500 0.000000
0.910937 0.637500 0.000000
0.940625 0.637500 0.000000
0.970312 0.637500 0.000000
1.000000 0.637500 0.000000
0.050000 0.669375 0.000000
0.079687 0.669375 0.000000
0.109375 0.669375 0.000000
0.139062 0.669375 0.000000
0.168750 0.669375 0.000000
0.198437 0.669375 0.000000
0.228125 0.669375 0.000000
0.257812 0.669375 0.000000
0.287500 0.669375 0.000000
0.317188 0.669375 0.000000
0.346875 0.669375 0.000000
0.376563 0.669375 0.000000
0.406250 0.669375 0.000000
0.435937 0.669375 0.000000
0.465625 0.669375 0.000000
0.495313 0.669375 0.000000
0.525000 0.669375 0.000000
0.554688 0.669375 0.000000
0.584375 0.669375 0.000000
0.614062 0.669375 0.000000
0.643750 0.669375 0.000000
0.673437 0.669375 0.000000
0.703125 0.669375 0.000000
0.732813 0.669375 0.000000
0.762500 0.669375 0.000000
0.792188 0.669375 0.000000
0.821875 0.669375 0.000000
0.851562 0.669375 0.000000
0.881250 0.669375 0.000000
0.910937 0.669375 0.000000
0.940625 0.669375 0.000000
0.970312 0.669375 0.000000
1.000000 0.669375 0.000000
0.050000 0.701250 0.000000
0.079687 0.701250 0.000000
0.109375 0.701250 0.000000
0.139062 0.701250 0.000000
0.168750 0.701250 0.000000
0.198437 0.701250 0.000000
0.228125 0.701250 0.000000
0.257812 0.701250 0.000000
0.287500 0.701250 0.000000
0.317188 0.701250 0.000000
0.346875 0.701250 0.000000
0.376563 0.701250 0.000000
0.406250 0.701250 0.000000
0.435937 0.701250 0.000000
0.465625 0.701250 0.000000
0.495313 0.701250 0.000000
0.525000 0.701250 0.000000
0.554688 0.701250 0.000000
0.584375 0.701250 0.000000
0.614062 0.701250 0.000000
0.643750 0.701250 0.000000
0.673437 0.701250 0.000000
0.703125 0.701250 0.000000
0.732813 0.701250 0.000000
0.762500 0.701250 0.000000
0.792188 0.701250 0.000000
0.821875 0.701250 0.000000
0.851562 0.701250 0.000000
0.881250 0.701250 0.000000
0.910937 0.701250 0.000000
0.940625 0.701250 0.000000
0.970312 0.701250 0.000000
1.000000 0.701250 0.000000
0.050000 0.733125 0.000000
0.079687 0.733125 0.000000
0.109375 0.733125 0.000000
0.139062 0.733125 0.000000
0.168750 0.733125 0.000000
0.198437 0.733125 0.000000
0.228125 0.733125 0.000000
0.257812 0.733125 0.000000
0.287500 0.733125 0.000000
0.317188 0.733125 0.000000
0.346875 0.733125 0.000000
0.376563 0.733125 0.000000
0.406250 0.733125 0.000000
0.435937 0.733125 0.000000
0.465625 0.733125 0.000000
0.495313 0.733125 0.000000
0.525000 0.733125 0.000000
0.554688 0.733125 0.000000
0.584375 0.733125 0.000000
0.614062 0.733125 0.000000
0.643750 0.733125 0.000000
0.673437 0.733125 0.000000
0.703125 0.733125 0.000000
0.732813 0.733125 0.000000
0.762500 0.733125 0.000000
0.792188 0.733125 0.000000
0.821875 0.733125 0.000000
0.851562 0.733125 0.000000
0.881250 0.733125 0.000000
0.910937 0.733125 0.000000
0.940625 0.733125 0.000000
0.970312 0.733125 0.000000
1.000000 0.733125 0.000000
0.050000 0.765000 0.000000
0.079687 0.765000 0.000000
0.109375 0.765000 0.000000
0.139062 0.765000 0.000000
0.168750 0.765000 0.000000
0.198437 0.765000 0.000000
0.228125 0.765000 0.000000
0.257812 0.765000 0.000000
0.287500 0.765000 0.000000
0.317188 0.765000 0.000000
0.346875 0.765000 0.000000
0.376563 0.765000 0.000000
0.406250 0.765000 0.000000
0.435937 0.765000 0.000000
0.465625 0.765000 0.000000
0.495313 0.765000 0.000000
0.525000 0.765000 0.000000
0.554688 0.765000 0.000000
0.584375 0.765000 0.000000
0.614062 0.765000 0.000000
0.643750 0.765000 0.000000
0.673437 0.765000 0.000000
0.703125 0.765000 0.000000
0.732813 0.765000 0.000000
0.762500 0.765000 0.000000
0.792188 0.765000 0.000000
0.821875 0.765000 0.000000
0.851562 0.765000 0.000000
0.881250 0.765000 0.000000
0.910937 0.765000 0.000000
0.940625 0.765000 0.000000
0.970312 0.765000 0.000000
1.000000 0.765000 0.000000
0.050000 0.796875 0.000000
0.079687 0.796875 0.000000
0.109375 0.796875 0.000000
0.139062 0.796875 0.000000
0.168750 0.796875 0.000000
0.198437 0.796875 0.000000
0.228125 0.796875 0.000000
0.257812 0.796875 0.000000
0.287500 0.796875 0.000000
0.317188 0.796875 0.000000
0.346875 0.796875 0.000000
0.376563 0.796875 0.000000
0.406250 0.796875 0.000000
0.435937 0.796875 0.000000
0.465625 0.796875 0.000000
0.495313 0.796875 0.000000
0.525000 0.796875 0.000000
0.554688 0.796875 0.000000
0.584375 0.796875 0.000000
0.614062 0.796875 0.000000
0.643750 0.796875 0.000000
0.673437 0.796875 0.000000
0.703125 0.796875 0.000000
0.732813 0.796875 0.000000
0.762500 0.796875 0.000000
0.792188 0.796875 0.000000
0.821875 0.796875 0.000000
0.851562 0.796875 0.000000
0.881250 0.796875 0.000000
0.910937 0.796875 0.000000
0.940625 0.796875 0.000000
0.970312 0.796875 0.000000
1.000000 0.796875 0.000000
0.050000 0.828750 0.000000
0.079687 0.828750 0.000000
0.109375 0.828750 0.000000
0.139062 0.828750 0.000000
0.168750 0.828750 0.000000
0.198437 0.828750 0.000000
0.228125 0.828750 0.000000
0.257812 0.828750 0.000000
0.287500 0.828750 0.000000
0.317188 0.828750 0.000000
0.346875 0.828750 0.000000
0.376563 0.828750 0.000000
0.406250 0.828750 0.000000
0.435937 0.828750 0.000000
0.465625 0.828750 0.000000
0.495313 0.828750 0.000000
0.525000 0.828750 0.000000
0.554688 0.828750 0.000000
0.584375 0.828750 0.000000
0.614062 0.828750 0.000000
0.643750 0.828750 0.000000
0.673437 0.828750 0.000000
0.703125 0.828750 0.000000
0.732813 0.828750 0.000000
0.762500 0.828750 0.000000
0.792188 0.828750 0.000000
0.821875 0.828750 0.000000
0.851562 0.828750 0.000000
0.881250 0.828750 0.000000
