FilmCameraApp/FilmCameraApp/LUTs/JapanFilter.cube
TITLE "JapanFilter.cube"
LUT_3D_SIZE 5
0.050000 0.000000 0.000000
0.287500 0.000000 0.000000
0.525000 0.000000 0.000000
0.762500 0.000000 0.000000
1.000000 0.000000 0.000000
0.050000 0.255000 0.000000
0.287500 0.255000 0.000000
0.525000 0.255000 0.000000
0.762500 0.255000 0.000000
1.000000 0.255000 0.000000
0.050000 0.510000 0.000000
0.287500 0.510000 0.000000
0.525000 0.510000 0.000000
0.762500 0.510000 0.000000
1.000000 0.510000 0.000000
0.050000 0.765000 0.000000
0.287500 0.765000 0.000000
0.525000 0.765000 0.000000
0.762500 0.765000 0.000000
1.000000 0.765000 0.000000
0.050000 1.020000 0.000000
0.287500 1.020000 0.000000
0.525000 1.020000 0.000000
0.762500 1.020000 0.000000
1.000000 1.020000 0.000000
0.050000 0.000000 0.262500
0.287500 0.000000 0.262500
0.525000 0.000000 0.262500
0.762500 0.000000 0.262500
1.000000 0.000000 0.262500
0.050000 0.255000 0.262500
0.287500 0.255000 0.262500
0.525000 0.255000 0.262500
0.762500 0.255000 0.262500
1.000000 0.255000 0.262500
0.050000 0.510000 0.262500
0.287500 0.510000 0.262500
0.525000 0.510000 0.262500
0.762500 0.510000 0.262500
1.000000 0.510000 0.262500
0.050000 0.765000 0.262500
0.287500 0.765000 0.262500
0.525000 0.765000 0.262500
0.762500 0.765000 0.262500
1.000000 0.765000 0.262500
0.050000 1.020000 0.262500
0.287500 1.020000 0.262500
0.525000 1.020000 0.262500
0.762500 1.020000 0.262500
1.000000 1.020000 0.262500
0.050000 0.000000 0.525000
0.287500 0.000000 0.525000
0.525000 0.000000 0.525000
0.762500 0.000000 0.525000
1.000000 0.000000 0.525000
0.050000 0.255000 0.525000
0.287500 0.255000 0.525000
0.525000 0.255000 0.525000
0.762500 0.255000 0.525000
1.000000 0.255000 0.525000
0.050000 0.510000 0.525000
0.287500 0.510000 0.525000
0.525000 0.510000 0.525000
0.762500 0.510000 0.525000
1.000000 0.510000 0.525000
0.050000 0.765000 0.525000
0.287500 0.765000 0.525000
0.525000 0.765000 0.525000
0.762500 0.765000 0.525000
1.000000 0.765000 0.525000
0.050000 1.020000 0.525000
0.287500 1.020000 0.525000
0.525000 1.020000 0.525000
0.762500 1.020000 0.525000
1.000000 1.020000 0.525000
0.050000 0.000000 0.787500
0.287500 0.000000 0.787500
0.525000 0.000000 0.787500
0.762500 0.000000 0.787500
1.000000 0.000000 0.787500
0.050000 0.255000 0.787500
0.287500 0.255000 0.787500
0.525000 0.255000 0.787500
0.762500 0.255000 0.787500
1.000000 0.255000 0.787500
0.050000 0.510000 0.787500
0.287500 0.510000 0.787500
0.525000 0.510000 0.787500
0.762500 0.510000 0.787500
1.000000 0.510000 0.787500
0.050000 0.765000 0.787500
0.287500 0.765000 0.787500
0.525000 0.765000 0.787500
0.762500 0.765000 0.787500
1.000000 0.765000 0.787500
0.050000 1.020000 0.787500
0.287500 1.020000 0.787500
0.525000 1.020000 0.787500
0.762500 1.020000 0.787500
1.000000 1.020000 0.787500
0.050000 0.000000 1.050000
0.287500 0.000000 1.050000
0.525000 0.000000 1.050000
0.762500 0.000000 1.050000
1.000000 0.000000 1.050000
0.050000 0.255000 1.050000
0.287500 0.255000 1.050000
0.525000 0.255000 1.050000
0.762500 0.255000 1.050000
1.000000 0.255000 1.050000
0.050000 0.510000 1.050000
0.287500 0.510000 1.050000
0.525000 0.510000 1.050000
0.762500 0.510000 1.050000
1.000000 0.510000 1.050000
0.050000 0.765000 1.050000
0.287500 0.765000 1.050000
0.525000 0.765000 1.050000
0.762500 0.765000 1.050000
1.000000 0.765000 1.050000
0.050000 1.020000 1.050000
0.287500 1.020000 1.050000
0.525000 1.020000 1.050000
0.762500 1.020000 1.050000
1.000000 1.020000 1.050000
