FilmCameraApp/FilmCameraApp/LUTs/JapanFilter.cube
TITLE "JapanFilter.cube"
LUT_3D_SIZE 9
0.050000 0.000000 0.000000
0.168750 0.000000 0.000000
0.287500 0.000000 0.000000
0.406250 0.000000 0.000000
0.525000 0.000000 0.000000
0.643750 0.000000 0.000000
0.762500 0.000000 0.000000
0.881250 0.000000 0.000000
1.000000 0.000000 0.000000
0.050000 0.127500 0.000000
0.168750 0.127500 0.000000
0.287500 0.127500 0.000000
0.406250 0.127500 0.000000
0.525000 0.127500 0.000000
0.643750 0.127500 0.000000
0.762500 0.127500 0.000000
0.881250 0.127500 0.000000
1.000000 0.127500 0.000000
0.050000 0.255000 0.000000
0.168750 0.255000 0.000000
0.287500 0.255000 0.000000
0.406250 0.255000 0.000000
0.525000 0.255000 0.000000
0.643750 0.255000 0.000000
0.762500 0.255000 0.000000
0.881250 0.255000 0.000000
1.000000 0.255000 0.000000
0.050000 0.382500 0.000000
0.168750 0.382500 0.000000
0.287500 0.382500 0.000000
0.406250 0.382500 0.000000
0.525000 0.382500 0.000000
0.643750 0.382500 0.000000
0.762500 0.382500 0.000000
0.881250 0.382500 0.000000
1.000000 0.382500 0.000000
0.050000 0.510000 0.000000
0.168750 0.510000 0.000000
0.287500 0.510000 0.000000
0.406250 0.510000 0.000000
0.525000 0.510000 0.000000
0.643750 0.510000 0.000000
0.762500 0.510000 0.000000
0.881250 0.510000 0.000000
1.000000 0.510000 0.000000
0.050000 0.637500 0.000000
0.168750 0.637500 0.000000
0.287500 0.637500 0.000000
0.406250 0.637500 0.000000
0.525000 0.637500 0.000000
0.643750 0.637500 0.000000
0.762500 0.637500 0.000000
0.881250 0.637500 0.000000
1.000000 0.637500 0.000000
0.050000 0.765000 0.000000
0.168750 0.765000 0.000000
0.287500 0.765000 0.000000
0.406250 0.765000 0.000000
0.525000 0.765000 0.000000
0.643750 0.765000 0.000000
0.762500 0.765000 0.000000
0.881250 0.765000 0.000000
1.000000 0.765000 0.000000
0.050000 0.892500 0.000000
0.168750 0.892500 0.000000
0.287500 0.892500 0.000000
0.406250 0.892500 0.000000
0.525000 0.892500 0.000000
0.643750 0.892500 0.000000
0.762500 0.892500 0.000000
0.881250 0.892500 0.000000
1.000000 0.892500 0.000000
0.050000 1.020000 0.000000
0.168750 1.020000 0.000000
0.287500 1.020000 0.000000
0.406250 1.020000 0.000000
0.525000 1.020000 0.000000
0.643750 1.020000 0.000000
0.762500 1.020000 0.000000
0.881250 1.020000 0.000000
1.000000 1.020000 0.000000
0.050000 0.000000 0.131250
0.168750 0.000000 0.131250
0.287500 0.000000 0.131250
0.406250 0.000000 0.131250
0.525000 0.000000 0.131250
0.643750 0.000000 0.131250
0.762500 0.000000 0.131250
0.881250 0.000000 0.131250
1.000000 0.000000 0.131250
0.050000 0.127500 0.131250
0.168750 0.127500 0.131250
0.287500 0.127500 0.131250
0.406250 0.127500 0.131250
0.525000 0.127500 0.131250
0.643750 0.127500 0.131250
0.762500 0.127500 0.131250
0.881250 0.127500 0.131250
1.000000 0.127500 0.131250
0.050000 0.255000 0.131250
0.168750 0.255000 0.131250
0.287500 0.255000 0.131250
0.406250 0.255000 0.131250
0.525000 0.255000 0.131250
0.643750 0.255000 0.131250
0.762500 0.255000 0.131250
0.881250 0.255000 0.131250
1.000000 0.255000 0.131250
0.050000 0.382500 0.131250
0.168750 0.382500 0.131250
0.287500 0.382500 0.131250
0.406250 0.382500 0.131250
0.525000 0.382500 0.131250
0.643750 0.382500 0.131250
0.762500 0.382500 0.131250
0.881250 0.382500 0.131250
1.000000 0.382500 0.131250
0.050000 0.510000 0.131250
0.168750 0.510000 0.131250
0.287500 0.510000 0.131250
0.406250 0.510000 0.131250
0.525000 0.510000 0.131250
0.643750 0.510000 0.131250
0.762500 0.510000 0.131250
0.881250 0.510000 0.131250
1.000000 0.510000 0.131250
0.050000 0.637500 0.131250
0.168750 0.637500 0.131250
0.287500 0.637500 0.131250
0.406250 0.637500 0.131250
0.525000 0.637500 0.131250
0.643750 0.637500 0.131250
0.762500 0.637500 0.131250
0.881250 0.637500 0.131250
1.000000 0.637500 0.131250
0.050000 0.765000 0.131250
0.168750 0.765000 0.131250
0.287500 0.765000 0.131250
0.406250 0.765000 0.131250
0.525000 0.765000 0.131250
0.643750 0.765000 0.131250
0.762500 0.765000 0.131250
0.881250 0.765000 0.131250
1.000000 0.765000 0.131250
0.050000 0.892500 0.131250
0.168750 0.892500 0.131250
0.287500 0.892500 0.131250
0.406250 0.892500 0.131250
0.525000 0.892500 0.131250
0.643750 0.892500 0.131250
0.762500 0.892500 0.131250
0.881250 0.892500 0.131250
1.000000 0.892500 0.131250
0.050000 1.020000 0.131250
0.168750 1.020000 0.131250
0.287500 1.020000 0.131250
0.406250 1.020000 0.131250
0.525000 1.020000 0.131250
0.643750 1.020000 0.131250
0.762500 1.020000 0.131250
0.881250 1.020000 0.131250
1.000000 1.020000 0.131250
0.050000 0.000000 0.262500
0.168750 0.000000 0.262500
0.287500 0.000000 0.262500
0.406250 0.000000 0.262500
0.525000 0.000000 0.262500
0.643750 0.000000 0.262500
0.762500 0.000000 0.262500
0.881250 0.000000 0.262500
1.000000 0.000000 0.262500
0.050000 0.127500 0.262500
0.168750 0.127500 0.262500
0.287500 0.127500 0.262500
0.406250 0.127500 0.262500
0.525000 0.127500 0.262500
0.643750 0.127500 0.262500
0.762500 0.127500 0.262500
0.881250 0.127500 0.262500
1.000000 0.127500 0.262500
0.050000 0.255000 0.262500
0.168750 0.255000 0.262500
0.287500 0.255000 0.262500
0.406250 0.255000 0.262500
0.525000 0.255000 0.262500
0.643750 0.255000 0.262500
0.762500 0.255000 0.262500
0.881250 0.255000 0.262500
1.000000 0.255000 0.262500
0.050000 0.382500 0.262500
0.168750 0.382500 0.262500
0.287500 0.382500 0.262500
0.406250 0.382500 0.262500
0.525000 0.382500 0.262500
0.643750 0.382500 0.262500
0.762500 0.382500 0.262500
0.881250 0.382500 0.262500
1.000000 0.382500 0.262500
0.050000 0.510000 0.262500
0.168750 0.510000 0.262500
0.287500 0.510000 0.262500
0.406250 0.510000 0.262500
0.525000 0.510000 0.262500
0.643750 0.510000 0.262500
0.762500 0.510000 0.262500
0.881250 0.510000 0.262500
1.000000 0.510000 0.262500
0.050000 0.637500 0.262500
0.168750 0.637500 0.262500
0.287500 0.637500 0.262500
0.406250 0.637500 0.262500
0.525000 0.637500 0.262500
0.643750 0.637500 0.262500
0.762500 0.637500 0.262500
0.881250 0.637500 0.262500
1.000000 0.637500 0.262500
0.050000 0.765000 0.262500
0.168750 0.765000 0.262500
0.287500 0.765000 0.262500
0.406250 0.765000 0.262500
0.525000 0.765000 0.262500
0.643750 0.765000 0.262500
0.762500 0.765000 0.262500
0.881250 0.765000 0.262500
1.000000 0.765000 0.262500
0.050000 0.892500 0.262500
0.168750 0.892500 0.262500
0.287500 0.892500 0.262500
0.406250 0.892500 0.262500
0.525000 0.892500 0.262500
0.643750 0.892500 0.262500
0.762500 0.892500 0.262500
0.881250 0.892500 0.262500
1.000000 0.892500 0.262500
0.050000 1.020000 0.262500
0.168750 1.020000 0.262500
0.287500 1.020000 0.262500
0.406250 1.020000 0.262500
0.525000 1.020000 0.262500
0.643750 1.020000 0.262500
0.762500 1.020000 0.262500
0.881250 1.020000 0.262500
1.000000 1.020000 0.262500
0.050000 0.000000 0.393750
0.168750 0.000000 0.393750
0.287500 0.000000 0.393750
0.406250 0.000000 0.393750
0.525000 0.000000 0.393750
0.643750 0.000000 0.393750
0.762500 0.000000 0.393750
0.881250 0.000000 0.393750
1.000000 0.000000 0.393750
0.050000 0.127500 0.393750
0.168750 0.127500 0.393750
0.287500 0.127500 0.393750
0.406250 0.127500 0.393750
0.525000 0.127500 0.393750
0.643750 0.127500 0.393750
0.762500 0.127500 0.393750
0.881250 0.127500 0.393750
1.000000 0.127500 0.393750
0.050000 0.255000 0.393750
0.168750 0.255000 0.393750
0.287500 0.255000 0.393750
0.406250 0.255000 0.393750
0.525000 0.255000 0.393750
0.643750 0.255000 0.393750
0.762500 0.255000 0.393750
0.881250 0.255000 0.393750
1.000000 0.255000 0.393750
0.050000 0.382500 0.393750
0.168750 0.382500 0.393750
0.287500 0.382500 0.393750
0.406250 0.382500 0.393750
0.525000 0.382500 0.393750
0.643750 0.382500 0.393750
0.762500 0.382500 0.393750
0.881250 0.382500 0.393750
1.000000 0.382500 0.393750
0.050000 0.510000 0.393750
0.168750 0.510000 0.393750
0.287500 0.510000 0.393750
0.406250 0.510000 0.393750
0.525000 0.510000 0.393750
0.643750 0.510000 0.393750
0.762500 0.510000 0.393750
0.881250 0.510000 0.393750
1.000000 0.510000 0.393750
0.050000 0.637500 0.393750
0.168750 0.637500 0.393750
0.287500 0.637500 0.393750
0.406250 0.637500 0.393750
0.525000 0.637500 0.393750
0.643750 0.637500 0.393750
0.762500 0.637500 0.393750
0.881250 0.637500 0.393750
1.000000 0.637500 0.393750
0.050000 0.765000 0.393750
0.168750 0.765000 0.393750
0.287500 0.765000 0.393750
0.406250 0.765000 0.393750
0.525000 0.765000 0.393750
0.643750 0.765000 0.393750
0.762500 0.765000 0.393750
0.881250 0.765000 0.393750
1.000000 0.765000 0.393750
0.050000 0.892500 0.393750
0.168750 0.892500 0.393750
0.287500 0.892500 0.393750
0.406250 0.892500 0.393750
0.525000 0.892500 0.393750
0.643750 0.892500 0.393750
0.762500 0.892500 0.393750
0.881250 0.892500 0.393750
1.000000 0.892500 0.393750
0.050000 1.020000 0.393750
0.168750 1.020000 0.393750
0.287500 1.020000 0.393750
0.406250 1.020000 0.393750
0.525000 1.020000 0.393750
0.643750 1.020000 0.393750
0.762500 1.020000 0.393750
0.881250 1.020000 0.393750
1.000000 1.020000 0.393750
0.050000 0.000000 0.525000
0.168750 0.000000 0.525000
0.287500 0.000000 0.525000
0.406250 0.000000 0.525000
0.525000 0.000000 0.525000
0.643750 0.000000 0.525000
0.762500 0.000000 0.525000
0.881250 0.000000 0.525000
1.000000 0.000000 0.525000
0.050000 0.127500 0.525000
0.168750 0.127500 0.525000
0.287500 0.127500 0.525000
0.406250 0.127500 0.525000
0.525000 0.127500 0.525000
0.643750 0.127500 0.525000
0.762500 0.127500 0.525000
0.881250 0.127500 0.525000
1.000000 0.127500 0.525000
0.050000 0.255000 0.525000
0.168750 0.255000 0.525000
0.287500 0.255000 0.525000
0.406250 0.255000 0.525000
0.525000 0.255000 0.525000
0.643750 0.255000 0.525000
0.762500 0.255000 0.525000
0.881250 0.255000 0.525000
1.000000 0.255000 0.525000
0.050000 0.382500 0.525000
0.168750 0.382500 0.525000
0.287500 0.382500 0.525000
0.406250 0.382500 0.525000
0.525000 0.382500 0.525000
0.643750 0.382500 0.525000
0.762500 0.382500 0.525000
0.881250 0.382500 0.525000
1.000000 0.382500 0.525000
0.050000 0.510000 0.525000
0.168750 0.510000 0.525000
0.287500 0.510000 0.525000
0.406250 0.510000 0.525000
0.525000 0.510000 0.525000
0.643750 0.510000 0.525000
0.762500 0.510000 0.525000
0.881250 0.510000 0.525000
1.000000 0.510000 0.525000
0.050000 0.637500 0.525000
0.168750 0.637500 0.525000
0.287500 0.637500 0.525000
0.406250 0.637500 0.525000
0.525000 0.637500 0.525000
0.643750 0.637500 0.525000
0.762500 0.637500 0.525000
0.881250 0.637500 0.525000
1.000000 0.637500 0.525000
0.050000 0.765000 0.525000
0.168750 0.765000 0.525000
0.287500 0.765000 0.525000
0.406250 0.765000 0.525000
0.525000 0.765000 0.525000
0.643750 0.765000 0.525000
0.762500 0.765000 0.525000
0.881250 0.765000 0.525000
1.000000 0.765000 0.525000
0.050000 0.892500 0.525000
0.168750 0.892500 0.525000
0.287500 0.892500 0.525000
0.406250 0.892500 0.525000
0.525000 0.892500 0.525000
0.643750 0.892500 0.525000
0.762500 0.892500 0.525000
0.881250 0.892500 0.525000
1.000000 0.892500 0.525000
0.050000 1.020000 0.525000
0.168750 1.020000 0.525000
0.287500 1.020000 0.525000
0.406250 1.020000 0.525000
0.525000 1.020000 0.525000
0.643750 1.020000 0.525000
0.762500 1.020000 0.525000
0.881250 1.020000 0.525000
1.000000 1.020000 0.525000
0.050000 0.000000 0.656250
0.168750 0.000000 0.656250
0.287500 0.000000 0.656250
0.406250 0.000000 0.656250
0.525000 0.000000 0.656250
0.643750 0.000000 0.656250
0.762500 0.000000 0.656250
0.881250 0.000000 0.656250
1.000000 0.000000 0.656250
0.050000 0.127500 0.656250
0.168750 0.127500 0.656250
0.287500 0.127500 0.656250
0.406250 0.127500 0.656250
0.525000 0.127500 0.656250
0.643750 0.127500 0.656250
0.762500 0.127500 0.656250
0.881250 0.127500 0.656250
1.000000 0.127500 0.656250
0.050000 0.255000 0.656250
0.168750 0.255000 0.656250
0.287500 0.255000 0.656250
0.406250 0.255000 0.656250
0.525000 0.255000 0.656250
0.643750 0.255000 0.656250
0.762500 0.255000 0.656250
0.881250 0.255000 0.656250
1.000000 0.255000 0.656250
0.050000 0.382500 0.656250
0.168750 0.382500 0.656250
0.287500 0.382500 0.656250
0.406250 0.382500 0.656250
0.525000 0.382500 0.656250
0.643750 0.382500 0.656250
0.762500 0.382500 0.656250
0.881250 0.382500 0.656250
1.000000 0.382500 0.656250
0.050000 0.510000 0.656250
0.168750 0.510000 0.656250
0.287500 0.510000 0.656250
0.406250 0.510000 0.656250
0.525000 0.510000 0.656250
0.643750 0.510000 0.656250
0.762500 0.510000 0.656250
0.881250 0.510000 0.656250
1.000000 0.510000 0.656250
0.050000 0.637500 0.656250
0.168750 0.637500 0.656250
0.287500 0.637500 0.656250
0.406250 0.637500 0.656250
0.525000 0.637500 0.656250
0.643750 0.637500 0.656250
0.762500 0.637500 0.656250
0.881250 0.637500 0.656250
1.000000 0.637500 0.656250
0.050000 0.765000 0.656250
0.168750 0.765000 0.656250
0.287500 0.765000 0.656250
0.406250 0.765000 0.656250
0.525000 0.765000 0.656250
0.643750 0.765000 0.656250
0.762500 0.765000 0.656250
0.881250 0.765000 0.656250
1.000000 0.765000 0.656250
0.050000 0.892500 0.656250
0.168750 0.892500 0.656250
0.287500 0.892500 0.656250
0.406250 0.892500 0.656250
0.525000 0.892500 0.656250
0.643750 0.892500 0.656250
0.762500 0.892500 0.656250
0.881250 0.892500 0.656250
1.000000 0.892500 0.656250
0.050000 1.020000 0.656250
0.168750 1.020000 0.656250
0.287500 1.020000 0.656250
0.406250 1.020000 0.656250
0.525000 1.020000 0.656250
0.643750 1.020000 0.656250
0.762500 1.020000 0.656250
0.881250 1.020000 0.656250
1.000000 1.020000 0.656250
0.050000 0.000000 0.787500
0.168750 0.000000 0.787500
0.287500 0.000000 0.787500
0.406250 0.000000 0.787500
0.525000 0.000000 0.787500
0.643750 0.000000 0.787500
0.762500 0.000000 0.787500
0.881250 0.000000 0.787500
1.000000 0.000000 0.787500
0.050000 0.127500 0.787500
0.168750 0.127500 0.787500
0.287500 0.127500 0.787500
0.406250 0.127500 0.787500
0.525000 0.127500 0.787500
0.643750 0.127500 0.787500
0.762500 0.127500 0.787500
0.881250 0.127500 0.787500
1.000000 0.127500 0.787500
0.050000 0.255000 0.787500
0.168750 0.255000 0.787500
0.287500 0.255000 0.787500
0.406250 0.255000 0.787500
0.525000 0.255000 0.787500
0.643750 0.255000 0.787500
0.762500 0.255000 0.787500
0.881250 0.255000 0.787500
1.000000 0.255000 0.787500
0.050000 0.382500 0.787500
0.168750 0.382500 0.787500
0.287500 0.382500 0.787500
0.406250 0.382500 0.787500
0.525000 0.382500 0.787500
0.643750 0.382500 0.787500
0.762500 0.382500 0.787500
0.881250 0.382500 0.787500
1.000000 0.382500 0.787500
0.050000 0.510000 0.787500
0.168750 0.510000 0.787500
0.287500 0.510000 0.787500
0.406250 0.510000 0.787500
0.525000 0.510000 0.787500
0.643750 0.510000 0.787500
0.762500 0.510000 0.787500
0.881250 0.510000 0.787500
1.000000 0.510000 0.787500
0.050000 0.637500 0.787500
0.168750 0.637500 0.787500
0.287500 0.637500 0.787500
0.406250 0.637500 0.787500
0.525000 0.637500 0.787500
0.643750 0.637500 0.787500
0.762500 0.637500 0.787500
0.881250 0.637500 0.787500
1.000000 0.637500 0.787500
0.050000 0.765000 0.787500
0.168750 0.765000 0.787500
0.287500 0.765000 0.787500
0.406250 0.765000 0.787500
0.525000 0.765000 0.787500
0.643750 0.765000 0.787500
0.762500 0.765000 0.787500
0.881250 0.765000 0.787500
1.000000 0.765000 0.787500
0.050000 0.892500 0.787500
0.168750 0.892500 0.787500
0.287500 0.892500 0.787500
0.406250 0.892500 0.787500
0.525000 0.892500 0.787500
0.643750 0.892500 0.787500
0.762500 0.892500 0.787500
0.881250 0.892500 0.787500
1.000000 0.892500 0.787500
0.050000 1.020000 0.787500
0.168750 1.020000 0.787500
0.287500 1.020000 0.787500
0.406250 1.020000 0.787500
0.525000 1.020000 0.787500
0.643750 1.020000 0.787500
0.762500 1.020000 0.787500
0.881250 1.020000 0.787500
1.000000 1.020000 0.787500
0.050000 0.000000 0.918750
0.168750 0.000000 0.918750
0.287500 0.000000 0.918750
0.406250 0.000000 0.918750
0.525000 0.000000 0.918750
0.643750 0.000000 0.918750
0.762500 0.000000 0.918750
0.881250 0.000000 0.918750
1.000000 0.000000 0.918750
0.050000 0.127500 0.918750
0.168750 0.127500 0.918750
0.287500 0.127500 0.918750
0.406250 0.127500 0.918750
0.525000 0.127500 0.918750
0.643750 0.127500 0.918750
0.762500 0.127500 0.918750
0.881250 0.127500 0.918750
1.000000 0.127500 0.918750
0.050000 0.255000 0.918750
0.168750 0.255000 0.918750
0.287500 0.255000 0.918750
0.406250 0.255000 0.918750
0.525000 0.255000 0.918750
0.643750 0.255000 0.918750
0.762500 0.255000 0.918750
0.881250 0.255000 0.918750
1.000000 0.255000 0.918750
0.050000 0.382500 0.918750
0.168750 0.382500 0.918750
0.287500 0.382500 0.918750
0.406250 0.382500 0.918750
0.525000 0.382500 0.918750
0.643750 0.382500 0.918750
0.762500 0.382500 0.918750
0.881250 0.382500 0.918750
1.000000 0.382500 0.918750
0.050000 0.510000 0.918750
0.168750 0.510000 0.918750
0.287500 0.510000 0.918750
0.406250 0.510000 0.918750
0.525000 0.510000 0.918750
0.643750 0.510000 0.918750
0.762500 0.510000 0.918750
0.881250 0.510000 0.918750
1.000000 0.510000 0.918750
0.050000 0.637500 0.918750
0.168750 0.637500 0.918750
0.287500 0.637500 0.918750
0.406250 0.637500 0.918750
0.525000 0.637500 0.918750
0.643750 0.637500 0.918750
0.762500 0.637500 0.918750
0.881250 0.637500 0.918750
1.000000 0.637500 0.918750
0.050000 0.765000 0.918750
0.168750 0.765000 0.918750
0.287500 0.765000 0.918750
0.406250 0.765000 0.918750
0.525000 0.765000 0.918750
0.643750 0.765000 0.918750
0.762500 0.765000 0.918750
0.881250 0.765000 0.918750
1.000000 0.765000 0.918750
0.050000 0.892500 0.918750
0.168750 0.892500 0.918750
0.287500 0.892500 0.918750
0.406250 0.892500 0.918750
0.525000 0.892500 0.918750
0.643750 0.892500 0.918750
0.762500 0.892500 0.918750
0.881250 0.892500 0.918750
1.000000 0.892500 0.918750
0.050000 1.020000 0.918750
0.168750 1.020000 0.918750
0.287500 1.020000 0.918750
0.406250 1.020000 0.918750
0.525000 1.020000 0.918750
0.643750 1.020000 0.918750
0.762500 1.020000 0.918750
0.881250 1.020000 0.918750
1.000000 1.020000 0.918750
0.050000 0.000000 1.050000
0.168750 0.000000 1.050000
0.287500 0.000000 1.050000
0.406250 0.000000 1.050000
0.525000 0.000000 1.050000
0.643750 0.000000 1.050000
0.762500 0.000000 1.050000
0.881250 0.000000 1.050000
1.000000 0.000000 1.050000
0.050000 0.127500 1.050000
0.168750 0.127500 1.050000
0.287500 0.127500 1.050000
0.406250 0.127500 1.050000
0.525000 0.127500 1.050000
0.643750 0.127500 1.050000
0.762500 0.127500 1.050000
0.881250 0.127500 1.050000
1.000000 0.127500 1.050000
0.050000 0.255000 1.050000
0.168750 0.255000 1.050000
0.287500 0.255000 1.050000
0.406250 0.255000 1.050000
0.525000 0.255000 1.050000
0.643750 0.255000 1.050000
0.762500 0.255000 1.050000
0.881250 0.255000 1.050000
1.000000 0.255000 1.050000
0.050000 0.382500 1.050000
0.168750 0.382500 1.050000
0.287500 0.382500 1.050000
0.406250 0.382500 1.050000
0.525000 0.382500 1.050000
0.643750 0.382500 1.050000
0.762500 0.382500 1.050000
0.881250 0.382500 1.050000
1.000000 0.382500 1.050000
0.050000 0.510000 1.050000
0.168750 0.510000 1.050000
0.287500 0.510000 1.050000
0.406250 0.510000 1.050000
0.525000 0.510000 1.050000
0.643750 0.510000 1.050000
0.762500 0.510000 1.050000
0.881250 0.510000 1.050000
1.000000 0.510000 1.050000
0.050000 0.637500 1.050000
0.168750 0.637500 1.050000
0.287500 0.637500 1.050000
0.406250 0.637500 1.050000
0.525000 0.637500 1.050000
0.643750 0.637500 1.050000
0.762500 0.637500 1.050000
0.881250 0.637500 1.050000
1.000000 0.637500 1.050000
0.050000 0.765000 1.050000
0.168750 0.765000 1.050000
0.287500 0.765000 1.050000
0.406250 0.765000 1.050000
0.525000 0.765000 1.050000
0.643750 0.765000 1.050000
0.762500 0.765000 1.050000
0.881250 0.765000 1.050000
1.000000 0.765000 1.050000
0.050000 0.892500 1.050000
0.168750 0.892500 1.050000
0.287500 0.892500 1.050000
0.406250 0.892500 1.050000
0.525000 0.892500 1.050000
0.643750 0.892500 1.050000
0.762500 0.892500 1.050000
0.881250 0.892500 1.050000
1.000000 0.892500 1.050000
0.050000 1.020000 1.050000
0.168750 1.020000 1.050000
0.287500 1.020000 1.050000
0.406250 1.020000 1.050000
0.525000 1.020000 1.050000
0.643750 1.020000 1.050000
0.762500 1.020000 1.050000
0.881250 1.020000 1.050000
1.000000 1.020000 1.050000
