FilmCameraApp/FilmCameraApp/LUTs/NetherlandsFilter.cube
TITLE "NetherlandsFilter.cube"
LUT_3D_SIZE 33
0.000000 0.000000 0.000000
0.034375 0.000000 0.000000
0.068750 0.000000 0.000000
0.103125 0.000000 0.000000
0.137500 0.000000 0.000000
0.171875 0.000000 0.000000
0.206250 0.000000 0.000000
0.240625 0.000000 0.000000
0.275000 0.000000 0.000000
0.309375 0.000000 0.000000
0.343750 0.000000 0.000000
0.378125 0.000000 0.000000
0.412500 0.000000 0.000000
0.446875 0.000000 0.000000
0.481250 0.000000 0.000000
0.515625 0.000000 0.000000
0.550000 0.000000 0.000000
0.584375 0.000000 0.000000
0.618750 0.000000 0.000000
0.653125 0.000000 0.000000
0.687500 0.000000 0.000000
0.721875 0.000000 0.000000
0.756250 0.000000 0.000000
0.790625 0.000000 0.000000
0.825000 0.000000 0.000000
0.859375 0.000000 0.000000
0.893750 0.000000 0.000000
0.928125 0.000000 0.000000
0.962500 0.000000 0.000000
0.996875 0.000000 0.000000
1.000000 0.000000 0.000000
1.000000 0.000000 0.000000
1.000000 0.000000 0.000000
0.000000 0.032812 0.000000
0.034375 0.032812 0.000000
0.068750 0.032812 0.000000
0.103125 0.032812 0.000000
0.137500 0.032812 0.000000
0.171875 0.032812 0.000000
0.206250 0.032812 0.000000
0.240625 0.032812 0.000000
0.275000 0.032812 0.000000
0.309375 0.032812 0.000000
0.343750 0.032812 0.000000
0.378125 0.032812 0.000000
0.412500 0.032812 0.000000
0.446875 0.032812 0.000000
0.481250 0.032812 0.000000
0.515625 0.032812 0.000000
0.550000 0.032812 0.000000
0.584375 0.032812 0.000000
0.618750 0.032812 0.000000
0.653125 0.032812 0.000000
0.687500 0.032812 0.000000
0.721875 0.032812 0.000000
0.756250 0.032812 0.000000
0.790625 0.032812 0.000000
0.825000 0.032812 0.000000
0.859375 0.032812 0.000000
0.893750 0.032812 0.000000
0.928125 0.032812 0.000000
0.962500 0.032812 0.000000
0.996875 0.032812 0.000000
1.000000 0.032812 0.000000
1.000000 0.032812 0.000000
1.000000 0.032812 0.000000
0.000000 0.065625 0.000000
0.034375 0.065625 0.000000
0.068750 0.065625 0.000000
0.103125 0.065625 0.000000
0.137500 0.065625 0.000000
0.171875 0.065625 0.000000
0.206250 0.065625 0.000000
0.240625 0.065625 0.000000
0.275000 0.065625 0.000000
0.309375 0.065625 0.000000
0.343750 0.065625 0.000000
0.378125 0.065625 0.000000
0.412500 0.065625 0.000000
0.446875 0.065625 0.000000
0.481250 0.065625 0.000000
0.515625 0.065625 0.000000
0.550000 0.065625 0.000000
0.584375 0.065625 0.000000
0.618750 0.065625 0.000000
0.653125 0.065625 0.000000
0.687500 0.065625 0.000000
0.721875 0.065625 0.000000
0.756250 0.065625 0.000000
0.790625 0.065625 0.000000
0.825000 0.065625 0.000000
0.859375 0.065625 0.000000
0.893750 0.065625 0.000000
0.928125 0.065625 0.000000
0.962500 0.065625 0.000000
0.996875 0.065625 0.000000
1.000000 0.065625 0.000000
1.000000 0.065625 0.000000
1.000000 0.065625 0.000000
0.000000 0.098437 0.000000
0.034375 0.098437 0.000000
0.068750 0.098437 0.000000
0.103125 0.098437 0.000000
0.137500 0.098437 0.000000
0.171875 0.098437 0.000000
0.206250 0.098437 0.000000
0.240625 0.098437 0.000000
0.275000 0.098437 0.000000
0.309375 0.098437 0.000000
0.343750 0.098437 0.000000
0.378125 0.098437 0.000000
0.412500 0.098437 0.000000
0.446875 0.098437 0.000000
0.481250 0.098437 0.000000
0.515625 0.098437 0.000000
0.550000 0.098437 0.000000
0.584375 0.098437 0.000000
0.618750 0.098437 0.000000
0.653125 0.098437 0.000000
0.687500 0.098437 0.000000
0.721875 0.098437 0.000000
0.756250 0.098437 0.000000
0.790625 0.098437 0.000000
0.825000 0.098437 0.000000
0.859375 0.098437 0.000000
0.893750 0.098437 0.000000
0.928125 0.098437 0.000000
0.962500 0.098437 0.000000
0.996875 0.098437 0.000000
1.000000 0.098437 0.000000
1.000000 0.098437 0.000000
1.000000 0.098437 0.000000
0.000000 0.131250 0.000000
0.034375 0.131250 0.000000
0.068750 0.131250 0.000000
0.103125 0.131250 0.000000
0.137500 0.131250 0.000000
0.171875 0.131250 0.000000
0.206250 0.131250 0.000000
0.240625 0.131250 0.000000
0.275000 0.131250 0.000000
0.309375 0.131250 0.000000
0.343750 0.131250 0.000000
0.378125 0.131250 0.000000
0.412500 0.131250 0.000000
0.446875 0.131250 0.000000
0.481250 0.131250 0.000000
0.515625 0.131250 0.000000
0.550000 0.131250 0.000000
0.584375 0.131250 0.000000
0.618750 0.131250 0.000000
0.653125 0.131250 0.000000
0.687500 0.131250 0.000000
0.721875 0.131250 0.000000
0.756250 0.131250 0.000000
0.790625 0.131250 0.000000
0.825000 0.131250 0.000000
0.859375 0.131250 0.000000
0.893750 0.131250 0.000000
0.928125 0.131250 0.000000
0.962500 0.131250 0.000000
0.996875 0.131250 0.000000
1.000000 0.131250 0.000000
1.000000 0.131250 0.000000
1.000000 0.131250 0.000000
0.000000 0.164062 0.000000
0.034375 0.164062 0.000000
0.068750 0.164062 0.000000
0.103125 0.164062 0.000000
0.137500 0.164062 0.000000
0.171875 0.164062 0.000000
0.206250 0.164062 0.000000
0.240625 0.164062 0.000000
0.275000 0.164062 0.000000
0.309375 0.164062 0.000000
0.343750 0.164062 0.000000
0.378125 0.164062 0.000000
0.412500 0.164062 0.000000
0.446875 0.164062 0.000000
0.481250 0.164062 0.000000
0.515625 0.164062 0.000000
0.550000 0.164062 0.000000
0.584375 0.164062 0.000000
0.618750 0.164062 0.000000
0.653125 0.164062 0.000000
0.687500 0.164062 0.000000
0.721875 0.164062 0.000000
0.756250 0.164062 0.000000
0.790625 0.164062 0.000000
0.825000 0.164062 0.000000
0.859375 0.164062 0.000000
0.893750 0.164062 0.000000
0.928125 0.164062 0.000000
0.962500 0.164062 0.000000
0.996875 0.164062 0.000000
1.000000 0.164062 0.000000
1.000000 0.164062 0.000000
1.000000 0.164062 0.000000
0.000000 0.196875 0.000000
0.034375 0.196875 0.000000
0.068750 0.196875 0.000000
0.103125 0.196875 0.000000
0.137500 0.196875 0.000000
0.171875 0.196875 0.000000
0.206250 0.196875 0.000000
0.240625 0.196875 0.000000
0.275000 0.196875 0.000000
0.309375 0.196875 0.000000
0.343750 0.196875 0.000000
0.378125 0.196875 0.000000
0.412500 0.196875 0.000000
0.446875 0.196875 0.000000
0.481250 0.196875 0.000000
0.515625 0.196875 0.000000
0.550000 0.196875 0.000000
0.584375 0.196875 0.000000
0.618750 0.196875 0.000000
0.653125 0.196875 0.000000
0.687500 0.196875 0.000000
0.721875 0.196875 0.000000
0.756250 0.196875 0.000000
0.790625 0.196875 0.000000
0.825000 0.196875 0.000000
0.859375 0.196875 0.000000
0.893750 0.196875 0.000000
0.928125 0.196875 0.000000
0.962500 0.196875 0.000000
0.996875 0.196875 0.000000
1.000000 0.196875 0.000000
1.000000 0.196875 0.000000
1.000000 0.196875 0.000000
0.000000 0.229687 0.000000
0.034375 0.229687 0.000000
0.068750 0.229687 0.000000
0.103125 0.229687 0.000000
0.137500 0.229687 0.000000
0.171875 0.229687 0.000000
0.206250 0.229687 0.000000
0.240625 0.229687 0.000000
0.275000 0.229687 0.000000
0.309375 0.229687 0.000000
0.343750 0.229687 0.000000
0.378125 0.229687 0.000000
0.412500 0.229687 0.000000
0.446875 0.229687 0.000000
0.481250 0.229687 0.000000
0.515625 0.229687 0.000000
0.550000 0.229687 0.000000
0.584375 0.229687 0.000000
0.618750 0.229687 0.000000
0.653125 0.229687 0.000000
0.687500 0.229687 0.000000
0.721875 0.229687 0.000000
0.756250 0.229687 0.000000
0.790625 0.229687 0.000000
0.825000 0.229687 0.000000
0.859375 0.229687 0.000000
0.893750 0.229687 0.000000
0.928125 0.229687 0.000000
0.962500 0.229687 0.000000
0.996875 0.229687 0.000000
1.000000 0.229687 0.000000
1.000000 0.229687 0.000000
1.000000 0.229687 0.000000
0.000000 0.262500 0.000000
0.034375 0.262500 0.000000
0.068750 0.262500 0.000000
0.103125 0.262500 0.000000
0.137500 0.262500 0.000000
0.171875 0.262500 0.000000
0.206250 0.262500 0.000000
0.240625 0.262500 0.000000
0.275000 0.262500 0.000000
0.309375 0.262500 0.000000
0.343750 0.262500 0.000000
0.378125 0.262500 0.000000
0.412500 0.262500 0.000000
0.446875 0.262500 0.000000
0.481250 0.262500 0.000000
0.515625 0.262500 0.000000
0.550000 0.262500 0.000000
0.584375 0.262500 0.000000
0.618750 0.262500 0.000000
0.653125 0.262500 0.000000
0.687500 0.262500 0.000000
0.721875 0.262500 0.000000
0.756250 0.262500 0.000000
0.790625 0.262500 0.000000
0.825000 0.262500 0.000000
0.859375 0.262500 0.000000
0.893750 0.262500 0.000000
0.928125 0.262500 0.000000
0.962500 0.262500 0.000000
0.996875 0.262500 0.000000
1.000000 0.262500 0.000000
1.000000 0.262500 0.000000
1.000000 0.262500 0.000000
0.000000 0.295312 0.000000
0.034375 0.295312 0.000000
0.068750 0.295312 0.000000
0.103125 0.295312 0.000000
0.137500 0.295312 0.000000
0.171875 0.295312 0.000000
0.206250 0.295312 0.000000
0.240625 0.295312 0.000000
0.275000 0.295312 0.000000
0.309375 0.295312 0.000000
0.343750 0.295312 0.000000
0.378125 0.295312 0.000000
0.412500 0.295312 0.000000
0.446875 0.295312 0.000000
0.481250 0.295312 0.000000
0.515625 0.295312 0.000000
0.550000 0.295312 0.000000
0.584375 0.295312 0.000000
0.618750 0.295312 0.000000
0.653125 0.295312 0.000000
0.687500 0.295312 0.000000
0.721875 0.295312 0.000000
0.756250 0.295312 0.000000
0.790625 0.295312 0.000000
0.825000 0.295312 0.000000
0.859375 0.295312 0.000000
0.893750 0.295312 0.000000
0.928125 0.295312 0.000000
0.962500 0.295312 0.000000
0.996875 0.295312 0.000000
1.000000 0.295312 0.000000
1.000000 0.295312 0.000000
1.000000 0.295312 0.000000
0.000000 0.328125 0.000000
0.034375 0.328125 0.000000
0.068750 0.328125 0.000000
0.103125 0.328125 0.000000
0.137500 0.328125 0.000000
0.171875 0.328125 0.000000
0.206250 0.328125 0.000000
0.240625 0.328125 0.000000
0.275000 0.328125 0.000000
0.309375 0.328125 0.000000
0.343750 0.328125 0.000000
0.378125 0.328125 0.000000
0.412500 0.328125 0.000000
0.446875 0.328125 0.000000
0.481250 0.328125 0.000000
0.515625 0.328125 0.000000
0.550000 0.328125 0.000000
0.584375 0.328125 0.000000
0.618750 0.328125 0.000000
0.653125 0.328125 0.000000
0.687500 0.328125 0.000000
0.721875 0.328125 0.000000
0.756250 0.328125 0.000000
0.790625 0.328125 0.000000
0.825000 0.328125 0.000000
0.859375 0.328125 0.000000
0.893750 0.328125 0.000000
0.928125 0.328125 0.000000
0.962500 0.328125 0.000000
0.996875 0.328125 0.000000
1.000000 0.328125 0.000000
1.000000 0.328125 0.000000
1.000000 0.328125 0.000000
0.000000 0.360937 0.000000
0.034375 0.360937 0.000000
0.068750 0.360937 0.000000
0.103125 0.360937 0.000000
0.137500 0.360937 0.000000
0.171875 0.360937 0.000000
0.206250 0.360937 0.000000
0.240625 0.360937 0.000000
0.275000 0.360937 0.000000
0.309375 0.360937 0.000000
0.343750 0.360937 0.000000
0.378125 0.360937 0.000000
0.412500 0.360937 0.000000
0.446875 0.360937 0.000000
0.481250 0.360937 0.000000
0.515625 0.360937 0.000000
0.550000 0.360937 0.000000
0.584375 0.360937 0.000000
0.618750 0.360937 0.000000
0.653125 0.360937 0.000000
0.687500 0.360937 0.000000
0.721875 0.360937 0.000000
0.756250 0.360937 0.000000
0.790625 0.360937 0.000000
0.825000 0.360937 0.000000
0.859375 0.360937 0.000000
0.893750 0.360937 0.000000
0.928125 0.360937 0.000000
0.962500 0.360937 0.000000
0.996875 0.360937 0.000000
1.000000 0.360937 0.000000
1.000000 0.360937 0.000000
1.000000 0.360937 0.000000
0.000000 0.393750 0.000000
0.034375 0.393750 0.000000
0.068750 0.393750 0.000000
0.103125 0.393750 0.000000
0.137500 0.393750 0.000000
0.171875 0.393750 0.000000
0.206250 0.393750 0.000000
0.240625 0.393750 0.000000
0.275000 0.393750 0.000000
0.309375 0.393750 0.000000
0.343750 0.393750 0.000000
0.378125 0.393750 0.000000
0.412500 0.393750 0.000000
0.446875 0.393750 0.000000
0.481250 0.393750 0.000000
0.515625 0.393750 0.000000
0.550000 0.393750 0.000000
0.584375 0.393750 0.000000
0.618750 0.393750 0.000000
0.653125 0.393750 0.000000
0.687500 0.393750 0.000000
0.721875 0.393750 0.000000
0.756250 0.393750 0.000000
0.790625 0.393750 0.000000
0.825000 0.393750 0.000000
0.859375 0.393750 0.000000
0.893750 0.393750 0.000000
0.928125 0.393750 0.000000
0.962500 0.393750 0.000000
0.996875 0.393750 0.000000
1.000000 0.393750 0.000000
1.000000 0.393750 0.000000
1.000000 0.393750 0.000000
0.000000 0.426562 0.000000
0.034375 0.426562 0.000000
0.068750 0.426562 0.000000
0.103125 0.426562 0.000000
0.137500 0.426562 0.000000
0.171875 0.426562 0.000000
0.206250 0.426562 0.000000
0.240625 0.426562 0.000000
0.275000 0.426562 0.000000
0.309375 0.426562 0.000000
0.343750 0.426562 0.000000
0.378125 0.426562 0.000000
0.412500 0.426562 0.000000
0.446875 0.426562 0.000000
0.481250 0.426562 0.000000
0.515625 0.426562 0.000000
0.550000 0.426562 0.000000
0.584375 0.426562 0.000000
0.618750 0.426562 0.000000
0.653125 0.426562 0.000000
0.687500 0.426562 0.000000
0.721875 0.426562 0.000000
0.756250 0.426562 0.000000
0.790625 0.426562 0.000000
0.825000 0.426562 0.000000
0.859375 0.426562 0.000000
0.893750 0.426562 0.000000
0.928125 0.426562 0.000000
0.962500 0.426562 0.000000
0.996875 0.426562 0.000000
1.000000 0.426562 0.000000
1.000000 0.426562 0.000000
1.000000 0.426562 0.000000
0.000000 0.459375 0.000000
0.034375 0.459375 0.000000
0.068750 0.459375 0.000000
0.103125 0.459375 0.000000
0.137500 0.459375 0.000000
0.171875 0.459375 0.000000
0.206250 0.459375 0.000000
0.240625 0.459375 0.000000
0.275000 0.459375 0.000000
0.309375 0.459375 0.000000
0.343750 0.459375 0.000000
0.378125 0.459375 0.000000
0.412500 0.459375 0.000000
0.446875 0.459375 0.000000
0.481250 0.459375 0.000000
0.515625 0.459375 0.000000
0.550000 0.459375 0.000000
0.584375 0.459375 0.000000
0.618750 0.459375 0.000000
0.653125 0.459375 0.000000
0.687500 0.459375 0.000000
0.721875 0.459375 0.000000
0.756250 0.459375 0.000000
0.790625 0.459375 0.000000
0.825000 0.459375 0.000000
0.859375 0.459375 0.000000
0.893750 0.459375 0.000000
0.928125 0.459375 0.000000
0.962500 0.459375 0.000000
0.996875 0.459375 0.000000
1.000000 0.459375 0.000000
1.000000 0.459375 0.000000
1.000000 0.459375 0.000000
0.000000 0.492187 0.000000
0.034375 0.492187 0.000000
0.068750 0.492187 0.000000
0.103125 0.492187 0.000000
0.137500 0.492187 0.000000
0.171875 0.492187 0.000000
0.206250 0.492187 0.000000
0.240625 0.492187 0.000000
0.275000 0.492187 0.000000
0.309375 0.492187 0.000000
0.343750 0.492187 0.000000
0.378125 0.492187 0.000000
0.412500 0.492187 0.000000
0.446875 0.492187 0.000000
0.481250 0.492187 0.000000
0.515625 0.492187 0.000000
0.550000 0.492187 0.000000
0.584375 0.492187 0.000000
0.618750 0.492187 0.000000
0.653125 0.492187 0.000000
0.687500 0.492187 0.000000
0.721875 0.492187 0.000000
0.756250 0.492187 0.000000
0.790625 0.492187 0.000000
0.825000 0.492187 0.000000
0.859375 0.492187 0.000000
0.893750 0.492187 0.000000
0.928125 0.492187 0.000000
0.962500 0.492187 0.000000
0.996875 0.492187 0.000000
1.000000 0.492187 0.000000
1.000000 0.492187 0.000000
1.000000 0.492187 0.000000
0.000000 0.525000 0.000000
0.034375 0.525000 0.000000
0.068750 0.525000 0.000000
0.103125 0.525000 0.000000
0.137500 0.525000 0.000000
0.171875 0.525000 0.000000
0.206250 0.525000 0.000000
0.240625 0.525000 0.000000
0.275000 0.525000 0.000000
0.309375 0.525000 0.000000
0.343750 0.525000 0.000000
0.378125 0.525000 0.000000
0.412500 0.525000 0.000000
0.446875 0.525000 0.000000
0.481250 0.525000 0.000000
0.515625 0.525000 0.000000
0.550000 0.525000 0.000000
0.584375 0.525000 0.000000
0.618750 0.525000 0.000000
0.653125 0.525000 0.000000
0.687500 0.525000 0.000000
0.721875 0.525000 0.000000
0.756250 0.525000 0.000000
0.790625 0.525000 0.000000
0.825000 0.525000 0.000000
0.859375 0.525000 0.000000
0.893750 0.525000 0.000000
0.928125 0.525000 0.000000
0.962500 0.525000 0.000000
0.996875 0.525000 0.000000
1.000000 0.525000 0.000000
1.000000 0.525000 0.000000
1.000000 0.525000 0.000000
0.000000 0.557812 0.000000
0.034375 0.557812 0.000000
0.068750 0.557812 0.000000
0.103125 0.557812 0.000000
0.137500 0.557812 0.000000
0.171875 0.557812 0.000000
0.206250 0.557812 0.000000
0.240625 0.557812 0.000000
0.275000 0.557812 0.000000
0.309375 0.557812 0.000000
0.343750 0.557812 0.000000
0.378125 0.557812 0.000000
0.412500 0.557812 0.000000
0.446875 0.557812 0.000000
0.481250 0.557812 0.000000
0.515625 0.557812 0.000000
0.550000 0.557812 0.000000
0.584375 0.557812 0.000000
0.618750 0.557812 0.000000
0.653125 0.557812 0.000000
0.687500 0.557812 0.000000
0.721875 0.557812 0.000000
0.756250 0.557812 0.000000
0.790625 0.557812 0.000000
0.825000 0.557812 0.000000
0.859375 0.557812 0.000000
0.893750 0.557812 0.000000
0.928125 0.557812 0.000000
0.962500 0.557812 0.000000
0.996875 0.557812 0.000000
1.000000 0.557812 0.000000
1.000000 0.557812 0.000000
1.000000 0.557812 0.000000
0.000000 0.590625 0.000000
0.034375 0.590625 0.000000
0.068750 0.590625 0.000000
0.103125 0.590625 0.000000
0.137500 0.590625 0.000000
0.171875 0.590625 0.000000
0.206250 0.590625 0.000000
0.240625 0.590625 0.000000
0.275000 0.590625 0.000000
0.309375 0.590625 0.000000
0.343750 0.590625 0.000000
0.378125 0.590625 0.000000
0.412500 0.590625 0.000000
0.446875 0.590625 0.000000
0.481250 0.590625 0.000000
0.515625 0.590625 0.000000
0.550000 0.590625 0.000000
0.584375 0.590625 0.000000
0.618750 0.590625 0.000000
0.653125 0.590625 0.000000
0.687500 0.590625 0.000000
0.721875 0.590625 0.000000
0.756250 0.590625 0.000000
0.790625 0.590625 0.000000
0.825000 0.590625 0.000000
0.859375 0.590625 0.000000
0.893750 0.590625 0.000000
0.928125 0.590625 0.000000
0.962500 0.590625 0.000000
0.996875 0.590625 0.000000
1.000000 0.590625 0.000000
1.000000 0.590625 0.000000
1.000000 0.590625 0.000000
0.000000 0.623437 0.000000
0.034375 0.623437 0.000000
0.068750 0.623437 0.000000
0.103125 0.623437 0.000000
0.137500 0.623437 0.000000
0.171875 0.623437 0.000000
0.206250 0.623437 0.000000
0.240625 0.623437 0.000000
0.275000 0.623437 0.000000
0.309375 0.623437 0.000000
0.343750 0.623437 0.000000
0.378125 0.623437 0.000000
0.412500 0.623437 0.000000
0.446875 0.623437 0.000000
0.481250 0.623437 0.000000
0.515625 0.623437 0.000000
0.550000 0.623437 0.000000
0.584375 0.623437 0.000000
0.618750 0.623437 0.000000
0.653125 0.623437 0.000000
0.687500 0.623437 0.000000
0.721875 0.623437 0.000000
0.756250 0.623437 0.000000
0.790625 0.623437 0.000000
0.825000 0.623437 0.000000
0.859375 0.623437 0.000000
0.893750 0.623437 0.000000
0.928125 0.623437 0.000000
0.962500 0.623437 0.000000
0.996875 0.623437 0.000000
1.000000 0.623437 0.000000
1.000000 0.623437 0.000000
1.000000 0.623437 0.000000
0.000000 0.656250 0.000000
0.034375 0.656250 0.000000
0.068750 0.656250 0.000000
0.103125 0.656250 0.000000
0.137500 0.656250 0.000000
0.171875 0.656250 0.000000
0.206250 0.656250 0.000000
0.240625 0.656250 0.000000
0.275000 0.656250 0.000000
0.309375 0.656250 0.000000
0.343750 0.656250 0.000000
0.378125 0.656250 0.000000
0.412500 0.656250 0.000000
0.446875 0.656250 0.000000
0.481250 0.656250 0.000000
0.515625 0.656250 0.000000
0.550000 0.656250 0.000000
0.584375 0.656250 0.000000
0.618750 0.656250 0.000000
0.653125 0.656250 0.000000
0.687500 0.656250 0.000000
0.721875 0.656250 0.000000
0.756250 0.656250 0.000000
0.790625 0.656250 0.000000
0.825000 0.656250 0.000000
0.859375 0.656250 0.000000
0.893750 0.656250 0.000000
0.928125 0.656250 0.000000
0.962500 0.656250 0.000000
0.996875 0.656250 0.000000
1.000000 0.656250 0.000000
1.000000 0.656250 0.000000
1.000000 0.656250 0.000000
0.000000 0.689062 0.000000
0.034375 0.689062 0.000000
0.068750 0.689062 0.000000
0.103125 0.689062 0.000000
0.137500 0.689062 0.000000
0.171875 0.689062 0.000000
0.206250 0.689062 0.000000
0.240625 0.689062 0.000000
0.275000 0.689062 0.000000
0.309375 0.689062 0.000000
0.343750 0.689062 0.000000
0.378125 0.689062 0.000000
0.412500 0.689062 0.000000
0.446875 0.689062 0.000000
0.481250 0.689062 0.000000
0.515625 0.689062 0.000000
0.550000 0.689062 0.000000
0.584375 0.689062 0.000000
0.618750 0.689062 0.000000
0.653125 0.689062 0.000000
0.687500 0.689062 0.000000
0.721875 0.689062 0.000000
0.756250 0.689062 0.000000
0.790625 0.689062 0.000000
0.825000 0.689062 0.000000
0.859375 0.689062 0.000000
0.893750 0.689062 0.000000
0.928125 0.689062 0.000000
0.962500 0.689062 0.000000
0.996875 0.689062 0.000000
1.000000 0.689062 0.000000
1.000000 0.689062 0.000000
1.000000 0.689062 0.000000
0.000000 0.721875 0.000000
0.034375 0.721875 0.000000
0.068750 0.721875 0.000000
0.103125 0.721875 0.000000
0.137500 0.721875 0.000000
0.171875 0.721875 0.000000
0.206250 0.721875 0.000000
0.240625 0.721875 0.000000
0.275000 0.721875 0.000000
0.309375 0.721875 0.000000
0.343750 0.721875 0.000000
0.378125 0.721875 0.000000
0.412500 0.721875 0.000000
0.446875 0.721875 0.000000
0.481250 0.721875 0.000000
0.515625 0.721875 0.000000
0.550000 0.721875 0.000000
0.584375 0.721875 0.000000
0.618750 0.721875 0.000000
0.653125 0.721875 0.000000
0.687500 0.721875 0.000000
0.721875 0.721875 0.000000
0.756250 0.721875 0.000000
0.790625 0.721875 0.000000
0.825000 0.721875 0.000000
0.859375 0.721875 0.000000
0.893750 0.721875 0.000000
0.928125 0.721875 0.000000
0.962500 0.721875 0.000000
0.996875 0.721875 0.000000
1.000000 0.721875 0.000000
1.000000 0.721875 0.000000
1.000000 0.721875 0.000000
0.000000 0.754687 0.000000
0.034375 0.754687 0.000000
0.068750 0.754687 0.000000
0.103125 0.754687 0.000000
0.137500 0.754687 0.000000
0.171875 0.754687 0.000000
0.206250 0.754687 0.000000
0.240625 0.754687 0.000000
0.275000 0.754687 0.000000
0.309375 0.754687 0.000000
0.343750 0.754687 0.000000
0.378125 0.754687 0.000000
0.412500 0.754687 0.000000
0.446875 0.754687 0.000000
0.481250 0.754687 0.000000
0.515625 0.754687 0.000000
0.550000 0.754687 0.000000
0.584375 0.754687 0.000000
0.618750 0.754687 0.000000
0.653125 0.754687 0.000000
0.687500 0.754687 0.000000
0.721875 0.754687 0.000000
0.756250 0.754687 0.000000
0.790625 0.754687 0.000000
0.825000 0.754687 0.000000
0.859375 0.754687 0.000000
0.893750 0.754687 0.000000
0.928125 0.754687 0.000000
0.962500 0.754687 0.000000
0.996875 0.754687 0.000000
1.000000 0.754687 0.000000
1.000000 0.754687 0.000000
1.000000 0.754687 0.000000
0.000000 0.787500 0.000000
0.034375 0.787500 0.000000
0.068750 0.787500 0.000000
0.103125 0.787500 0.000000
0.137500 0.787500 0.000000
0.171875 0.787500 0.000000
0.206250 0.787500 0.000000
0.240625 0.787500 0.000000
0.275000 0.787500 0.000000
0.309375 0.787500 0.000000
0.343750 0.787500 0.000000
0.378125 0.787500 0.000000
0.412500 0.787500 0.000000
0.446875 0.787500 0.000000
0.481250 0.787500 0.000000
0.515625 0.787500 0.000000
0.550000 0.787500 0.000000
0.584375 0.787500 0.000000
0.618750 0.787500 0.000000
0.653125 0.787500 0.000000
0.687500 0.787500 0.000000
0.721875 0.787500 0.000000
0.756250 0.787500 0.000000
0.790625 0.787500 0.000000
0.825000 0.787500 0.000000
0.859375 0.787500 0.000000
0.893750 0.787500 0.000000
0.928125 0.787500 0.000000
0.962500 0.787500 0.000000
0.996875 0.787500 0.000000
1.000000 0.787500 0.000000
1.000000 0.787500 0.000000
1.000000 0.787500 0.000000
0.000000 0.820312 0.000000
0.034375 0.820312 0.000000
0.068750 0.820312 0.000000
0.103125 0.820312 0.000000
0.137500 0.820312 0.000000
0.171875 0.820312 0.000000
0.206250 0.820312 0.000000
0.240625 0.820312 0.000000
0.275000 0.820312 0.000000
0.309375 0.820312 0.000000
0.343750 0.820312 0.000000
0.378125 0.820312 0.000000
0.412500 0.820312 0.000000
0.446875 0.820312 0.000000
0.481250 0.820312 0.000000
0.515625 0.820312 0.000000
0.550000 0.820312 0.000000
0.584375 0.820312 0.000000
0.618750 0.820312 0.000000
0.653125 0.820312 0.000000
0.687500 0.820312 0.000000
0.721875 0.820312 0.000000
0.756250 0.820312 0.000000
0.790625 0.820312 0.000000
0.825000 0.820312 0.000000
0.859375 0.820312 0.000000
0.893750 0.820312 0.000000
0.928125 0.820312 0.000000
0.962500 0.820312 0.000000
0.996875 0.820312 0.000000
1.000000 0.820312 0.000000
1.000000 0.820312 0.000000
1.000000 0.820312 0.000000
0.000000 0.853125 0.000000
0.034375 0.853125 0.000000
0.068750 0.853125 0.000000
0.103125 0.853125 0.000000
0.137500 0.853125 0.000000
0.171875 0.853125 0.000000
0.206250 0.853125 0.000000
0.240625 0.853125 0.000000
0.275000 0.853125 0.000000
0.309375 0.853125 0.000000
0.343750 0.853125 0.000000
0.378125 0.853125 0.000000
0.412500 0.853125 0.000000
0.446875 0.853125 0.000000
0.481250 0.853125 0.000000
0.515625 0.853125 0.000000
0.550000 0.853125 0.000000
0.584375 0.853125 0.000000
0.618750 0.853125 0.000000
0.653125 0.853125 0.000000
0.687500 0.853125 0.000000
0.721875 0.853125 0.000000
0.756250 0.853125 0.000000
0.790625 0.853125 0.000000
0.825000 0.853125 0.000000
0.859375 0.853125 0.000000
0.893750 0.853125 0.000000
0.928125 0.853125 0.000000
0.962500 0.853125 0.000000
