FilmCameraApp/FilmCameraApp/LUTs/TaiwanFilter.cube
TITLE "TaiwanFilter.cube"
LUT_3D_SIZE 33
0.000000 0.000000 0.020000
0.032812 0.000000 0.020000
0.065625 0.000000 0.020000
0.098437 0.000000 0.020000
0.131250 0.000000 0.020000
0.164062 0.000000 0.020000
0.196875 0.000000 0.020000
0.229687 0.000000 0.020000
0.262500 0.000000 0.020000
0.295312 0.000000 0.020000
0.328125 0.000000 0.020000
0.360937 0.000000 0.020000
0.393750 0.000000 0.020000
0.426562 0.000000 0.020000
0.459375 0.000000 0.020000
0.492187 0.000000 0.020000
0.525000 0.000000 0.020000
0.557812 0.000000 0.020000
0.590625 0.000000 0.020000
0.623437 0.000000 0.020000
0.656250 0.000000 0.020000
0.689062 0.000000 0.020000
0.721875 0.000000 0.020000
0.754687 0.000000 0.020000
0.787500 0.000000 0.020000
0.820312 0.000000 0.020000
0.853125 0.000000 0.020000
0.885937 0.000000 0.020000
0.918750 0.000000 0.020000
0.951562 0.000000 0.020000
0.984375 0.000000 0.020000
1.000000 0.000000 0.020000
1.000000 0.000000 0.020000
0.000000 0.033750 0.020000
0.032812 0.033750 0.020000
0.065625 0.033750 0.020000
0.098437 0.033750 0.020000
0.131250 0.033750 0.020000
0.164062 0.033750 0.020000
0.196875 0.033750 0.020000
0.229687 0.033750 0.020000
0.262500 0.033750 0.020000
0.295312 0.033750 0.020000
0.328125 0.033750 0.020000
0.360937 0.033750 0.020000
0.393750 0.033750 0.020000
0.426562 0.033750 0.020000
0.459375 0.033750 0.020000
0.492187 0.033750 0.020000
0.525000 0.033750 0.020000
0.557812 0.033750 0.020000
0.590625 0.033750 0.020000
0.623437 0.033750 0.020000
0.656250 0.033750 0.020000
0.689062 0.033750 0.020000
0.721875 0.033750 0.020000
0.754687 0.033750 0.020000
0.787500 0.033750 0.020000
0.820312 0.033750 0.020000
0.853125 0.033750 0.020000
0.885937 0.033750 0.020000
0.918750 0.033750 0.020000
0.951562 0.033750 0.020000
0.984375 0.033750 0.020000
1.000000 0.033750 0.020000
1.000000 0.033750 0.020000
0.000000 0.067500 0.020000
0.032812 0.067500 0.020000
0.065625 0.067500 0.020000
0.098437 0.067500 0.020000
0.131250 0.067500 0.020000
0.164062 0.067500 0.020000
0.196875 0.067500 0.020000
0.229687 0.067500 0.020000
0.262500 0.067500 0.020000
0.295312 0.067500 0.020000
0.328125 0.067500 0.020000
0.360937 0.067500 0.020000
0.393750 0.067500 0.020000
0.426562 0.067500 0.020000
0.459375 0.067500 0.020000
0.492187 0.067500 0.020000
0.525000 0.067500 0.020000
0.557812 0.067500 0.020000
0.590625 0.067500 0.020000
0.623437 0.067500 0.020000
0.656250 0.067500 0.020000
0.689062 0.067500 0.020000
0.721875 0.067500 0.020000
0.754687 0.067500 0.020000
0.787500 0.067500 0.020000
0.820312 0.067500 0.020000
0.853125 0.067500 0.020000
0.885937 0.067500 0.020000
0.918750 0.067500 0.020000
0.951562 0.067500 0.020000
0.984375 0.067500 0.020000
1.000000 0.067500 0.020000
1.000000 0.067500 0.020000
0.000000 0.101250 0.020000
0.032812 0.101250 0.020000
0.065625 0.101250 0.020000
0.098437 0.101250 0.020000
0.131250 0.101250 0.020000
0.164062 0.101250 0.020000
0.196875 0.101250 0.020000
0.229687 0.101250 0.020000
0.262500 0.101250 0.020000
0.295312 0.101250 0.020000
0.328125 0.101250 0.020000
0.360937 0.101250 0.020000
0.393750 0.101250 0.020000
0.426562 0.101250 0.020000
0.459375 0.101250 0.020000
0.492187 0.101250 0.020000
0.525000 0.101250 0.020000
0.557812 0.101250 0.020000
0.590625 0.101250 0.020000
0.623437 0.101250 0.020000
0.656250 0.101250 0.020000
0.689062 0.101250 0.020000
0.721875 0.101250 0.020000
0.754687 0.101250 0.020000
0.787500 0.101250 0.020000
0.820312 0.101250 0.020000
0.853125 0.101250 0.020000
0.885937 0.101250 0.020000
0.918750 0.101250 0.020000
0.951562 0.101250 0.020000
0.984375 0.101250 0.020000
1.000000 0.101250 0.020000
1.000000 0.101250 0.020000
0.000000 0.135000 0.020000
0.032812 0.135000 0.020000
0.065625 0.135000 0.020000
0.098437 0.135000 0.020000
0.131250 0.135000 0.020000
0.164062 0.135000 0.020000
0.196875 0.135000 0.020000
0.229687 0.135000 0.020000
0.262500 0.135000 0.020000
0.295312 0.135000 0.020000
0.328125 0.135000 0.020000
0.360937 0.135000 0.020000
0.393750 0.135000 0.020000
0.426562 0.135000 0.020000
0.459375 0.135000 0.020000
0.492187 0.135000 0.020000
0.525000 0.135000 0.020000
0.557812 0.135000 0.020000
0.590625 0.135000 0.020000
0.623437 0.135000 0.020000
0.656250 0.135000 0.020000
0.689062 0.135000 0.020000
0.721875 0.135000 0.020000
0.754687 0.135000 0.020000
0.787500 0.135000 0.020000
0.820312 0.135000 0.020000
0.853125 0.135000 0.020000
0.885937 0.135000 0.020000
0.918750 0.135000 0.020000
0.951562 0.135000 0.020000
0.984375 0.135000 0.020000
1.000000 0.135000 0.020000
1.000000 0.135000 0.020000
0.000000 0.168750 0.020000
0.032812 0.168750 0.020000
0.065625 0.168750 0.020000
0.098437 0.168750 0.020000
0.131250 0.168750 0.020000
0.164062 0.168750 0.020000
0.196875 0.168750 0.020000
0.229687 0.168750 0.020000
0.262500 0.168750 0.020000
0.295312 0.168750 0.020000
0.328125 0.168750 0.020000
0.360937 0.168750 0.020000
0.393750 0.168750 0.020000
0.426562 0.168750 0.020000
0.459375 0.168750 0.020000
0.492187 0.168750 0.020000
0.525000 0.168750 0.020000
0.557812 0.168750 0.020000
0.590625 0.168750 0.020000
0.623437 0.168750 0.020000
0.656250 0.168750 0.020000
0.689062 0.168750 0.020000
0.721875 0.168750 0.020000
0.754687 0.168750 0.020000
0.787500 0.168750 0.020000
0.820312 0.168750 0.020000
0.853125 0.168750 0.020000
0.885937 0.168750 0.020000
0.918750 0.168750 0.020000
0.951562 0.168750 0.020000
0.984375 0.168750 0.020000
1.000000 0.168750 0.020000
1.000000 0.168750 0.020000
0.000000 0.202500 0.020000
0.032812 0.202500 0.020000
0.065625 0.202500 0.020000
0.098437 0.202500 0.020000
0.131250 0.202500 0.020000
0.164062 0.202500 0.020000
0.196875 0.202500 0.020000
0.229687 0.202500 0.020000
0.262500 0.202500 0.020000
0.295312 0.202500 0.020000
0.328125 0.202500 0.020000
0.360937 0.202500 0.020000
0.393750 0.202500 0.020000
0.426562 0.202500 0.020000
0.459375 0.202500 0.020000
0.492187 0.202500 0.020000
0.525000 0.202500 0.020000
0.557812 0.202500 0.020000
0.590625 0.202500 0.020000
0.623437 0.202500 0.020000
0.656250 0.202500 0.020000
0.689062 0.202500 0.020000
0.721875 0.202500 0.020000
0.754687 0.202500 0.020000
0.787500 0.202500 0.020000
0.820312 0.202500 0.020000
0.853125 0.202500 0.020000
0.885937 0.202500 0.020000
0.918750 0.202500 0.020000
0.951562 0.202500 0.020000
0.984375 0.202500 0.020000
1.000000 0.202500 0.020000
1.000000 0.202500 0.020000
0.000000 0.236250 0.020000
0.032812 0.236250 0.020000
0.065625 0.236250 0.020000
0.098437 0.236250 0.020000
0.131250 0.236250 0.020000
0.164062 0.236250 0.020000
0.196875 0.236250 0.020000
0.229687 0.236250 0.020000
0.262500 0.236250 0.020000
0.295312 0.236250 0.020000
0.328125 0.236250 0.020000
0.360937 0.236250 0.020000
0.393750 0.236250 0.020000
0.426562 0.236250 0.020000
0.459375 0.236250 0.020000
0.492187 0.236250 0.020000
0.525000 0.236250 0.020000
0.557812 0.236250 0.020000
0.590625 0.236250 0.020000
0.623437 0.236250 0.020000
0.656250 0.236250 0.020000
0.689062 0.236250 0.020000
0.721875 0.236250 0.020000
0.754687 0.236250 0.020000
0.787500 0.236250 0.020000
0.820312 0.236250 0.020000
0.853125 0.236250 0.020000
0.885937 0.236250 0.020000
0.918750 0.236250 0.020000
0.951562 0.236250 0.020000
0.984375 0.236250 0.020000
1.000000 0.236250 0.020000
1.000000 0.236250 0.020000
0.000000 0.270000 0.020000
0.032812 0.270000 0.020000
0.065625 0.270000 0.020000
0.098437 0.270000 0.020000
0.131250 0.270000 0.020000
0.164062 0.270000 0.020000
0.196875 0.270000 0.020000
0.229687 0.270000 0.020000
0.262500 0.270000 0.020000
0.295312 0.270000 0.020000
0.328125 0.270000 0.020000
0.360937 0.270000 0.020000
0.393750 0.270000 0.020000
0.426562 0.270000 0.020000
0.459375 0.270000 0.020000
0.492187 0.270000 0.020000
0.525000 0.270000 0.020000
0.557812 0.270000 0.020000
0.590625 0.270000 0.020000
0.623437 0.270000 0.020000
0.656250 0.270000 0.020000
0.689062 0.270000 0.020000
0.721875 0.270000 0.020000
0.754687 0.270000 0.020000
0.787500 0.270000 0.020000
0.820312 0.270000 0.020000
0.853125 0.270000 0.020000
0.885937 0.270000 0.020000
0.918750 0.270000 0.020000
0.951562 0.270000 0.020000
0.984375 0.270000 0.020000
1.000000 0.270000 0.020000
1.000000 0.270000 0.020000
0.000000 0.303750 0.020000
0.032812 0.303750 0.020000
0.065625 0.303750 0.020000
0.098437 0.303750 0.020000
0.131250 0.303750 0.020000
0.164062 0.303750 0.020000
0.196875 0.303750 0.020000
0.229687 0.303750 0.020000
0.262500 0.303750 0.020000
0.295312 0.303750 0.020000
0.328125 0.303750 0.020000
0.360937 0.303750 0.020000
0.393750 0.303750 0.020000
0.426562 0.303750 0.020000
0.459375 0.303750 0.020000
0.492187 0.303750 0.020000
0.525000 0.303750 0.020000
0.557812 0.303750 0.020000
0.590625 0.303750 0.020000
0.623437 0.303750 0.020000
0.656250 0.303750 0.020000
0.689062 0.303750 0.020000
0.721875 0.303750 0.020000
0.754687 0.303750 0.020000
0.787500 0.303750 0.020000
0.820312 0.303750 0.020000
0.853125 0.303750 0.020000
0.885937 0.303750 0.020000
0.918750 0.303750 0.020000
0.951562 0.303750 0.020000
0.984375 0.303750 0.020000
1.000000 0.303750 0.020000
1.000000 0.303750 0.020000
0.000000 0.337500 0.020000
0.032812 0.337500 0.020000
0.065625 0.337500 0.020000
0.098437 0.337500 0.020000
0.131250 0.337500 0.020000
0.164062 0.337500 0.020000
0.196875 0.337500 0.020000
0.229687 0.337500 0.020000
0.262500 0.337500 0.020000
0.295312 0.337500 0.020000
0.328125 0.337500 0.020000
0.360937 0.337500 0.020000
0.393750 0.337500 0.020000
0.426562 0.337500 0.020000
0.459375 0.337500 0.020000
0.492187 0.337500 0.020000
0.525000 0.337500 0.020000
0.557812 0.337500 0.020000
0.590625 0.337500 0.020000
0.623437 0.337500 0.020000
0.656250 0.337500 0.020000
0.689062 0.337500 0.020000
0.721875 0.337500 0.020000
0.754687 0.337500 0.020000
0.787500 0.337500 0.020000
0.820312 0.337500 0.020000
0.853125 0.337500 0.020000
0.885937 0.337500 0.020000
0.918750 0.337500 0.020000
0.951562 0.337500 0.020000
0.984375 0.337500 0.020000
1.000000 0.337500 0.020000
1.000000 0.337500 0.020000
0.000000 0.371250 0.020000
0.032812 0.371250 0.020000
0.065625 0.371250 0.020000
0.098437 0.371250 0.020000
0.131250 0.371250 0.020000
0.164062 0.371250 0.020000
0.196875 0.371250 0.020000
0.229687 0.371250 0.020000
0.262500 0.371250 0.020000
0.295312 0.371250 0.020000
0.328125 0.371250 0.020000
0.360937 0.371250 0.020000
0.393750 0.371250 0.020000
0.426562 0.371250 0.020000
0.459375 0.371250 0.020000
0.492187 0.371250 0.020000
0.525000 0.371250 0.020000
0.557812 0.371250 0.020000
0.590625 0.371250 0.020000
0.623437 0.371250 0.020000
0.656250 0.371250 0.020000
0.689062 0.371250 0.020000
0.721875 0.371250 0.020000
0.754687 0.371250 0.020000
0.787500 0.371250 0.020000
0.820312 0.371250 0.020000
0.853125 0.371250 0.020000
0.885937 0.371250 0.020000
0.918750 0.371250 0.020000
0.951562 0.371250 0.020000
0.984375 0.371250 0.020000
1.000000 0.371250 0.020000
1.000000 0.371250 0.020000
0.000000 0.405000 0.020000
0.032812 0.405000 0.020000
0.065625 0.405000 0.020000
0.098437 0.405000 0.020000
0.131250 0.405000 0.020000
0.164062 0.405000 0.020000
0.196875 0.405000 0.020000
0.229687 0.405000 0.020000
0.262500 0.405000 0.020000
0.295312 0.405000 0.020000
0.328125 0.405000 0.020000
0.360937 0.405000 0.020000
0.393750 0.405000 0.020000
0.426562 0.405000 0.020000
0.459375 0.405000 0.020000
0.492187 0.405000 0.020000
0.525000 0.405000 0.020000
0.557812 0.405000 0.020000
0.590625 0.405000 0.020000
0.623437 0.405000 0.020000
0.656250 0.405000 0.020000
0.689062 0.405000 0.020000
0.721875 0.405000 0.020000
0.754687 0.405000 0.020000
0.787500 0.405000 0.020000
0.820312 0.405000 0.020000
0.853125 0.405000 0.020000
0.885937 0.405000 0.020000
0.918750 0.405000 0.020000
0.951562 0.405000 0.020000
0.984375 0.405000 0.020000
1.000000 0.405000 0.020000
1.000000 0.405000 0.020000
0.000000 0.438750 0.020000
0.032812 0.438750 0.020000
0.065625 0.438750 0.020000
0.098437 0.438750 0.020000
0.131250 0.438750 0.020000
0.164062 0.438750 0.020000
0.196875 0.438750 0.020000
0.229687 0.438750 0.020000
0.262500 0.438750 0.020000
0.295312 0.438750 0.020000
0.328125 0.438750 0.020000
0.360937 0.438750 0.020000
0.393750 0.438750 0.020000
0.426562 0.438750 0.020000
0.459375 0.438750 0.020000
0.492187 0.438750 0.020000
0.525000 0.438750 0.020000
0.557812 0.438750 0.020000
0.590625 0.438750 0.020000
0.623437 0.438750 0.020000
0.656250 0.438750 0.020000
0.689062 0.438750 0.020000
0.721875 0.438750 0.020000
0.754687 0.438750 0.020000
0.787500 0.438750 0.020000
0.820312 0.438750 0.020000
0.853125 0.438750 0.020000
0.885937 0.438750 0.020000
0.918750 0.438750 0.020000
0.951562 0.438750 0.020000
0.984375 0.438750 0.020000
1.000000 0.438750 0.020000
1.000000 0.438750 0.020000
0.000000 0.472500 0.020000
0.032812 0.472500 0.020000
0.065625 0.472500 0.020000
0.098437 0.472500 0.020000
0.131250 0.472500 0.020000
0.164062 0.472500 0.020000
0.196875 0.472500 0.020000
0.229687 0.472500 0.020000
0.262500 0.472500 0.020000
0.295312 0.472500 0.020000
0.328125 0.472500 0.020000
0.360937 0.472500 0.020000
0.393750 0.472500 0.020000
0.426562 0.472500 0.020000
0.459375 0.472500 0.020000
0.492187 0.472500 0.020000
0.525000 0.472500 0.020000
0.557812 0.472500 0.020000
0.590625 0.472500 0.020000
0.623437 0.472500 0.020000
0.656250 0.472500 0.020000
0.689062 0.472500 0.020000
0.721875 0.472500 0.020000
0.754687 0.472500 0.020000
0.787500 0.472500 0.020000
0.820312 0.472500 0.020000
0.853125 0.472500 0.020000
0.885937 0.472500 0.020000
0.918750 0.472500 0.020000
0.951562 0.472500 0.020000
0.984375 0.472500 0.020000
1.000000 0.472500 0.020000
1.000000 0.472500 0.020000
0.000000 0.506250 0.020000
0.032812 0.506250 0.020000
0.065625 0.506250 0.020000
0.098437 0.506250 0.020000
0.131250 0.506250 0.020000
0.164062 0.506250 0.020000
0.196875 0.506250 0.020000
0.229687 0.506250 0.020000
0.262500 0.506250 0.020000
0.295312 0.506250 0.020000
0.328125 0.506250 0.020000
0.360937 0.506250 0.020000
0.393750 0.506250 0.020000
0.426562 0.506250 0.020000
0.459375 0.506250 0.020000
0.492187 0.506250 0.020000
0.525000 0.506250 0.020000
0.557812 0.506250 0.020000
0.590625 0.506250 0.020000
0.623437 0.506250 0.020000
0.656250 0.506250 0.020000
0.689062 0.506250 0.020000
0.721875 0.506250 0.020000
0.754687 0.506250 0.020000
0.787500 0.506250 0.020000
0.820312 0.506250 0.020000
0.853125 0.506250 0.020000
0.885937 0.506250 0.020000
0.918750 0.506250 0.020000
0.951562 0.506250 0.020000
0.984375 0.506250 0.020000
1.000000 0.506250 0.020000
1.000000 0.506250 0.020000
0.000000 0.540000 0.020000
0.032812 0.540000 0.020000
0.065625 0.540000 0.020000
0.098437 0.540000 0.020000
0.131250 0.540000 0.020000
0.164062 0.540000 0.020000
0.196875 0.540000 0.020000
0.229687 0.540000 0.020000
0.262500 0.540000 0.020000
0.295312 0.540000 0.020000
0.328125 0.540000 0.020000
0.360937 0.540000 0.020000
0.393750 0.540000 0.020000
0.426562 0.540000 0.020000
0.459375 0.540000 0.020000
0.492187 0.540000 0.020000
0.525000 0.540000 0.020000
0.557812 0.540000 0.020000
0.590625 0.540000 0.020000
0.623437 0.540000 0.020000
0.656250 0.540000 0.020000
0.689062 0.540000 0.020000
0.721875 0.540000 0.020000
0.754687 0.540000 0.020000
0.787500 0.540000 0.020000
0.820312 0.540000 0.020000
0.853125 0.540000 0.020000
0.885937 0.540000 0.020000
0.918750 0.540000 0.020000
0.951562 0.540000 0.020000
0.984375 0.540000 0.020000
1.000000 0.540000 0.020000
1.000000 0.540000 0.020000
0.000000 0.573750 0.020000
0.032812 0.573750 0.020000
0.065625 0.573750 0.020000
0.098437 0.573750 0.020000
0.131250 0.573750 0.020000
0.164062 0.573750 0.020000
0.196875 0.573750 0.020000
0.229687 0.573750 0.020000
0.262500 0.573750 0.020000
0.295312 0.573750 0.020000
0.328125 0.573750 0.020000
0.360937 0.573750 0.020000
0.393750 0.573750 0.020000
0.426562 0.573750 0.020000
0.459375 0.573750 0.020000
0.492187 0.573750 0.020000
0.525000 0.573750 0.020000
0.557812 0.573750 0.020000
0.590625 0.573750 0.020000
0.623437 0.573750 0.020000
0.656250 0.573750 0.020000
0.689062 0.573750 0.020000
0.721875 0.573750 0.020000
0.754687 0.573750 0.020000
0.787500 0.573750 0.020000
0.820312 0.573750 0.020000
0.853125 0.573750 0.020000
0.885937 0.573750 0.020000
0.918750 0.573750 0.020000
0.951562 0.573750 0.020000
0.984375 0.573750 0.020000
1.000000 0.573750 0.020000
1.000000 0.573750 0.020000
0.000000 0.607500 0.020000
0.032812 0.607500 0.020000
0.065625 0.607500 0.020000
0.098437 0.607500 0.020000
0.131250 0.607500 0.020000
0.164062 0.607500 0.020000
0.196875 0.607500 0.020000
0.229687 0.607500 0.020000
0.262500 0.607500 0.020000
0.295312 0.607500 0.020000
0.328125 0.607500 0.020000
0.360937 0.607500 0.020000
0.393750 0.607500 0.020000
0.426562 0.607500 0.020000
0.459375 0.607500 0.020000
0.492187 0.607500 0.020000
0.525000 0.607500 0.020000
0.557812 0.607500 0.020000
0.590625 0.607500 0.020000
0.623437 0.607500 0.020000
0.656250 0.607500 0.020000
0.689062 0.607500 0.020000
0.721875 0.607500 0.020000
0.754687 0.607500 0.020000
0.787500 0.607500 0.020000
0.820312 0.607500 0.020000
0.853125 0.607500 0.020000
0.885937 0.607500 0.020000
0.918750 0.607500 0.020000
0.951562 0.607500 0.020000
0.984375 0.607500 0.020000
1.000000 0.607500 0.020000
1.000000 0.607500 0.020000
0.000000 0.641250 0.020000
0.032812 0.641250 0.020000
0.065625 0.641250 0.020000
0.098437 0.641250 0.020000
0.131250 0.641250 0.020000
0.164062 0.641250 0.020000
0.196875 0.641250 0.020000
0.229687 0.641250 0.020000
0.262500 0.641250 0.020000
0.295312 0.641250 0.020000
0.328125 0.641250 0.020000
0.360937 0.641250 0.020000
0.393750 0.641250 0.020000
0.426562 0.641250 0.020000
0.459375 0.641250 0.020000
0.492187 0.641250 0.020000
0.525000 0.641250 0.020000
0.557812 0.641250 0.020000
0.590625 0.641250 0.020000
0.623437 0.641250 0.020000
0.656250 0.641250 0.020000
0.689062 0.641250 0.020000
0.721875 0.641250 0.020000
0.754687 0.641250 0.020000
0.787500 0.641250 0.020000
0.820312 0.641250 0.020000
0.853125 0.641250 0.020000
0.885937 0.641250 0.020000
0.918750 0.641250 0.020000
0.951562 0.641250 0.020000
0.984375 0.641250 0.020000
1.000000 0.641250 0.020000
1.000000 0.641250 0.020000
0.000000 0.675000 0.020000
0.032812 0.675000 0.020000
0.065625 0.675000 0.020000
0.098437 0.675000 0.020000
0.131250 0.675000 0.020000
0.164062 0.675000 0.020000
0.196875 0.675000 0.020000
0.229687 0.675000 0.020000
0.262500 0.675000 0.020000
0.295312 0.675000 0.020000
0.328125 0.675000 0.020000
0.360937 0.675000 0.020000
0.393750 0.675000 0.020000
0.426562 0.675000 0.020000
0.459375 0.675000 0.020000
0.492187 0.675000 0.020000
0.525000 0.675000 0.020000
0.557812 0.675000 0.020000
0.590625 0.675000 0.020000
0.623437 0.675000 0.020000
0.656250 0.675000 0.020000
0.689062 0.675000 0.020000
0.721875 0.675000 0.020000
0.754687 0.675000 0.020000
0.787500 0.675000 0.020000
0.820312 0.675000 0.020000
0.853125 0.675000 0.020000
0.885937 0.675000 0.020000
0.918750 0.675000 0.020000
0.951562 0.675000 0.020000
0.984375 0.675000 0.020000
1.000000 0.675000 0.020000
1.000000 0.675000 0.020000
0.000000 0.708750 0.020000
0.032812 0.708750 0.020000
0.065625 0.708750 0.020000
0.098437 0.708750 0.020000
0.131250 0.708750 0.020000
0.164062 0.708750 0.020000
0.196875 0.708750 0.020000
0.229687 0.708750 0.020000
0.262500 0.708750 0.020000
0.295312 0.708750 0.020000
0.328125 0.708750 0.020000
0.360937 0.708750 0.020000
0.393750 0.708750 0.020000
0.426562 0.708750 0.020000
0.459375 0.708750 0.020000
0.492187 0.708750 0.020000
0.525000 0.708750 0.020000
0.557812 0.708750 0.020000
0.590625 0.708750 0.020000
0.623437 0.708750 0.020000
0.656250 0.708750 0.020000
0.689062 0.708750 0.020000
0.721875 0.708750 0.020000
0.754687 0.708750 0.020000
0.787500 0.708750 0.020000
0.820312 0.708750 0.020000
0.853125 0.708750 0.020000
0.885937 0.708750 0.020000
0.918750 0.708750 0.020000
0.951562 0.708750 0.020000
0.984375 0.708750 0.020000
1.000000 0.708750 0.020000
1.000000 0.708750 0.020000
0.000000 0.742500 0.020000
0.032812 0.742500 0.020000
0.065625 0.742500 0.020000
0.098437 0.742500 0.020000
0.131250 0.742500 0.020000
0.164062 0.742500 0.020000
0.196875 0.742500 0.020000
0.229687 0.742500 0.020000
0.262500 0.742500 0.020000
0.295312 0.742500 0.020000
0.328125 0.742500 0.020000
0.360937 0.742500 0.020000
0.393750 0.742500 0.020000
0.426562 0.742500 0.020000
0.459375 0.742500 0.020000
0.492187 0.742500 0.020000
0.525000 0.742500 0.020000
0.557812 0.742500 0.020000
0.590625 0.742500 0.020000
0.623437 0.742500 0.020000
0.656250 0.742500 0.020000
0.689062 0.742500 0.020000
0.721875 0.742500 0.020000
0.754687 0.742500 0.020000
0.787500 0.742500 0.020000
0.820312 0.742500 0.020000
0.853125 0.742500 0.020000
0.885937 0.742500 0.020000
0.918750 0.742500 0.020000
0.951562 0.742500 0.020000
0.984375 0.742500 0.020000
1.000000 0.742500 0.020000
1.000000 0.742500 0.020000
0.000000 0.776250 0.020000
0.032812 0.776250 0.020000
0.065625 0.776250 0.020000
0.098437 0.776250 0.020000
0.131250 0.776250 0.020000
0.164062 0.776250 0.020000
0.196875 0.776250 0.020000
0.229687 0.776250 0.020000
0.262500 0.776250 0.020000
0.295312 0.776250 0.020000
0.328125 0.776250 0.020000
0.360937 0.776250 0.020000
0.393750 0.776250 0.020000
0.426562 0.776250 0.020000
0.459375 0.776250 0.020000
0.492187 0.776250 0.020000
0.525000 0.776250 0.020000
0.557812 0.776250 0.020000
0.590625 0.776250 0.020000
0.623437 0.776250 0.020000
0.656250 0.776250 0.020000
0.689062 0.776250 0.020000
0.721875 0.776250 0.020000
0.754687 0.776250 0.020000
0.787500 0.776250 0.020000
0.820312 0.776250 0.020000
0.853125 0.776250 0.020000
0.885937 0.776250 0.020000
0.918750 0.776250 0.020000
0.951562 0.776250 0.020000
0.984375 0.776250 0.020000
1.000000 0.776250 0.020000
1.000000 0.776250 0.020000
0.000000 0.810000 0.020000
0.032812 0.810000 0.020000
0.065625 0.810000 0.020000
0.098437 0.810000 0.020000
0.131250 0.810000 0.020000
0.164062 0.810000 0.020000
0.196875 0.810000 0.020000
0.229687 0.810000 0.020000
0.262500 0.810000 0.020000
0.295312 0.810000 0.020000
0.328125 0.810000 0.020000
0.360937 0.810000 0.020000
0.393750 0.810000 0.020000
0.426562 0.810000 0.020000
0.459375 0.810000 0.020000
0.492187 0.810000 0.020000
0.525000 0.810000 0.020000
0.557812 0.810000 0.020000
0.590625 0.810000 0.020000
0.623437 0.810000 0.020000
0.656250 0.810000 0.020000
0.689062 0.810000 0.020000
0.721875 0.810000 0.020000
0.754687 0.810000 0.020000
0.787500 0.810000 0.020000
0.820312 0.810000 0.020000
0.853125 0.810000 0.020000
0.885937 0.810000 0.020000
0.918750 0.810000 0.020000
0.951562 0.810000 0.020000
0.984375 0.810000 0.020000
1.000000 0.810000 0.020000
1.000000 0.810000 0.020000
0.000000 0.843750 0.020000
0.032812 0.843750 0.020000
0.065625 0.843750 0.020000
0.098437 0.843750 0.020000
0.131250 0.843750 0.020000
0.164062 0.843750 0.020000
0.196875 0.843750 0.020000
0.229687 0.843750 0.020000
0.262500 0.843750 0.020000
0.295312 0.843750 0.020000
0.328125 0.843750 0.020000
0.360937 0.843750 0.020000
0.393750 0.843750 0.020000
0.426562 0.843750 0.020000
0.459375 0.843750 0.020000
0.492187 0.843750 0.020000
0.525000 0.843750 0.020000
0.557812 0.843750 0.020000
0.590625 0.843750 0.020000
0.623437 0.843750 0.020000
0.656250 0.843750 0.020000
0.689062 0.843750 0.020000
0.721875 0.843750 0.020000
0.754687 0.843750 0.020000
0.787500 0.843750 0.020000
0.820312 0.843750 0.020000
0.853125 0.843750 0.020000
0.885937 0.843750 0.020000
0.918750 0.843750 0.020000
0.951562 0.843750 0.020000
0.984375 0.843750 0.020000
1.000000 0.843750 0.020000
1.000000 0.843750 0.020000
0.000000 0.877500 0.020000
0.032812 0.877500 0.020000
0.065625 0.877500 0.020000
0.098437 0.877500 0.020000
0.131250 0.877500 0.020000
0.164062 0.877500 0.020000
0.196875 0.877500 0.020000
0.229687 0.877500 0.020000
0.262500 0.877500 0.020000
0.295312 0.877500 0.020000
0.328125 0.877500 0.020000
0.360937 0.877500 0.020000
0.393750 0.877500 0.020000
0.426562 0.877500 0.020000
0.459375 0.877500 0.020000
0.492187 0.877500 0.020000
0.525000 0.877500 0.020000
0.557812 0.877500 0.020000
0.590625 0.877500 0.020000
0.623437 0.877500 0.020000
0.656250 0.877500 0.020000
0.689062 0.877500 0.020000
0.721875 0.877500 0.020000
0.754687 0.877500 0.020000
0.787500 0.877500 0.020000
0.820312 0.877500 0.020000
0.853125 0.877500 0.020000
0.885937 0.877500 0.020000
0.918750 0.877500 0.020000
