FilmCameraApp/FilmCameraApp/LUTs/TaiwanFilter.cube
TITLE "TaiwanFilter.cube"
LUT_3D_SIZE 5
0.000000 0.000000 0.020000
0.262500 0.000000 0.020000
0.525000 0.000000 0.020000
0.787500 0.000000 0.020000
1.000000 0.000000 0.020000
0.000000 0.270000 0.020000
0.262500 0.270000 0.020000
0.525000 0.270000 0.020000
0.787500 0.270000 0.020000
1.000000 0.270000 0.020000
0.000000 0.540000 0.020000
0.262500 0.540000 0.020000
0.525000 0.540000 0.020000
0.787500 0.540000 0.020000
1.000000 0.540000 0.020000
0.000000 0.810000 0.020000
0.262500 0.810000 0.020000
0.525000 0.810000 0.020000
0.787500 0.810000 0.020000
1.000000 0.810000 0.020000
0.000000 1.000000 0.020000
0.262500 1.000000 0.020000
0.525000 1.000000 0.020000
0.787500 1.000000 0.020000
1.000000 1.000000 0.020000
0.000000 0.000000 0.257500
0.262500 0.000000 0.257500
0.525000 0.000000 0.257500
0.787500 0.000000 0.257500
1.000000 0.000000 0.257500
0.000000 0.270000 0.257500
0.262500 0.270000 0.257500
0.525000 0.270000 0.257500
0.787500 0.270000 0.257500
1.000000 0.270000 0.257500
0.000000 0.540000 0.257500
0.262500 0.540000 0.257500
0.525000 0.540000 0.257500
0.787500 0.540000 0.257500
1.000000 0.540000 0.257500
0.000000 0.810000 0.257500
0.262500 0.810000 0.257500
0.525000 0.810000 0.257500
0.787500 0.810000 0.257500
1.000000 0.810000 0.257500
0.000000 1.000000 0.257500
0.262500 1.000000 0.257500
0.525000 1.000000 0.257500
0.787500 1.000000 0.257500
1.000000 1.000000 0.257500
0.000000 0.000000 0.495000
0.262500 0.000000 0.495000
0.525000 0.000000 0.495000
0.787500 0.000000 0.495000
1.000000 0.000000 0.495000
0.000000 0.270000 0.495000
0.262500 0.270000 0.495000
0.525000 0.270000 0.495000
0.787500 0.270000 0.495000
1.000000 0.270000 0.495000
0.000000 0.540000 0.495000
0.262500 0.540000 0.495000
0.525000 0.540000 0.495000
0.787500 0.540000 0.495000
1.000000 0.540000 0.495000
0.000000 0.810000 0.495000
0.262500 0.810000 0.495000
0.525000 0.810000 0.495000
0.787500 0.810000 0.495000
1.000000 0.810000 0.495000
0.000000 1.000000 0.495000
0.262500 1.000000 0.495000
0.525000 1.000000 0.495000
0.787500 1.000000 0.495000
1.000000 1.000000 0.495000
0.000000 0.000000 0.732500
0.262500 0.000000 0.732500
0.525000 0.000000 0.732500
0.787500 0.000000 0.732500
1.000000 0.000000 0.732500
0.000000 0.270000 0.732500
0.262500 0.270000 0.732500
0.525000 0.270000 0.732500
0.787500 0.270000 0.732500
1.000000 0.270000 0.732500
0.000000 0.540000 0.732500
0.262500 0.540000 0.732500
0.525000 0.540000 0.732500
0.787500 0.540000 0.732500
1.000000 0.540000 0.732500
0.000000 0.810000 0.732500
0.262500 0.810000 0.732500
0.525000 0.810000 0.732500
0.787500 0.810000 0.732500
1.000000 0.810000 0.732500
0.000000 1.000000 0.732500
0.262500 1.000000 0.732500
0.525000 1.000000 0.732500
0.787500 1.000000 0.732500
1.000000 1.000000 0.732500
0.000000 0.000000 0.970000
0.262500 0.000000 0.970000
0.525000 0.000000 0.970000
0.787500 0.000000 0.970000
1.000000 0.000000 0.970000
0.000000 0.270000 0.970000
0.262500 0.270000 0.970000
0.525000 0.270000 0.970000
0.787500 0.270000 0.970000
1.000000 0.270000 0.970000
0.000000 0.540000 0.970000
0.262500 0.540000 0.970000
0.525000 0.540000 0.970000
0.787500 0.540000 0.970000
1.000000 0.540000 0.970000
0.000000 0.810000 0.970000
0.262500 0.810000 0.970000
0.525000 0.810000 0.970000
0.787500 0.810000 0.970000
1.000000 0.810000 0.970000
0.000000 1.000000 0.970000
0.262500 1.000000 0.970000
0.525000 1.000000 0.970000
0.787500 1.000000 0.970000
1.000000 1.000000 0.970000
