FilmCameraApp/FilmCameraApp/LUTs/TaiwanFilter.cube
TITLE "TaiwanFilter.cube"
LUT_3D_SIZE 9
0.000000 0.000000 0.020000
0.131250 0.000000 0.020000
0.262500 0.000000 0.020000
0.393750 0.000000 0.020000
0.525000 0.000000 0.020000
0.656250 0.000000 0.020000
0.787500 0.000000 0.020000
0.918750 0.000000 0.020000
1.000000 0.000000 0.020000
0.000000 0.135000 0.020000
0.131250 0.135000 0.020000
0.262500 0.135000 0.020000
0.393750 0.135000 0.020000
0.525000 0.135000 0.020000
0.656250 0.135000 0.020000
0.787500 0.135000 0.020000
0.918750 0.135000 0.020000
1.000000 0.135000 0.020000
0.000000 0.270000 0.020000
0.131250 0.270000 0.020000
0.262500 0.270000 0.020000
0.393750 0.270000 0.020000
0.525000 0.270000 0.020000
0.656250 0.270000 0.020000
0.787500 0.270000 0.020000
0.918750 0.270000 0.020000
1.000000 0.270000 0.020000
0.000000 0.405000 0.020000
0.131250 0.405000 0.020000
0.262500 0.405000 0.020000
0.393750 0.405000 0.020000
0.525000 0.405000 0.020000
0.656250 0.405000 0.020000
0.787500 0.405000 0.020000
0.918750 0.405000 0.020000
1.000000 0.405000 0.020000
0.000000 0.540000 0.020000
0.131250 0.540000 0.020000
0.262500 0.540000 0.020000
0.393750 0.540000 0.020000
0.525000 0.540000 0.020000
0.656250 0.540000 0.020000
0.787500 0.540000 0.020000
0.918750 0.540000 0.020000
1.000000 0.540000 0.020000
0.000000 0.675000 0.020000
0.131250 0.675000 0.020000
0.262500 0.675000 0.020000
0.393750 0.675000 0.020000
0.525000 0.675000 0.020000
0.656250 0.675000 0.020000
0.787500 0.675000 0.020000
0.918750 0.675000 0.020000
1.000000 0.675000 0.020000
0.000000 0.810000 0.020000
0.131250 0.810000 0.020000
0.262500 0.810000 0.020000
0.393750 0.810000 0.020000
0.525000 0.810000 0.020000
0.656250 0.810000 0.020000
0.787500 0.810000 0.020000
0.918750 0.810000 0.020000
1.000000 0.810000 0.020000
0.000000 0.945000 0.020000
0.131250 0.945000 0.020000
0.262500 0.945000 0.020000
0.393750 0.945000 0.020000
0.525000 0.945000 0.020000
0.656250 0.945000 0.020000
0.787500 0.945000 0.020000
0.918750 0.945000 0.020000
1.000000 0.945000 0.020000
0.000000 1.000000 0.020000
0.131250 1.000000 0.020000
0.262500 1.000000 0.020000
0.393750 1.000000 0.020000
0.525000 1.000000 0.020000
0.656250 1.000000 0.020000
0.787500 1.000000 0.020000
0.918750 1.000000 0.020000
1.000000 1.000000 0.020000
0.000000 0.000000 0.138750
0.131250 0.000000 0.138750
0.262500 0.000000 0.138750
0.393750 0.000000 0.138750
0.525000 0.000000 0.138750
0.656250 0.000000 0.138750
0.787500 0.000000 0.138750
0.918750 0.000000 0.138750
1.000000 0.000000 0.138750
0.000000 0.135000 0.138750
0.131250 0.135000 0.138750
0.262500 0.135000 0.138750
0.393750 0.135000 0.138750
0.525000 0.135000 0.138750
0.656250 0.135000 0.138750
0.787500 0.135000 0.138750
0.918750 0.135000 0.138750
1.000000 0.135000 0.138750
0.000000 0.270000 0.138750
0.131250 0.270000 0.138750
0.262500 0.270000 0.138750
0.393750 0.270000 0.138750
0.525000 0.270000 0.138750
0.656250 0.270000 0.138750
0.787500 0.270000 0.138750
0.918750 0.270000 0.138750
1.000000 0.270000 0.138750
0.000000 0.405000 0.138750
0.131250 0.405000 0.138750
0.262500 0.405000 0.138750
0.393750 0.405000 0.138750
0.525000 0.405000 0.138750
0.656250 0.405000 0.138750
0.787500 0.405000 0.138750
0.918750 0.405000 0.138750
1.000000 0.405000 0.138750
0.000000 0.540000 0.138750
0.131250 0.540000 0.138750
0.262500 0.540000 0.138750
0.393750 0.540000 0.138750
0.525000 0.540000 0.138750
0.656250 0.540000 0.138750
0.787500 0.540000 0.138750
0.918750 0.540000 0.138750
1.000000 0.540000 0.138750
0.000000 0.675000 0.138750
0.131250 0.675000 0.138750
0.262500 0.675000 0.138750
0.393750 0.675000 0.138750
0.525000 0.675000 0.138750
0.656250 0.675000 0.138750
0.787500 0.675000 0.138750
0.918750 0.675000 0.138750
1.000000 0.675000 0.138750
0.000000 0.810000 0.138750
0.131250 0.810000 0.138750
0.262500 0.810000 0.138750
0.393750 0.810000 0.138750
0.525000 0.810000 0.138750
0.656250 0.810000 0.138750
0.787500 0.810000 0.138750
0.918750 0.810000 0.138750
1.000000 0.810000 0.138750
0.000000 0.945000 0.138750
0.131250 0.945000 0.138750
0.262500 0.945000 0.138750
0.393750 0.945000 0.138750
0.525000 0.945000 0.138750
0.656250 0.945000 0.138750
0.787500 0.945000 0.138750
0.918750 0.945000 0.138750
1.000000 0.945000 0.138750
0.000000 1.000000 0.138750
0.131250 1.000000 0.138750
0.262500 1.000000 0.138750
0.393750 1.000000 0.138750
0.525000 1.000000 0.138750
0.656250 1.000000 0.138750
0.787500 1.000000 0.138750
0.918750 1.000000 0.138750
1.000000 1.000000 0.138750
0.000000 0.000000 0.257500
0.131250 0.000000 0.257500
0.262500 0.000000 0.257500
0.393750 0.000000 0.257500
0.525000 0.000000 0.257500
0.656250 0.000000 0.257500
0.787500 0.000000 0.257500
0.918750 0.000000 0.257500
1.000000 0.000000 0.257500
0.000000 0.135000 0.257500
0.131250 0.135000 0.257500
0.262500 0.135000 0.257500
0.393750 0.135000 0.257500
0.525000 0.135000 0.257500
0.656250 0.135000 0.257500
0.787500 0.135000 0.257500
0.918750 0.135000 0.257500
1.000000 0.135000 0.257500
0.000000 0.270000 0.257500
0.131250 0.270000 0.257500
0.262500 0.270000 0.257500
0.393750 0.270000 0.257500
0.525000 0.270000 0.257500
0.656250 0.270000 0.257500
0.787500 0.270000 0.257500
0.918750 0.270000 0.257500
1.000000 0.270000 0.257500
0.000000 0.405000 0.257500
0.131250 0.405000 0.257500
0.262500 0.405000 0.257500
0.393750 0.405000 0.257500
0.525000 0.405000 0.257500
0.656250 0.405000 0.257500
0.787500 0.405000 0.257500
0.918750 0.405000 0.257500
1.000000 0.405000 0.257500
0.000000 0.540000 0.257500
0.131250 0.540000 0.257500
0.262500 0.540000 0.257500
0.393750 0.540000 0.257500
0.525000 0.540000 0.257500
0.656250 0.540000 0.257500
0.787500 0.540000 0.257500
0.918750 0.540000 0.257500
1.000000 0.540000 0.257500
0.000000 0.675000 0.257500
0.131250 0.675000 0.257500
0.262500 0.675000 0.257500
0.393750 0.675000 0.257500
0.525000 0.675000 0.257500
0.656250 0.675000 0.257500
0.787500 0.675000 0.257500
0.918750 0.675000 0.257500
1.000000 0.675000 0.257500
0.000000 0.810000 0.257500
0.131250 0.810000 0.257500
0.262500 0.810000 0.257500
0.393750 0.810000 0.257500
0.525000 0.810000 0.257500
0.656250 0.810000 0.257500
0.787500 0.810000 0.257500
0.918750 0.810000 0.257500
1.000000 0.810000 0.257500
0.000000 0.945000 0.257500
0.131250 0.945000 0.257500
0.262500 0.945000 0.257500
0.393750 0.945000 0.257500
0.525000 0.945000 0.257500
0.656250 0.945000 0.257500
0.787500 0.945000 0.257500
0.918750 0.945000 0.257500
1.000000 0.945000 0.257500
0.000000 1.000000 0.257500
0.131250 1.000000 0.257500
0.262500 1.000000 0.257500
0.393750 1.000000 0.257500
0.525000 1.000000 0.257500
0.656250 1.000000 0.257500
0.787500 1.000000 0.257500
0.918750 1.000000 0.257500
1.000000 1.000000 0.257500
0.000000 0.000000 0.376250
0.131250 0.000000 0.376250
0.262500 0.000000 0.376250
0.393750 0.000000 0.376250
0.525000 0.000000 0.376250
0.656250 0.000000 0.376250
0.787500 0.000000 0.376250
0.918750 0.000000 0.376250
1.000000 0.000000 0.376250
0.000000 0.135000 0.376250
0.131250 0.135000 0.376250
0.262500 0.135000 0.376250
0.393750 0.135000 0.376250
0.525000 0.135000 0.376250
0.656250 0.135000 0.376250
0.787500 0.135000 0.376250
0.918750 0.135000 0.376250
1.000000 0.135000 0.376250
0.000000 0.270000 0.376250
0.131250 0.270000 0.376250
0.262500 0.270000 0.376250
0.393750 0.270000 0.376250
0.525000 0.270000 0.376250
0.656250 0.270000 0.376250
0.787500 0.270000 0.376250
0.918750 0.270000 0.376250
1.000000 0.270000 0.376250
0.000000 0.405000 0.376250
0.131250 0.405000 0.376250
0.262500 0.405000 0.376250
0.393750 0.405000 0.376250
0.525000 0.405000 0.376250
0.656250 0.405000 0.376250
0.787500 0.405000 0.376250
0.918750 0.405000 0.376250
1.000000 0.405000 0.376250
0.000000 0.540000 0.376250
0.131250 0.540000 0.376250
0.262500 0.540000 0.376250
0.393750 0.540000 0.376250
0.525000 0.540000 0.376250
0.656250 0.540000 0.376250
0.787500 0.540000 0.376250
0.918750 0.540000 0.376250
1.000000 0.540000 0.376250
0.000000 0.675000 0.376250
0.131250 0.675000 0.376250
0.262500 0.675000 0.376250
0.393750 0.675000 0.376250
0.525000 0.675000 0.376250
0.656250 0.675000 0.376250
0.787500 0.675000 0.376250
0.918750 0.675000 0.376250
1.000000 0.675000 0.376250
0.000000 0.810000 0.376250
0.131250 0.810000 0.376250
0.262500 0.810000 0.376250
0.393750 0.810000 0.376250
0.525000 0.810000 0.376250
0.656250 0.810000 0.376250
0.787500 0.810000 0.376250
0.918750 0.810000 0.376250
1.000000 0.810000 0.376250
0.000000 0.945000 0.376250
0.131250 0.945000 0.376250
0.262500 0.945000 0.376250
0.393750 0.945000 0.376250
0.525000 0.945000 0.376250
0.656250 0.945000 0.376250
0.787500 0.945000 0.376250
0.918750 0.945000 0.376250
1.000000 0.945000 0.376250
0.000000 1.000000 0.376250
0.131250 1.000000 0.376250
0.262500 1.000000 0.376250
0.393750 1.000000 0.376250
0.525000 1.000000 0.376250
0.656250 1.000000 0.376250
0.787500 1.000000 0.376250
0.918750 1.000000 0.376250
1.000000 1.000000 0.376250
0.000000 0.000000 0.495000
0.131250 0.000000 0.495000
0.262500 0.000000 0.495000
0.393750 0.000000 0.495000
0.525000 0.000000 0.495000
0.656250 0.000000 0.495000
0.787500 0.000000 0.495000
0.918750 0.000000 0.495000
1.000000 0.000000 0.495000
0.000000 0.135000 0.495000
0.131250 0.135000 0.495000
0.262500 0.135000 0.495000
0.393750 0.135000 0.495000
0.525000 0.135000 0.495000
0.656250 0.135000 0.495000
0.787500 0.135000 0.495000
0.918750 0.135000 0.495000
1.000000 0.135000 0.495000
0.000000 0.270000 0.495000
0.131250 0.270000 0.495000
0.262500 0.270000 0.495000
0.393750 0.270000 0.495000
0.525000 0.270000 0.495000
0.656250 0.270000 0.495000
0.787500 0.270000 0.495000
0.918750 0.270000 0.495000
1.000000 0.270000 0.495000
0.000000 0.405000 0.495000
0.131250 0.405000 0.495000
0.262500 0.405000 0.495000
0.393750 0.405000 0.495000
0.525000 0.405000 0.495000
0.656250 0.405000 0.495000
0.787500 0.405000 0.495000
0.918750 0.405000 0.495000
1.000000 0.405000 0.495000
0.000000 0.540000 0.495000
0.131250 0.540000 0.495000
0.262500 0.540000 0.495000
0.393750 0.540000 0.495000
0.525000 0.540000 0.495000
0.656250 0.540000 0.495000
0.787500 0.540000 0.495000
0.918750 0.540000 0.495000
1.000000 0.540000 0.495000
0.000000 0.675000 0.495000
0.131250 0.675000 0.495000
0.262500 0.675000 0.495000
0.393750 0.675000 0.495000
0.525000 0.675000 0.495000
0.656250 0.675000 0.495000
0.787500 0.675000 0.495000
0.918750 0.675000 0.495000
1.000000 0.675000 0.495000
0.000000 0.810000 0.495000
0.131250 0.810000 0.495000
0.262500 0.810000 0.495000
0.393750 0.810000 0.495000
0.525000 0.810000 0.495000
0.656250 0.810000 0.495000
0.787500 0.810000 0.495000
0.918750 0.810000 0.495000
1.000000 0.810000 0.495000
0.000000 0.945000 0.495000
0.131250 0.945000 0.495000
0.262500 0.945000 0.495000
0.393750 0.945000 0.495000
0.525000 0.945000 0.495000
0.656250 0.945000 0.495000
0.787500 0.945000 0.495000
0.918750 0.945000 0.495000
1.000000 0.945000 0.495000
0.000000 1.000000 0.495000
0.131250 1.000000 0.495000
0.262500 1.000000 0.495000
0.393750 1.000000 0.495000
0.525000 1.000000 0.495000
0.656250 1.000000 0.495000
0.787500 1.000000 0.495000
0.918750 1.000000 0.495000
1.000000 1.000000 0.495000
0.000000 0.000000 0.613750
0.131250 0.000000 0.613750
0.262500 0.000000 0.613750
0.393750 0.000000 0.613750
0.525000 0.000000 0.613750
0.656250 0.000000 0.613750
0.787500 0.000000 0.613750
0.918750 0.000000 0.613750
1.000000 0.000000 0.613750
0.000000 0.135000 0.613750
0.131250 0.135000 0.613750
0.262500 0.135000 0.613750
0.393750 0.135000 0.613750
0.525000 0.135000 0.613750
0.656250 0.135000 0.613750
0.787500 0.135000 0.613750
0.918750 0.135000 0.613750
1.000000 0.135000 0.613750
0.000000 0.270000 0.613750
0.131250 0.270000 0.613750
0.262500 0.270000 0.613750
0.393750 0.270000 0.613750
0.525000 0.270000 0.613750
0.656250 0.270000 0.613750
0.787500 0.270000 0.613750
0.918750 0.270000 0.613750
1.000000 0.270000 0.613750
0.000000 0.405000 0.613750
0.131250 0.405000 0.613750
0.262500 0.405000 0.613750
0.393750 0.405000 0.613750
0.525000 0.405000 0.613750
0.656250 0.405000 0.613750
0.787500 0.405000 0.613750
0.918750 0.405000 0.613750
1.000000 0.405000 0.613750
0.000000 0.540000 0.613750
0.131250 0.540000 0.613750
0.262500 0.540000 0.613750
0.393750 0.540000 0.613750
0.525000 0.540000 0.613750
0.656250 0.540000 0.613750
0.787500 0.540000 0.613750
0.918750 0.540000 0.613750
1.000000 0.540000 0.613750
0.000000 0.675000 0.613750
0.131250 0.675000 0.613750
0.262500 0.675000 0.613750
0.393750 0.675000 0.613750
0.525000 0.675000 0.613750
0.656250 0.675000 0.613750
0.787500 0.675000 0.613750
0.918750 0.675000 0.613750
1.000000 0.675000 0.613750
0.000000 0.810000 0.613750
0.131250 0.810000 0.613750
0.262500 0.810000 0.613750
0.393750 0.810000 0.613750
0.525000 0.810000 0.613750
0.656250 0.810000 0.613750
0.787500 0.810000 0.613750
0.918750 0.810000 0.613750
1.000000 0.810000 0.613750
0.000000 0.945000 0.613750
0.131250 0.945000 0.613750
0.262500 0.945000 0.613750
0.393750 0.945000 0.613750
0.525000 0.945000 0.613750
0.656250 0.945000 0.613750
0.787500 0.945000 0.613750
0.918750 0.945000 0.613750
1.000000 0.945000 0.613750
0.000000 1.000000 0.613750
0.131250 1.000000 0.613750
0.262500 1.000000 0.613750
0.393750 1.000000 0.613750
0.525000 1.000000 0.613750
0.656250 1.000000 0.613750
0.787500 1.000000 0.613750
0.918750 1.000000 0.613750
1.000000 1.000000 0.613750
0.000000 0.000000 0.732500
0.131250 0.000000 0.732500
0.262500 0.000000 0.732500
0.393750 0.000000 0.732500
0.525000 0.000000 0.732500
0.656250 0.000000 0.732500
0.787500 0.000000 0.732500
0.918750 0.000000 0.732500
1.000000 0.000000 0.732500
0.000000 0.135000 0.732500
0.131250 0.135000 0.732500
0.262500 0.135000 0.732500
0.393750 0.135000 0.732500
0.525000 0.135000 0.732500
0.656250 0.135000 0.732500
0.787500 0.135000 0.732500
0.918750 0.135000 0.732500
1.000000 0.135000 0.732500
0.000000 0.270000 0.732500
0.131250 0.270000 0.732500
0.262500 0.270000 0.732500
0.393750 0.270000 0.732500
0.525000 0.270000 0.732500
0.656250 0.270000 0.732500
0.787500 0.270000 0.732500
0.918750 0.270000 0.732500
1.000000 0.270000 0.732500
0.000000 0.405000 0.732500
0.131250 0.405000 0.732500
0.262500 0.405000 0.732500
0.393750 0.405000 0.732500
0.525000 0.405000 0.732500
0.656250 0.405000 0.732500
0.787500 0.405000 0.732500
0.918750 0.405000 0.732500
1.000000 0.405000 0.732500
0.000000 0.540000 0.732500
0.131250 0.540000 0.732500
0.262500 0.540000 0.732500
0.393750 0.540000 0.732500
0.525000 0.540000 0.732500
0.656250 0.540000 0.732500
0.787500 0.540000 0.732500
0.918750 0.540000 0.732500
1.000000 0.540000 0.732500
0.000000 0.675000 0.732500
0.131250 0.675000 0.732500
0.262500 0.675000 0.732500
0.393750 0.675000 0.732500
0.525000 0.675000 0.732500
0.656250 0.675000 0.732500
0.787500 0.675000 0.732500
0.918750 0.675000 0.732500
1.000000 0.675000 0.732500
0.000000 0.810000 0.732500
0.131250 0.810000 0.732500
0.262500 0.810000 0.732500
0.393750 0.810000 0.732500
0.525000 0.810000 0.732500
0.656250 0.810000 0.732500
0.787500 0.810000 0.732500
0.918750 0.810000 0.732500
1.000000 0.810000 0.732500
0.000000 0.945000 0.732500
0.131250 0.945000 0.732500
0.262500 0.945000 0.732500
0.393750 0.945000 0.732500
0.525000 0.945000 0.732500
0.656250 0.945000 0.732500
0.787500 0.945000 0.732500
0.918750 0.945000 0.732500
1.000000 0.945000 0.732500
0.000000 1.000000 0.732500
0.131250 1.000000 0.732500
0.262500 1.000000 0.732500
0.393750 1.000000 0.732500
0.525000 1.000000 0.732500
0.656250 1.000000 0.732500
0.787500 1.000000 0.732500
0.918750 1.000000 0.732500
1.000000 1.000000 0.732500
0.000000 0.000000 0.851250
0.131250 0.000000 0.851250
0.262500 0.000000 0.851250
0.393750 0.000000 0.851250
0.525000 0.000000 0.851250
0.656250 0.000000 0.851250
0.787500 0.000000 0.851250
0.918750 0.000000 0.851250
1.000000 0.000000 0.851250
0.000000 0.135000 0.851250
0.131250 0.135000 0.851250
0.262500 0.135000 0.851250
0.393750 0.135000 0.851250
0.525000 0.135000 0.851250
0.656250 0.135000 0.851250
0.787500 0.135000 0.851250
0.918750 0.135000 0.851250
1.000000 0.135000 0.851250
0.000000 0.270000 0.851250
0.131250 0.270000 0.851250
0.262500 0.270000 0.851250
0.393750 0.270000 0.851250
0.525000 0.270000 0.851250
0.656250 0.270000 0.851250
0.787500 0.270000 0.851250
0.918750 0.270000 0.851250
1.000000 0.270000 0.851250
0.000000 0.405000 0.851250
0.131250 0.405000 0.851250
0.262500 0.405000 0.851250
0.393750 0.405000 0.851250
0.525000 0.405000 0.851250
0.656250 0.405000 0.851250
0.787500 0.405000 0.851250
0.918750 0.405000 0.851250
1.000000 0.405000 0.851250
0.000000 0.540000 0.851250
0.131250 0.540000 0.851250
0.262500 0.540000 0.851250
0.393750 0.540000 0.851250
0.525000 0.540000 0.851250
0.656250 0.540000 0.851250
0.787500 0.540000 0.851250
0.918750 0.540000 0.851250
1.000000 0.540000 0.851250
0.000000 0.675000 0.851250
0.131250 0.675000 0.851250
0.262500 0.675000 0.851250
0.393750 0.675000 0.851250
0.525000 0.675000 0.851250
0.656250 0.675000 0.851250
0.787500 0.675000 0.851250
0.918750 0.675000 0.851250
1.000000 0.675000 0.851250
0.000000 0.810000 0.851250
0.131250 0.810000 0.851250
0.262500 0.810000 0.851250
0.393750 0.810000 0.851250
0.525000 0.810000 0.851250
0.656250 0.810000 0.851250
0.787500 0.810000 0.851250
0.918750 0.810000 0.851250
1.000000 0.810000 0.851250
0.000000 0.945000 0.851250
0.131250 0.945000 0.851250
0.262500 0.945000 0.851250
0.393750 0.945000 0.851250
0.525000 0.945000 0.851250
0.656250 0.945000 0.851250
0.787500 0.945000 0.851250
0.918750 0.945000 0.851250
1.000000 0.945000 0.851250
0.000000 1.000000 0.851250
0.131250 1.000000 0.851250
0.262500 1.000000 0.851250
0.393750 1.000000 0.851250
0.525000 1.000000 0.851250
0.656250 1.000000 0.851250
0.787500 1.000000 0.851250
0.918750 1.000000 0.851250
1.000000 1.000000 0.851250
0.000000 0.000000 0.970000
0.131250 0.000000 0.970000
0.262500 0.000000 0.970000
0.393750 0.000000 0.970000
0.525000 0.000000 0.970000
0.656250 0.000000 0.970000
0.787500 0.000000 0.970000
0.918750 0.000000 0.970000
1.000000 0.000000 0.970000
0.000000 0.135000 0.970000
0.131250 0.135000 0.970000
0.262500 0.135000 0.970000
0.393750 0.135000 0.970000
0.525000 0.135000 0.970000
0.656250 0.135000 0.970000
0.787500 0.135000 0.970000
0.918750 0.135000 0.970000
1.000000 0.135000 0.970000
0.000000 0.270000 0.970000
0.131250 0.270000 0.970000
0.262500 0.270000 0.970000
0.393750 0.270000 0.970000
0.525000 0.270000 0.970000
0.656250 0.270000 0.970000
0.787500 0.270000 0.970000
0.918750 0.270000 0.970000
1.000000 0.270000 0.970000
0.000000 0.405000 0.970000
0.131250 0.405000 0.970000
0.262500 0.405000 0.970000
0.393750 0.405000 0.970000
0.525000 0.405000 0.970000
0.656250 0.405000 0.970000
0.787500 0.405000 0.970000
0.918750 0.405000 0.970000
1.000000 0.405000 0.970000
0.000000 0.540000 0.970000
0.131250 0.540000 0.970000
0.262500 0.540000 0.970000
0.393750 0.540000 0.970000
0.525000 0.540000 0.970000
0.656250 0.540000 0.970000
0.787500 0.540000 0.970000
0.918750 0.540000 0.970000
1.000000 0.540000 0.970000
0.000000 0.675000 0.970000
0.131250 0.675000 0.970000
0.262500 0.675000 0.970000
0.393750 0.675000 0.970000
0.525000 0.675000 0.970000
0.656250 0.675000 0.970000
0.787500 0.675000 0.970000
0.918750 0.675000 0.970000
1.000000 0.675000 0.970000
0.000000 0.810000 0.970000
0.131250 0.810000 0.970000
0.262500 0.810000 0.970000
0.393750 0.810000 0.970000
0.525000 0.810000 0.970000
0.656250 0.810000 0.970000
0.787500 0.810000 0.970000
0.918750 0.810000 0.970000
1.000000 0.810000 0.970000
0.000000 0.945000 0.970000
0.131250 0.945000 0.970000
0.262500 0.945000 0.970000
0.393750 0.945000 0.970000
0.525000 0.945000 0.970000
0.656250 0.945000 0.970000
0.787500 0.945000 0.970000
0.918750 0.945000 0.970000
1.000000 0.945000 0.970000
0.000000 1.000000 0.970000
0.131250 1.000000 0.970000
0.262500 1.000000 0.970000
0.393750 1.000000 0.970000
0.525000 1.000000 0.970000
0.656250 1.000000 0.970000
0.787500 1.000000 0.970000
0.918750 1.000000 0.970000
1.000000 1.000000 0.970000
